;FLAVOR:Marlin
;TIME:5425
;Filament used: 1.32032m
;Layer height: 0.12
;MINX:41.514
;MINY:14.071
;MINZ:0.12
;MAXX:75.63
;MAXY:170.152
;MAXZ:4.44
;TARGET_MACHINE.NAME:Creality Ender-3 Pro
;Generated with Cura_SteamEngine 5.8.1
M82 ;absolute extrusion mode
; Ender 3 Custom Start G-code
G92 E0 ; Reset Extruder
G28 ; Home all axes
G1 Z5.0 F3000 ; Move Z Axis up a bit during heating to not damage bed
M104 S210.0 ; Start heating up the nozzle most of the way
M190 S60.0 ; Start heating the bed, wait until target temperature reached
M109 S205.0 ; Finish heating the nozzle
G1 Z2.0 F3000 ; Move Z Axis up little to prevent scratching of Heat Bed
G1 X0.1 Y20 Z0.3 F5000.0 ; Move to start position
G1 X0.1 Y200.0 Z0.3 F1500.0 E15 ; Draw the first line
G1 X0.4 Y200.0 Z0.3 F5000.0 ; Move to side a little
G1 X0.4 Y20 Z0.3 F1500.0 E30 ; Draw the second line
G92 E0 ; Reset Extruder
G1 Z2.0 F3000 ; Move Z Axis up little to prevent scratching of Heat Bed
G1 X5 Y20 Z0.3 F5000.0 ; Move over to prevent blob squish
G92 E0
G92 E0
G1 F1500 E-6.5
;LAYER_COUNT:37
;LAYER:0
M107
G0 F6000 X42.682 Y20.186 Z0.12
;TYPE:SKIRT
G1 F1500 E0
G1 F1200 X43.153 Y19.334 E0.01943
G1 X43.698 Y18.527 E0.03886
G1 X44.289 Y17.797 E0.0576
G1 X44.992 Y17.072 E0.07776
G1 X45.729 Y16.438 E0.09716
G1 X46.52 Y15.869 E0.1166
G1 X47.359 Y15.372 E0.13606
G1 X48.173 Y14.981 E0.15408
G1 X49.15 Y14.613 E0.17492
G1 X50.054 Y14.363 E0.19364
G1 X51.056 Y14.18 E0.21396
G1 X52.227 Y14.084 E0.23741
G1 X52.834 Y14.071 E0.24953
G1 X56.14 Y14.071 E0.3155
G1 X57.53 Y14.09 E0.34324
G1 X61.222 Y14.072 E0.41692
G1 X64.073 Y14.073 E0.47382
G1 X64.806 Y14.085 E0.48845
G1 X65.778 Y14.144 E0.50788
G1 X66.741 Y14.29 E0.52732
G1 X67.688 Y14.521 E0.54677
G1 X68.576 Y14.821 E0.56547
G1 X69.468 Y15.211 E0.5849
G1 X70.351 Y15.698 E0.60503
G1 X71.102 Y16.2 E0.62305
G1 X71.917 Y16.858 E0.64396
G1 X72.615 Y17.536 E0.66337
G1 X73.251 Y18.273 E0.6828
G1 X73.821 Y19.063 E0.70224
G1 X74.283 Y19.839 E0.72026
G1 X74.737 Y20.781 E0.74113
G1 X75.066 Y21.659 E0.75984
G1 X75.335 Y22.631 E0.77997
G1 X75.512 Y23.597 E0.79957
G1 X75.607 Y24.727 E0.8222
G1 X75.622 Y25.42 E0.83603
G1 X75.618 Y27.927 E0.88606
G1 X75.63 Y30.057 E0.92857
G1 X75.617 Y30.402 E0.93546
G1 X75.618 Y33.725 E1.00177
G1 X75.629 Y35.863 E1.04444
G1 X75.616 Y36.178 E1.05073
G1 X75.629 Y41.663 E1.16019
G1 X75.616 Y41.978 E1.16648
G1 X75.629 Y47.463 E1.27594
G1 X75.616 Y47.778 E1.28223
G1 X75.629 Y53.263 E1.39169
G1 X75.616 Y53.578 E1.39798
G1 X75.629 Y59.063 E1.50744
G1 X75.616 Y59.378 E1.51373
G1 X75.629 Y64.863 E1.62319
G1 X75.616 Y65.178 E1.62948
G1 X75.629 Y70.663 E1.73894
G1 X75.616 Y70.978 E1.74524
G1 X75.629 Y76.463 E1.8547
G1 X75.616 Y76.778 E1.86099
G1 X75.629 Y82.263 E1.97045
G1 X75.616 Y82.578 E1.97674
G1 X75.629 Y88.063 E2.0862
G1 X75.616 Y88.378 E2.09249
G1 X75.629 Y93.863 E2.20195
G1 X75.616 Y94.178 E2.20824
G1 X75.629 Y99.663 E2.3177
G1 X75.616 Y99.978 E2.32399
G1 X75.629 Y105.463 E2.43345
G1 X75.616 Y105.778 E2.43974
G1 X75.629 Y111.263 E2.5492
G1 X75.616 Y111.578 E2.55549
G1 X75.629 Y117.063 E2.66495
G1 X75.616 Y117.378 E2.67124
G1 X75.629 Y122.863 E2.7807
G1 X75.616 Y123.178 E2.78699
G1 X75.629 Y128.663 E2.89645
G1 X75.616 Y128.978 E2.90275
G1 X75.629 Y134.463 E3.0122
G1 X75.616 Y134.778 E3.0185
G1 X75.629 Y140.263 E3.12796
G1 X75.616 Y140.578 E3.13425
G1 X75.629 Y146.063 E3.24371
G1 X75.616 Y146.378 E3.25
G1 X75.629 Y151.863 E3.35946
G1 X75.615 Y152.219 E3.36657
G1 X75.621 Y155.345 E3.42895
G1 X75.609 Y156.1 E3.44402
G1 X75.551 Y157.075 E3.46351
G1 X75.404 Y158.036 E3.48291
G1 X75.174 Y158.983 E3.50236
G1 X74.861 Y159.905 E3.52179
G1 X74.469 Y160.796 E3.54122
G1 X73.999 Y161.647 E3.56062
G1 X73.497 Y162.398 E3.57864
G1 X72.84 Y163.212 E3.59952
G1 X72.162 Y163.912 E3.61897
G1 X71.42 Y164.552 E3.63852
G1 X70.515 Y165.194 E3.66066
G1 X69.49 Y165.848 E3.68493
G1 X66.589 Y167.768 E3.75435
G1 X65.939 Y168.213 E3.77007
G1 X65.08 Y168.745 E3.79023
G1 X64.21 Y169.181 E3.80965
G1 X63.339 Y169.528 E3.82837
G1 X62.373 Y169.816 E3.84848
G1 X61.488 Y169.998 E3.86651
G1 X60.462 Y170.117 E3.88712
G1 X59.918 Y170.138 E3.89799
G1 X59.168 Y170.152 E3.91296
G1 X57.833 Y170.152 E3.9396
G1 X57.125 Y170.14 E3.95373
G1 X56.155 Y170.08 E3.97312
G1 X55.189 Y169.934 E3.99262
G1 X54.244 Y169.702 E4.01204
G1 X53.323 Y169.388 E4.03146
G1 X52.432 Y168.995 E4.05089
G1 X51.64 Y168.56 E4.06892
G1 X51.04 Y168.171 E4.08319
G1 X50.123 Y167.532 E4.1055
G1 X49.835 Y167.342 E4.11238
G1 X49.176 Y166.879 E4.12846
G1 X46.441 Y165.071 E4.19388
G1 X45.654 Y164.497 E4.21332
G1 X44.921 Y163.855 E4.23277
G1 X44.249 Y163.15 E4.2522
G1 X43.641 Y162.389 E4.27164
G1 X43.104 Y161.577 E4.29107
G1 X42.639 Y160.722 E4.31049
G1 X42.278 Y159.894 E4.32852
G1 X41.947 Y158.903 E4.34937
G1 X41.724 Y157.955 E4.3688
G1 X41.592 Y157.062 E4.38682
G1 X41.537 Y156.245 E4.40316
G1 X41.522 Y155.57 E4.41663
G1 X41.526 Y153.064 E4.46664
G1 X41.514 Y150.933 E4.50917
G1 X41.527 Y150.588 E4.51606
G1 X41.526 Y147.266 E4.58235
G1 X41.515 Y145.127 E4.62504
G1 X41.528 Y144.812 E4.63133
G1 X41.515 Y139.327 E4.74079
G1 X41.528 Y139.012 E4.74708
G1 X41.515 Y133.527 E4.85654
G1 X41.528 Y133.212 E4.86283
G1 X41.515 Y127.727 E4.97229
G1 X41.528 Y127.412 E4.97858
G1 X41.515 Y121.927 E5.08804
G1 X41.528 Y121.612 E5.09434
G1 X41.515 Y116.127 E5.2038
G1 X41.528 Y115.812 E5.21009
G1 X41.515 Y110.327 E5.31955
G1 X41.528 Y110.012 E5.32584
G1 X41.515 Y104.527 E5.4353
G1 X41.528 Y104.212 E5.44159
G1 X41.515 Y98.727 E5.55105
G1 X41.528 Y98.412 E5.55734
G1 X41.515 Y92.927 E5.6668
G1 X41.528 Y92.612 E5.67309
G1 X41.515 Y87.127 E5.78255
G1 X41.528 Y86.812 E5.78884
G1 X41.515 Y81.327 E5.8983
G1 X41.528 Y81.012 E5.90459
G1 X41.515 Y75.527 E6.01405
G1 X41.528 Y75.212 E6.02034
G1 X41.515 Y69.727 E6.1298
G1 X41.528 Y69.412 E6.13609
G1 X41.515 Y63.927 E6.24555
G1 X41.528 Y63.612 E6.25185
G1 X41.515 Y58.127 E6.3613
G1 X41.528 Y57.812 E6.3676
G1 X41.515 Y52.327 E6.47706
G1 X41.528 Y52.012 E6.48335
G1 X41.515 Y46.527 E6.59281
G1 X41.528 Y46.212 E6.5991
G1 X41.515 Y40.727 E6.70856
G1 X41.528 Y40.412 E6.71485
G1 X41.515 Y34.927 E6.82431
G1 X41.528 Y34.612 E6.8306
G1 X41.515 Y29.127 E6.94006
G1 X41.529 Y28.77 E6.94719
G1 X41.523 Y25.581 E7.01083
G1 X41.535 Y24.879 E7.02484
G1 X41.595 Y23.906 E7.04429
G1 X41.742 Y22.945 E7.0637
G1 X41.973 Y21.997 E7.08317
G1 X42.275 Y21.108 E7.1019
G1 X42.682 Y20.186 E7.12202
G0 F6000 X43.032 Y20.379
G1 F1200 X43.485 Y19.557 E7.14075
G1 X44.009 Y18.779 E7.15947
G1 X44.6 Y18.049 E7.17821
G1 X45.253 Y17.375 E7.19694
G1 X45.963 Y16.762 E7.21566
G1 X46.724 Y16.213 E7.23438
G1 X47.532 Y15.733 E7.25314
G1 X48.346 Y15.342 E7.27116
G1 X49.257 Y14.999 E7.29058
G1 X50.161 Y14.749 E7.3093
G1 X51.089 Y14.579 E7.32813
G1 X52.236 Y14.484 E7.3511
G1 X52.843 Y14.471 E7.36321
G1 X56.135 Y14.471 E7.42891
G1 X57.527 Y14.49 E7.45669
G1 X61.222 Y14.472 E7.53043
G1 X64.067 Y14.473 E7.5872
G1 X64.782 Y14.484 E7.60147
G1 X65.719 Y14.54 E7.62021
G1 X66.647 Y14.679 E7.63893
G1 X67.56 Y14.9 E7.65768
G1 X68.416 Y15.188 E7.6757
G1 X69.308 Y15.578 E7.69513
G1 X70.129 Y16.031 E7.71384
G1 X70.88 Y16.533 E7.73187
G1 X71.639 Y17.145 E7.75133
G1 X72.313 Y17.798 E7.77005
G1 X72.927 Y18.507 E7.78877
G1 X73.477 Y19.268 E7.80751
G1 X73.939 Y20.044 E7.82553
G1 X74.362 Y20.921 E7.84496
G1 X74.691 Y21.799 E7.86367
G1 X74.942 Y22.704 E7.88241
G1 X75.113 Y23.631 E7.90123
G1 X75.208 Y24.761 E7.92386
G1 X75.222 Y25.419 E7.93699
G1 X75.218 Y27.926 E7.98702
G1 X75.23 Y30.042 E8.02925
G1 X75.217 Y30.387 E8.03614
G1 X75.218 Y33.725 E8.10275
G1 X75.229 Y35.847 E8.1451
G1 X75.216 Y36.162 E8.15139
G1 X75.229 Y41.647 E8.26085
G1 X75.216 Y41.962 E8.26714
G1 X75.229 Y47.447 E8.3766
G1 X75.216 Y47.762 E8.38289
G1 X75.229 Y53.247 E8.49235
G1 X75.216 Y53.562 E8.49864
G1 X75.229 Y59.047 E8.6081
G1 X75.216 Y59.362 E8.61439
G1 X75.229 Y64.847 E8.72385
G1 X75.216 Y65.162 E8.73014
G1 X75.229 Y70.647 E8.8396
G1 X75.216 Y70.962 E8.8459
G1 X75.229 Y76.447 E8.95535
G1 X75.216 Y76.762 E8.96165
G1 X75.229 Y82.247 E9.07111
G1 X75.216 Y82.562 E9.0774
G1 X75.229 Y88.047 E9.18686
G1 X75.216 Y88.362 E9.19315
G1 X75.229 Y93.847 E9.30261
G1 X75.216 Y94.162 E9.3089
G1 X75.229 Y99.647 E9.41836
G1 X75.216 Y99.962 E9.42465
G1 X75.229 Y105.447 E9.53411
G1 X75.216 Y105.762 E9.5404
G1 X75.229 Y111.247 E9.64986
G1 X75.216 Y111.562 E9.65615
G1 X75.229 Y117.047 E9.76561
G1 X75.216 Y117.362 E9.7719
G1 X75.229 Y122.847 E9.88136
G1 X75.216 Y123.162 E9.88765
G1 X75.229 Y128.647 E9.99711
G1 X75.216 Y128.962 E10.0034
G1 X75.229 Y134.447 E10.11286
G1 X75.216 Y134.762 E10.11916
G1 X75.229 Y140.247 E10.22862
G1 X75.216 Y140.562 E10.23491
G1 X75.229 Y146.047 E10.34437
G1 X75.216 Y146.362 E10.35066
G1 X75.229 Y151.847 E10.46012
G1 X75.215 Y152.203 E10.46723
G1 X75.221 Y155.339 E10.52981
G1 X75.21 Y156.077 E10.54454
G1 X75.155 Y157.015 E10.56329
G1 X75.015 Y157.942 E10.582
G1 X74.795 Y158.855 E10.60074
G1 X74.495 Y159.744 E10.61946
G1 X74.118 Y160.603 E10.63818
G1 X73.666 Y161.425 E10.6569
G1 X73.164 Y162.176 E10.67493
G1 X72.552 Y162.934 E10.69437
G1 X71.9 Y163.61 E10.71312
G1 X71.188 Y164.226 E10.7319
G1 X70.3 Y164.857 E10.75364
G1 X69.269 Y165.514 E10.77804
G1 X66.368 Y167.434 E10.84746
G1 X65.713 Y167.883 E10.86331
G1 X64.9 Y168.388 E10.88241
G1 X64.062 Y168.809 E10.90113
G1 X63.191 Y169.156 E10.91984
G1 X62.292 Y169.424 E10.93856
G1 X61.407 Y169.606 E10.95659
G1 X60.446 Y169.717 E10.97589
G1 X59.907 Y169.739 E10.98666
G1 X59.161 Y169.752 E11.00155
G1 X57.839 Y169.752 E11.02793
G1 X57.149 Y169.741 E11.0417
G1 X56.214 Y169.684 E11.0604
G1 X55.284 Y169.545 E11.07916
G1 X54.372 Y169.323 E11.09789
G1 X53.484 Y169.022 E11.1166
G1 X52.625 Y168.644 E11.13533
G1 X51.833 Y168.209 E11.15336
G1 X51.269 Y167.843 E11.16678
G1 X50.352 Y167.204 E11.18909
G1 X50.065 Y167.015 E11.19594
G1 X49.396 Y166.545 E11.21226
G1 X46.676 Y164.748 E11.27732
G1 X45.917 Y164.196 E11.29605
G1 X45.21 Y163.578 E11.31478
G1 X44.561 Y162.9 E11.33351
G1 X43.974 Y162.168 E11.35224
G1 X43.455 Y161.386 E11.37097
G1 X43.006 Y160.562 E11.3897
G1 X42.645 Y159.734 E11.40772
G1 X42.336 Y158.811 E11.42715
G1 X42.12 Y157.897 E11.44589
G1 X41.988 Y157.004 E11.4639
G1 X41.937 Y156.236 E11.47926
G1 X41.922 Y155.571 E11.49254
G1 X41.926 Y153.065 E11.54255
G1 X41.914 Y150.948 E11.58479
G1 X41.927 Y150.603 E11.59168
G1 X41.926 Y147.266 E11.65828
G1 X41.915 Y145.143 E11.70064
G1 X41.928 Y144.828 E11.70694
G1 X41.915 Y139.343 E11.8164
G1 X41.928 Y139.028 E11.82269
G1 X41.915 Y133.543 E11.93215
G1 X41.928 Y133.228 E11.93844
G1 X41.915 Y127.743 E12.0479
G1 X41.928 Y127.428 E12.05419
G1 X41.915 Y121.943 E12.16365
G1 X41.928 Y121.628 E12.16994
G1 X41.915 Y116.143 E12.2794
G1 X41.928 Y115.828 E12.28569
G1 X41.915 Y110.343 E12.39515
G1 X41.928 Y110.028 E12.40144
G1 X41.915 Y104.543 E12.5109
G1 X41.928 Y104.228 E12.51719
G1 X41.915 Y98.743 E12.62665
G1 X41.928 Y98.428 E12.63294
G1 X41.915 Y92.943 E12.7424
G1 X41.928 Y92.628 E12.74869
G1 X41.915 Y87.143 E12.85815
G1 X41.928 Y86.828 E12.86445
G1 X41.915 Y81.343 E12.97391
G1 X41.928 Y81.028 E12.9802
G1 X41.915 Y75.543 E13.08966
G1 X41.928 Y75.228 E13.09595
G1 X41.915 Y69.743 E13.20541
G1 X41.928 Y69.428 E13.2117
G1 X41.915 Y63.943 E13.32116
G1 X41.928 Y63.628 E13.32745
G1 X41.915 Y58.143 E13.43691
G1 X41.928 Y57.828 E13.4432
G1 X41.915 Y52.343 E13.55266
G1 X41.928 Y52.028 E13.55895
G1 X41.915 Y46.543 E13.66841
G1 X41.928 Y46.228 E13.6747
G1 X41.915 Y40.743 E13.78416
G1 X41.928 Y40.428 E13.79045
G1 X41.915 Y34.943 E13.89991
G1 X41.928 Y34.628 E13.9062
G1 X41.915 Y29.143 E14.01566
G1 X41.929 Y28.786 E14.02279
G1 X41.923 Y25.587 E14.08663
G1 X41.934 Y24.903 E14.10028
G1 X41.991 Y23.966 E14.11902
G1 X42.131 Y23.039 E14.13773
G1 X42.352 Y22.126 E14.15647
G1 X42.654 Y21.237 E14.17521
G1 X43.032 Y20.379 E14.19392
G0 F6000 X43.383 Y20.571
G1 F1200 X43.817 Y19.78 E14.21193
G1 X44.32 Y19.03 E14.22995
G1 X44.888 Y18.327 E14.24798
G1 X45.515 Y17.677 E14.26601
G1 X46.197 Y17.086 E14.28401
G1 X46.929 Y16.557 E14.30204
G1 X47.705 Y16.094 E14.32007
G1 X48.519 Y15.703 E14.33809
G1 X49.364 Y15.384 E14.35612
G1 X50.234 Y15.142 E14.37414
G1 X51.122 Y14.978 E14.39216
G1 X52.245 Y14.884 E14.41465
G1 X52.852 Y14.871 E14.42676
G1 X56.13 Y14.871 E14.49218
G1 X57.524 Y14.89 E14.52
G1 X61.222 Y14.872 E14.5938
G1 X64.061 Y14.873 E14.65045
G1 X64.759 Y14.883 E14.66439
G1 X65.661 Y14.936 E14.68242
G1 X66.554 Y15.068 E14.70043
G1 X67.432 Y15.279 E14.71845
G1 X68.288 Y15.567 E14.73647
G1 X69.115 Y15.929 E14.75449
G1 X69.907 Y16.364 E14.77252
G1 X70.658 Y16.866 E14.79055
G1 X71.361 Y17.433 E14.80857
G1 X72.011 Y18.06 E14.8266
G1 X72.603 Y18.742 E14.84462
G1 X73.133 Y19.473 E14.86264
G1 X73.595 Y20.249 E14.88066
G1 X73.988 Y21.062 E14.89868
G1 X74.306 Y21.907 E14.9167
G1 X74.549 Y22.777 E14.93472
G1 X74.714 Y23.665 E14.95275
G1 X74.809 Y24.795 E14.97538
G1 X74.822 Y25.418 E14.98781
G1 X74.818 Y27.925 E15.03784
G1 X74.83 Y30.027 E15.07979
G1 X74.817 Y30.372 E15.08668
G1 X74.818 Y33.725 E15.15359
G1 X74.829 Y35.831 E15.19562
G1 X74.816 Y36.146 E15.20191
G1 X74.818 Y39.525 E15.26935
G1 X74.829 Y41.631 E15.31137
G1 X74.816 Y41.946 E15.31766
G1 X74.818 Y45.325 E15.3851
G1 X74.829 Y47.431 E15.42712
G1 X74.816 Y47.746 E15.43342
G1 X74.818 Y51.125 E15.50085
G1 X74.829 Y53.231 E15.54288
G1 X74.816 Y53.546 E15.54917
G1 X74.818 Y56.925 E15.6166
G1 X74.829 Y59.031 E15.65863
G1 X74.816 Y59.346 E15.66492
G1 X74.818 Y62.725 E15.73235
G1 X74.829 Y64.831 E15.77438
G1 X74.816 Y65.146 E15.78067
G1 X74.818 Y68.525 E15.8481
G1 X74.829 Y70.631 E15.89013
G1 X74.816 Y70.946 E15.89642
G1 X74.818 Y74.325 E15.96385
G1 X74.829 Y76.431 E16.00588
G1 X74.816 Y76.746 E16.01217
G1 X74.818 Y80.125 E16.0796
G1 X74.829 Y82.231 E16.12163
G1 X74.816 Y82.546 E16.12792
G1 X74.818 Y85.925 E16.19535
G1 X74.829 Y88.031 E16.23738
G1 X74.816 Y88.346 E16.24367
G1 X74.818 Y91.725 E16.31111
G1 X74.829 Y93.831 E16.35313
G1 X74.816 Y94.146 E16.35943
G1 X74.818 Y97.525 E16.42686
G1 X74.829 Y99.631 E16.46889
G1 X74.816 Y99.946 E16.47518
G1 X74.818 Y103.325 E16.54261
G1 X74.829 Y105.431 E16.58464
G1 X74.816 Y105.746 E16.59093
G1 X74.818 Y109.125 E16.65836
G1 X74.829 Y111.231 E16.70039
G1 X74.816 Y111.546 E16.70668
G1 X74.818 Y114.925 E16.77411
G1 X74.829 Y117.031 E16.81614
G1 X74.816 Y117.346 E16.82243
G1 X74.818 Y120.725 E16.88986
G1 X74.829 Y122.831 E16.93189
G1 X74.816 Y123.146 E16.93818
G1 X74.818 Y126.525 E17.00561
G1 X74.829 Y128.631 E17.04764
G1 X74.816 Y128.946 E17.05393
G1 X74.818 Y132.325 E17.12136
G1 X74.829 Y134.431 E17.16339
G1 X74.816 Y134.746 E17.16968
G1 X74.818 Y138.125 E17.23712
G1 X74.829 Y140.231 E17.27914
G1 X74.816 Y140.546 E17.28544
G1 X74.818 Y143.925 E17.35287
G1 X74.829 Y146.031 E17.3949
G1 X74.816 Y146.346 E17.40119
G1 X74.818 Y149.725 E17.46862
G1 X74.829 Y151.831 E17.51065
G1 X74.815 Y152.187 E17.51776
G1 X74.821 Y155.333 E17.58054
G1 X74.811 Y156.054 E17.59493
G1 X74.759 Y156.956 E17.61296
G1 X74.626 Y157.849 E17.63098
G1 X74.416 Y158.728 E17.64901
G1 X74.129 Y159.584 E17.66703
G1 X73.767 Y160.411 E17.68504
G1 X73.333 Y161.203 E17.70307
G1 X72.831 Y161.954 E17.72109
G1 X72.264 Y162.657 E17.73912
G1 X71.638 Y163.308 E17.75714
G1 X70.956 Y163.9 E17.77516
G1 X70.085 Y164.52 E17.7965
G1 X69.048 Y165.18 E17.82103
G1 X66.147 Y167.1 E17.89045
G1 X65.487 Y167.553 E17.90643
G1 X64.72 Y168.031 E17.92446
G1 X63.914 Y168.438 E17.94248
G1 X63.076 Y168.773 E17.96049
G1 X62.211 Y169.032 E17.97851
G1 X61.326 Y169.214 E17.99654
G1 X60.429 Y169.317 E18.01456
G1 X59.896 Y169.34 E18.02521
G1 X59.155 Y169.352 E18.03999
G1 X57.845 Y169.352 E18.06614
G1 X57.173 Y169.342 E18.07955
G1 X56.272 Y169.288 E18.09756
G1 X55.378 Y169.156 E18.1156
G1 X54.5 Y168.944 E18.13362
G1 X53.645 Y168.656 E18.15163
G1 X52.818 Y168.293 E18.16965
G1 X52.026 Y167.858 E18.18768
G1 X51.498 Y167.515 E18.20025
G1 X50.581 Y166.876 E18.22255
G1 X50.295 Y166.688 E18.22938
G1 X49.616 Y166.211 E18.24594
G1 X46.911 Y164.424 E18.31064
G1 X46.18 Y163.894 E18.32866
G1 X45.499 Y163.301 E18.34668
G1 X44.873 Y162.649 E18.36471
G1 X44.307 Y161.946 E18.38273
G1 X43.806 Y161.194 E18.40076
G1 X43.373 Y160.402 E18.41877
G1 X43.012 Y159.574 E18.4368
G1 X42.725 Y158.718 E18.45481
G1 X42.516 Y157.839 E18.47284
