; Generated by Kiri:Moto 4.0.31
; Wed Oct 23 2024 06:14:10 GMT-0700 (Pacific Daylight Time)
; Bed left:0 right:220 top:220 bottom:0
; Bed type: fixed
; Target: My Any Generic Marlin
; --- process ---
; processName = Ender 3 PLA
; sliceHeight = 0.2
; sliceShells = 3
; sliceShellOrder = in-out
; sliceLayerStart = center
; sliceFillAngle = 45
; sliceFillOverlap = 0.35
; sliceFillSparse = 0.1
; sliceFillType = hex
; sliceAdaptive = false
; sliceMinHeight = 0.18
; sliceSupportDensity = 0.15
; sliceSupportOffset = 0.4
; sliceSupportGap = 0
; sliceSupportSize = 6
; sliceSupportArea = 2
; sliceSupportExtra = 0
; sliceSupportAngle = 1
; sliceSupportNozzle = 0
; sliceSolidMinArea = 5
; sliceSolidLayers = 2
; sliceBottomLayers = 3
; sliceTopLayers = 5
; firstLayerRate = 10
; firstLayerPrintMult = 1
; firstLayerYOffset = 0
; firstLayerBrim = 0
; firstLayerBeltLead = 200
; firstLayerFanSpeed = 0
; outputTemp = 200
; outputBedTemp = 70
; outputFanSpeed = 255
; outputFeedrate = 80
; outputFinishrate = 50
; outputSeekrate = 150
; outputShellMult = 1.35
; outputFillMult = 1.3
; outputSparseMult = 1.3
; outputRetractDist = 4
; outputRetractSpeed = 60
; outputRetractWipe = 2
; outputRetractDwell = 0
; outputShortPoly = 50
; outputMinSpeed = 1
; outputCoastDist = 0.05
; outputLayerRetract = false
; zHopDistance = 0.1
; antiBacklash = 0
; sliceFillWidth = 1
; sliceFillRate = 0
; sliceSupportEnable = false
; firstSliceHeight = 0.2
; firstLayerFillRate = 35
; firstLayerLineMult = 1
; firstLayerNozzleTemp = 0
; firstLayerBedTemp = 0
; firstLayerBrimTrig = 0
; firstLayerBrimGap = 0
; outputRaft = false
; outputRaftSpacing = 0.2
; outputBrimCount = 0
; outputBrimOffset = 2
; outputPurgeTower = 0
; outputInvertX = false
; outputInvertY = false
; arcTolerance = 0
; ranges = []
; outputLoops = 0
; firstLayerBrimIn = 0
; firstLayerBeltBump = 0
; outputBeltFirst = false
; sliceFillRepeat = 4
; sliceLineWidth = 0
; sliceSupportSpan = 5
; sliceSupportOutline = true
; firstLayerFlatten = 0
; outputDraftShield = false
; outputAvoidGaps = true
; sliceDetectThin = off
; --- startup ---
M104 S200 T0             ; set extruder temperature
M140 S70 T0              ; set bed temperature
G90                      ; set absolute positioning mode
M83                      ; set relative positioning for extruder
M107                     ; turn off filament cooling fan
G28                      ; home axes
G92 X0 Y0 Z0 E0          ; reset all axes positions
G1 X0 Y0 Z0.25 F180      ; move xy to 0,0 and z 0.25mm over bed
G92 E0                   ; zero the extruded
M190 S70 T0              ; wait for bed to reach target temp
M109 S200 T0             ; wait for extruder to reach target temp
G1 E15 F200              ; purge 15mm from extruder
G92 E0                   ; zero the extruded
G1 F225                  ; set feed speed
G1 Z1.0 F3000            ; move z up little to prevent scratching
G1 X0.1 Y20 Z0.3 F5000.0 ; move to start-line position
G1 X0.1 Y100.0 Z0.3 F1500.0 E15 ; draw 1st line
G1 X0.4 Y100.0 Z0.3 F5000.0     ; move to side a little
G1 X0.4 Y20 Z0.3 F1500.0 E30    ; draw 2nd line
G92 E0 ; reset extruder
G1 Z1.0 F3000 ; move z up little to prevent scratching of surface
G1 E-4.0000 F3600 ; e-retract 4
;; --- layer 0 (0.200 @ 0.2) ---
G1 Z0.2000 F9000
; feature shells
G1 X114.0000 Y106.0000
G1 E4.0000 F3600 ; e-engage 4
G1 X106.0000 E0.2821 F406
G1 Y114.0000 E0.2821
G1 X114.0000 E0.2821
G1 Y106.0000 E0.2821
G1 X114.4000 Y105.6000 F9000
G1 X105.6000 E0.3103 F440
G1 Y114.4000 E0.3103
G1 X114.4000 E0.3103
G1 Y105.6000 E0.3103
G1 X114.8000 Y105.2000 F9000
G1 X105.2000 E0.3385 F475
G1 Y114.8000 E0.3385
G1 X114.8000 E0.3385
G1 Y105.2000 E0.3385
G1 E-4.0000 F3600 ; e-retract 4
G1 Z0.3000 F9000 ; z-hop start
; feature solid fill
G1 X113.3858 Y106.6142
G1 X113.7400 Y106.8257
G1 Z0.2000 ; z-hop end
G1 E4.0000 F3600 ; e-engage 4
G1 X113.1743 Y106.2600 E0.0353 F2100
G1 X112.6086 E0.0250
G1 X113.7400 Y107.3914 E0.0706
G1 Y107.9571 E0.0250
G1 X112.0429 Y106.2600 E0.1060
G1 X111.4773 E0.0250
G1 X113.7400 Y108.5227 E0.1413
G1 Y109.0884 E0.0250
G1 X110.9116 Y106.2600 E0.1766
G1 X110.3459 E0.0250
G1 X113.7400 Y109.6541 E0.2119
G1 Y110.2198 E0.0250
G1 X109.7802 Y106.2600 E0.2472
G1 X109.2145 E0.0250
G1 X113.7400 Y110.7855 E0.2825
G1 Y111.3512 E0.0250
G1 X108.6488 Y106.2600 E0.3179
G1 X108.0831 E0.0250
G1 X113.7400 Y111.9168 E0.3532
G1 Y112.4825 E0.0250
G1 X107.5175 Y106.2600 E0.3885
G1 X106.9518 E0.0250
G1 X113.7400 Y113.0482 E0.4238
G1 Y113.6139 E0.0250
G1 X106.3861 Y106.2600 E0.4591
G1 X106.2600 Y106.6996 E0.0202
G1 X113.3004 Y113.7400 E0.4396
G1 X112.7347 E0.0250
G1 X106.2600 Y107.2653 E0.4042
G1 Y107.8310 E0.0250
G1 X112.1690 Y113.7400 E0.3689
G1 X111.6033 E0.0250
G1 X106.2600 Y108.3966 E0.3336
G1 Y108.9623 E0.0250
G1 X111.0377 Y113.7400 E0.2983
G1 X110.4720 E0.0250
G1 X106.2600 Y109.5280 E0.2630
G1 Y110.0937 E0.0250
G1 X109.9063 Y113.7400 E0.2276
G1 X109.3406 E0.0250
G1 X106.2600 Y110.6594 E0.1923
G1 Y111.2251 E0.0250
G1 X108.7749 Y113.7400 E0.1570
G1 X108.2092 E0.0250
G1 X106.2600 Y111.7908 E0.1217
G1 Y112.3564 E0.0250
G1 X107.6435 Y113.7400 E0.0864
G1 X107.0779 E0.0250
G1 X106.2600 Y112.9221 E0.0511
G1 X106.3861 Y113.6139 E0.0310
;; --- layer 1 (0.200 @ 0.4) ---
M106 S255
G1 Z0.4000 F9000
; feature shells
G1 X114.0000 Y106.0000
G1 X106.0000 E0.2821 F3094
G1 Y114.0000 E0.2821
G1 X114.0000 E0.2821
G1 Y106.0500 E0.2804
G1 Y106.0000 F9000
G1 X114.4000 Y105.6000
G1 X105.6000 E0.3103 F3397
G1 Y114.4000 E0.3103
G1 X114.4000 E0.3103
G1 Y105.6500 E0.3086
G1 Y105.6000 F9000
G1 X114.8000 Y105.2000
G1 X105.2000 E0.3385 F2318
G1 Y114.8000 E0.3385
G1 X114.8000 E0.3385
G1 Y105.2500 E0.3368
G1 Y105.2000 F9000
G1 E-4.0000 F3600 ; e-retract 4
G1 Z0.5000 F9000 ; z-hop start
; feature solid fill
G1 X113.3858 Y106.6142
G1 X113.6139 Y106.2600
G1 Z0.4000 ; z-hop end
G1 E4.0000 F3600 ; e-engage 4
G1 X106.2600 Y113.6139 E0.4591 F4800
G1 X106.6996 Y113.7400 E0.0202
G1 X113.7400 Y106.6996 E0.4396
G1 Y107.2653 E0.0250
G1 X107.2653 Y113.7400 E0.4042
G1 X107.8310 E0.0250
G1 X113.7400 Y107.8310 E0.3689
G1 Y108.3966 E0.0250
G1 X108.3967 Y113.7400 E0.3336
G1 X108.9623 E0.0250
G1 X113.7400 Y108.9623 E0.2983
G1 Y109.5280 E0.0250
G1 X109.5280 Y113.7400 E0.2630
G1 X110.0937 E0.0250
G1 X113.7400 Y110.0937 E0.2276
G1 Y110.6594 E0.0250
G1 X110.6594 Y113.7400 E0.1923
G1 X111.2251 E0.0250
G1 X113.7400 Y111.2251 E0.1570
G1 Y111.7908 E0.0250
G1 X111.7908 Y113.7400 E0.1217
G1 X112.3565 E0.0250
G1 X113.7400 Y112.3564 E0.0864
G1 Y112.9221 E0.0250
G1 X112.9221 Y113.7400 E0.0511
G1 X113.6139 Y113.6139 E0.0310
G1 E-4.0000 F3600 ; e-retract 4
G1 Z0.5000 F9000 ; z-hop start
G1 X112.1997 Y112.1997
G1 X106.2600 Y113.0482
G1 Z0.4000 ; z-hop end
G1 E4.0000 F3600 ; e-engage 4
G1 X113.0482 Y106.2600 E0.4238 F4800
G1 X112.4825 E0.0250
G1 X106.2600 Y112.4825 E0.3885
G1 Y111.9168 E0.0250
G1 X111.9169 Y106.2600 E0.3532
G1 X111.3512 E0.0250
G1 X106.2600 Y111.3512 E0.3179
G1 Y110.7855 E0.0250
G1 X110.7855 Y106.2600 E0.2825
G1 X110.2198 E0.0250
G1 X106.2600 Y110.2198 E0.2472
G1 Y109.6541 E0.0250
G1 X109.6541 Y106.2600 E0.2119
G1 X109.0884 E0.0250
G1 X106.2600 Y109.0884 E0.1766
G1 Y108.5227 E0.0250
G1 X108.5227 Y106.2600 E0.1413
G1 X107.9571 E0.0250
G1 X106.2600 Y107.9571 E0.1060
G1 Y107.3914 E0.0250
G1 X107.3914 Y106.2600 E0.0706
G1 X106.5428 Y106.5428 E0.0395
;; --- layer 2 (0.200 @ 0.6) ---
G1 Z0.6000 F9000
; feature shells
G1 X114.0000 Y106.0000
G1 X106.0000 E0.2821 F3094
G1 Y114.0000 E0.2821
G1 X114.0000 E0.2821
G1 Y106.0500 E0.2804
G1 Y106.0000 F9000
G1 X114.4000 Y105.6000
G1 X105.6000 E0.3103 F3397
G1 Y114.4000 E0.3103
G1 X114.4000 E0.3103
G1 Y105.6500 E0.3086
G1 Y105.6000 F9000
G1 X114.8000 Y105.2000
G1 X105.2000 E0.3385 F2318
G1 Y114.8000 E0.3385
G1 X114.8000 E0.3385
G1 Y105.2500 E0.3368
G1 Y105.2000 F9000
G1 E-4.0000 F3600 ; e-retract 4
G1 Z0.7000 F9000 ; z-hop start
; feature solid fill
G1 X113.3858 Y106.6142
G1 X113.7400 Y106.8257
G1 Z0.6000 ; z-hop end
G1 E4.0000 F3600 ; e-engage 4
G1 X113.1743 Y106.2600 E0.0353 F4800
G1 X112.6086 E0.0250
G1 X113.7400 Y107.3914 E0.0706
G1 Y107.9571 E0.0250
G1 X112.0429 Y106.2600 E0.1060
G1 X111.4773 E0.0250
G1 X113.7400 Y108.5227 E0.1413
G1 Y109.0884 E0.0250
G1 X110.9116 Y106.2600 E0.1766
G1 X110.3459 E0.0250
G1 X113.7400 Y109.6541 E0.2119
G1 Y110.2198 E0.0250
G1 X109.7802 Y106.2600 E0.2472
G1 X109.2145 E0.0250
G1 X113.7400 Y110.7855 E0.2825
G1 Y111.3512 E0.0250
G1 X108.6488 Y106.2600 E0.3179
G1 X108.0831 E0.0250
G1 X113.7400 Y111.9168 E0.3532
G1 Y112.4825 E0.0250
G1 X107.5175 Y106.2600 E0.3885
G1 X106.9518 E0.0250
G1 X113.7400 Y113.0482 E0.4238
G1 Y113.6139 E0.0250
G1 X106.3861 Y106.2600 E0.4591
G1 X106.2600 Y106.6996 E0.0202
G1 X113.3004 Y113.7400 E0.4396
G1 X112.7347 E0.0250
G1 X106.2600 Y107.2653 E0.4042
G1 Y107.8310 E0.0250
G1 X112.1690 Y113.7400 E0.3689
G1 X111.6033 E0.0250
G1 X106.2600 Y108.3966 E0.3336
G1 Y108.9623 E0.0250
G1 X111.0377 Y113.7400 E0.2983
G1 X110.4720 E0.0250
G1 X106.2600 Y109.5280 E0.2630
G1 Y110.0937 E0.0250
G1 X109.9063 Y113.7400 E0.2276
G1 X109.3406 E0.0250
G1 X106.2600 Y110.6594 E0.1923
G1 Y111.2251 E0.0250
G1 X108.7749 Y113.7400 E0.1570
G1 X108.2092 E0.0250
G1 X106.2600 Y111.7908 E0.1217
G1 Y112.3564 E0.0250
G1 X107.6435 Y113.7400 E0.0864
G1 X107.0779 E0.0250
G1 X106.2600 Y112.9221 E0.0511
G1 X106.3861 Y113.6139 E0.0310
;; --- layer 3 (0.200 @ 0.8) ---
G1 Z0.8000 F9000
; feature shells
G1 X114.0000 Y106.0000
G1 X106.0000 E0.2821 F3094
G1 Y114.0000 E0.2821
G1 X114.0000 E0.2821
G1 Y106.0500 E0.2804
G1 Y106.0000 F9000
G1 X114.4000 Y105.6000
G1 X105.6000 E0.3103 F3397
G1 Y114.4000 E0.3103
G1 X114.4000 E0.3103
G1 Y105.6500 E0.3086
G1 Y105.6000 F9000
G1 X114.8000 Y105.2000
G1 X105.2000 E0.3385 F2318
G1 Y114.8000 E0.3385
G1 X114.8000 E0.3385
G1 Y105.2500 E0.3368
G1 Y105.2000 F9000
; feature sparse infill
G1 X112.9682 Y106.2600
G1 Y107.0000 E0.0251 F4800
G1 X113.7400 Y107.4456 E0.0303
G1 X112.7082 Y106.2600 F9000
G1 Y107.0000 E0.0251 F4800
G1 X110.9762 Y108.0000 E0.0679
G1 Y110.0000 E0.0679
G1 X112.7082 Y111.0000 E0.0679
G1 Y113.0000 E0.0679
G1 X111.4265 Y113.7400 E0.0503
G1 X110.2658 F9000
G1 X108.9841 Y113.0000 E0.0503 F4800
G1 Y111.0000 E0.0679
G1 X110.7162 Y110.0000 E0.0679
G1 Y108.0000 E0.0679
G1 X108.9841 Y107.0000 E0.0679
G1 Y106.2600 E0.0251
G1 X108.7241 E0.0088
G1 Y107.0000 E0.0251
G1 X106.9921 Y108.0000 E0.0679
G1 Y110.0000 E0.0679
G1 X108.7241 Y111.0000 E0.0679
G1 Y113.0000 E0.0679
G1 X107.4424 Y113.7400 E0.0503
G1 X106.2817 F9000
G1 X106.2600 Y113.7275 E0.0009 F4800
G1 Y110.2725 F9000
G1 X106.7321 Y110.0000 E0.0185 F4800
G1 Y108.0000 E0.0679
G1 X106.2600 Y107.7275 E0.0185
G1 X113.7400 Y110.5544 F9000
G1 X112.9682 Y111.0000 E0.0303 F4800
G1 Y113.0000 E0.0679
G1 X113.7400 Y113.4456 E0.0303
;; --- layer 4 (0.200 @ 1) ---
G1 Z1.0000 F9000
; feature shells
G1 X114.0000 Y106.0000
G1 X106.0000 E0.2821 F3094
G1 Y114.0000 E0.2821
G1 X114.0000 E0.2821
G1 Y106.0500 E0.2804
G1 Y106.0000 F9000
G1 X114.4000 Y105.6000
G1 X105.6000 E0.3103 F3397
G1 Y114.4000 E0.3103
G1 X114.4000 E0.3103
G1 Y105.6500 E0.3086
G1 Y105.6000 F9000
G1 X114.8000 Y105.2000
G1 X105.2000 E0.3385 F2318
G1 Y114.8000 E0.3385
G1 X114.8000 E0.3385
G1 Y105.2500 E0.3368
G1 Y105.2000 F9000
; feature sparse infill
G1 X112.9682 Y106.2600
G1 Y107.0000 E0.0251 F4800
G1 X113.7400 Y107.4456 E0.0303
G1 X112.7082 Y106.2600 F9000
G1 Y107.0000 E0.0251 F4800
G1 X110.9762 Y108.0000 E0.0679
G1 Y110.0000 E0.0679
G1 X112.7082 Y111.0000 E0.0679
G1 Y113.0000 E0.0679
G1 X111.4265 Y113.7400 E0.0503
G1 X110.2658 F9000
G1 X108.9841 Y113.0000 E0.0503 F4800
G1 Y111.0000 E0.0679
G1 X110.7162 Y110.0000 E0.0679
G1 Y108.0000 E0.0679
G1 X108.9841 Y107.0000 E0.0679
G1 Y106.2600 E0.0251
G1 X108.7241 E0.0088
G1 Y107.0000 E0.0251
G1 X106.9921 Y108.0000 E0.0679
G1 Y110.0000 E0.0679
G1 X108.7241 Y111.0000 E0.0679
G1 Y113.0000 E0.0679
G1 X107.4424 Y113.7400 E0.0503
G1 X106.2817 F9000
G1 X106.2600 Y113.7275 E0.0009 F4800
G1 Y110.2725 F9000
G1 X106.7321 Y110.0000 E0.0185 F4800
G1 Y108.0000 E0.0679
G1 X106.2600 Y107.7275 E0.0185
G1 X113.7400 Y110.5544 F9000
G1 X112.9682 Y111.0000 E0.0303 F4800
G1 Y113.0000 E0.0679
G1 X113.7400 Y113.4456 E0.0303
;; --- layer 5 (0.200 @ 1.2) ---
G1 Z1.2000 F9000
; feature shells
G1 X114.0000 Y106.0000
G1 X106.0000 E0.2821 F3094
G1 Y114.0000 E0.2821
G1 X114.0000 E0.2821
G1 Y106.0500 E0.2804
G1 Y106.0000 F9000
G1 X114.4000 Y105.6000
G1 X105.6000 E0.3103 F3397
G1 Y114.4000 E0.3103
G1 X114.4000 E0.3103
G1 Y105.6500 E0.3086
G1 Y105.6000 F9000
G1 X114.8000 Y105.2000
G1 X105.2000 E0.3385 F2318
G1 Y114.8000 E0.3385
G1 X114.8000 E0.3385
G1 Y105.2500 E0.3368
G1 Y105.2000 F9000
; feature sparse infill
G1 X112.9682 Y106.2600
G1 Y107.0000 E0.0251 F4800
G1 X113.7400 Y107.4456 E0.0303
G1 X112.7082 Y106.2600 F9000
G1 Y107.0000 E0.0251 F4800
G1 X110.9762 Y108.0000 E0.0679
G1 Y110.0000 E0.0679
G1 X112.7082 Y111.0000 E0.0679
G1 Y113.0000 E0.0679
G1 X111.4265 Y113.7400 E0.0503
G1 X110.2658 F9000
G1 X108.9841 Y113.0000 E0.0503 F4800
G1 Y111.0000 E0.0679
G1 X110.7162 Y110.0000 E0.0679
G1 Y108.0000 E0.0679
G1 X108.9841 Y107.0000 E0.0679
G1 Y106.2600 E0.0251
G1 X108.7241 E0.0088
G1 Y107.0000 E0.0251
G1 X106.9921 Y108.0000 E0.0679
G1 Y110.0000 E0.0679
G1 X108.7241 Y111.0000 E0.0679
G1 Y113.0000 E0.0679
G1 X107.4424 Y113.7400 E0.0503
G1 X106.2817 F9000
G1 X106.2600 Y113.7275 E0.0009 F4800
G1 Y110.2725 F9000
G1 X106.7321 Y110.0000 E0.0185 F4800
G1 Y108.0000 E0.0679
G1 X106.2600 Y107.7275 E0.0185
G1 X113.7400 Y110.5544 F9000
G1 X112.9682 Y111.0000 E0.0303 F4800
G1 Y113.0000 E0.0679
G1 X113.7400 Y113.4456 E0.0303
;; --- layer 6 (0.200 @ 1.4) ---
G1 Z1.4000 F9000
; feature shells
G1 X114.0000 Y106.0000
G1 X106.0000 E0.2821 F3094
G1 Y114.0000 E0.2821
G1 X114.0000 E0.2821
G1 Y106.0500 E0.2804
G1 Y106.0000 F9000
G1 X114.4000 Y105.6000
G1 X105.6000 E0.3103 F3397
G1 Y114.4000 E0.3103
G1 X114.4000 E0.3103
G1 Y105.6500 E0.3086
G1 Y105.6000 F9000
G1 X114.8000 Y105.2000
G1 X105.2000 E0.3385 F2318
G1 Y114.8000 E0.3385
G1 X114.8000 E0.3385
G1 Y105.2500 E0.3368
G1 Y105.2000 F9000
; feature sparse infill
G1 X112.9682 Y106.2600
G1 Y107.0000 E0.0251 F4800
G1 X113.7400 Y107.4456 E0.0303
G1 X112.7082 Y106.2600 F9000
G1 Y107.0000 E0.0251 F4800
G1 X110.9762 Y108.0000 E0.0679
G1 Y110.0000 E0.0679
G1 X112.7082 Y111.0000 E0.0679
G1 Y113.0000 E0.0679
G1 X111.4265 Y113.7400 E0.0503
G1 X110.2658 F9000
G1 X108.9841 Y113.0000 E0.0503 F4800
G1 Y111.0000 E0.0679
G1 X110.7162 Y110.0000 E0.0679
G1 Y108.0000 E0.0679
G1 X108.9841 Y107.0000 E0.0679
G1 Y106.2600 E0.0251
G1 X108.7241 E0.0088
G1 Y107.0000 E0.0251
G1 X106.9921 Y108.0000 E0.0679
G1 Y110.0000 E0.0679
G1 X108.7241 Y111.0000 E0.0679
G1 Y113.0000 E0.0679
G1 X107.4424 Y113.7400 E0.0503
G1 X106.2817 F9000
G1 X106.2600 Y113.7275 E0.0009 F4800
G1 Y110.2725 F9000
G1 X106.7321 Y110.0000 E0.0185 F4800
G1 Y108.0000 E0.0679
G1 X106.2600 Y107.7275 E0.0185
G1 X113.7400 Y110.5544 F9000
G1 X112.9682 Y111.0000 E0.0303 F4800
G1 Y113.0000 E0.0679
G1 X113.7400 Y113.4456 E0.0303
;; --- layer 7 (0.200 @ 1.6) ---
G1 Z1.6000 F9000
; feature shells
G1 X114.0000 Y106.0000
G1 X106.0000 E0.2821 F3094
G1 Y114.0000 E0.2821
G1 X114.0000 E0.2821
G1 Y106.0500 E0.2804
G1 Y106.0000 F9000
G1 X114.4000 Y105.6000
G1 X105.6000 E0.3103 F3397
G1 Y114.4000 E0.3103
G1 X114.4000 E0.3103
G1 Y105.6500 E0.3086
G1 Y105.6000 F9000
G1 X114.8000 Y105.2000
G1 X105.2000 E0.3385 F2318
G1 Y114.8000 E0.3385
G1 X114.8000 E0.3385
G1 Y105.2500 E0.3368
G1 Y105.2000 F9000
; feature sparse infill
G1 X112.9682 Y106.2600
G1 Y107.0000 E0.0251 F4800
G1 X113.7400 Y107.4456 E0.0303
G1 X112.7082 Y106.2600 F9000
G1 Y107.0000 E0.0251 F4800
G1 X110.9762 Y108.0000 E0.0679
G1 Y110.0000 E0.0679
G1 X112.7082 Y111.0000 E0.0679
G1 Y113.0000 E0.0679
G1 X111.4265 Y113.7400 E0.0503
G1 X110.2658 F9000
G1 X108.9841 Y113.0000 E0.0503 F4800
G1 Y111.0000 E0.0679
G1 X110.7162 Y110.0000 E0.0679
G1 Y108.0000 E0.0679
G1 X108.9841 Y107.0000 E0.0679
G1 Y106.2600 E0.0251
G1 X108.7241 E0.0088
G1 Y107.0000 E0.0251
G1 X106.9921 Y108.0000 E0.0679
G1 Y110.0000 E0.0679
G1 X108.7241 Y111.0000 E0.0679
G1 Y113.0000 E0.0679
G1 X107.4424 Y113.7400 E0.0503
G1 X106.2817 F9000
