;FLAVOR:Marlin
;TIME:2168
;Filament used: 2.2487m
;Layer height: 0.24
;MINX:91.4
;MINY:71.9
;MINZ:0.2
;MAXX:128.6
;MAXY:148.1
;MAXZ:11.96
;TARGET_MACHINE.NAME:Creality Ender-3 Pro
;Generated with Cura_SteamEngine 5.8.1
M82 ;absolute extrusion mode
; Ender 3 Custom Start G-code
G92 E0 ; Reset Extruder
G28 ; Home all axes
G1 Z5.0 F3000 ; Move Z Axis up a bit during heating to not damage bed
M104 S210.0 ; Start heating up the nozzle most of the way
M190 S60.0 ; Start heating the bed, wait until target temperature reached
M109 S215.0 ; Finish heating the nozzle
G1 Z2.0 F3000 ; Move Z Axis up little to prevent scratching of Heat Bed
G1 X0.1 Y20 Z0.3 F5000.0 ; Move to start position
G1 X0.1 Y200.0 Z0.3 F1500.0 E15 ; Draw the first line
G1 X0.4 Y200.0 Z0.3 F5000.0 ; Move to side a little
G1 X0.4 Y20 Z0.3 F1500.0 E30 ; Draw the second line
G92 E0 ; Reset Extruder
G1 Z2.0 F3000 ; Move Z Axis up little to prevent scratching of Heat Bed
G1 X5 Y20 Z0.3 F5000.0 ; Move over to prevent blob squish
G92 E0
G92 E0
G1 F1500 E-6.5
;LAYER_COUNT:50
;LAYER:0
M107
M204 S500
M205 X20 Y20
G0 F6000 X94.043 Y75.516 Z0.2
;TYPE:SKIRT
G1 F1500 E0
G1 F1200 X94.718 Y74.815 E0.03237
G1 X95.427 Y74.2 E0.06358
G1 X96.159 Y73.67 E0.09364
G1 X96.995 Y73.171 E0.12602
G1 X97.84 Y72.764 E0.15722
G1 X98.719 Y72.433 E0.18846
G1 X99.622 Y72.182 E0.21963
G1 X100.55 Y72.01 E0.25102
G1 X101.689 Y71.914 E0.28904
G1 X102.321 Y71.9 E0.31007
G1 X117.298 Y71.9 E0.8082
G1 X118.16 Y71.912 E0.83688
G1 X119.097 Y71.968 E0.8681
G1 X120.025 Y72.107 E0.89931
G1 X120.938 Y72.328 E0.93055
G1 X121.794 Y72.616 E0.96059
G1 X122.686 Y73.006 E0.99297
G1 X123.507 Y73.459 E1.02416
G1 X124.258 Y73.961 E1.0542
G1 X125.017 Y74.573 E1.08663
G1 X125.691 Y75.226 E1.11784
G1 X126.305 Y75.935 E1.14904
G1 X126.855 Y76.696 E1.18027
G1 X127.317 Y77.472 E1.2103
G1 X127.74 Y78.349 E1.24269
G1 X128.069 Y79.227 E1.27387
G1 X128.32 Y80.132 E1.30511
G1 X128.491 Y81.059 E1.33646
G1 X128.586 Y82.189 E1.37418
G1 X128.6 Y82.83 E1.3955
G1 X128.599 Y136.895 E3.19371
G1 X128.589 Y137.64 E3.21849
G1 X128.535 Y138.577 E3.24971
G1 X128.397 Y139.506 E3.28095
G1 X128.178 Y140.418 E3.31214
G1 X127.88 Y141.308 E3.34336
G1 X127.503 Y142.168 E3.37459
G1 X127.053 Y142.99 E3.40576
G1 X126.531 Y143.771 E3.43701
G1 X125.942 Y144.501 E3.4682
G1 X125.317 Y145.152 E3.49822
G1 X124.582 Y145.793 E3.53066
G1 X123.822 Y146.343 E3.56186
G1 X123.016 Y146.824 E3.59308
G1 X122.171 Y147.232 E3.62429
G1 X121.293 Y147.563 E3.65549
G1 X120.389 Y147.816 E3.68672
G1 X119.462 Y147.988 E3.71808
G1 X118.311 Y148.086 E3.7565
G1 X117.67 Y148.1 E3.77782
G1 X102.57 Y148.099 E4.28005
G1 X101.854 Y148.089 E4.30387
G1 X100.918 Y148.035 E4.33505
G1 X99.989 Y147.896 E4.36629
G1 X99.077 Y147.677 E4.39749
G1 X98.187 Y147.378 E4.42871
G1 X97.328 Y147.001 E4.45992
G1 X96.505 Y146.55 E4.49113
G1 X95.725 Y146.028 E4.52235
G1 X95.021 Y145.462 E4.55239
G1 X94.319 Y144.787 E4.58478
G1 X93.704 Y144.078 E4.616
G1 X93.174 Y143.347 E4.64603
G1 X92.674 Y142.511 E4.67843
G1 X92.266 Y141.666 E4.70964
G1 X91.935 Y140.788 E4.74085
G1 X91.683 Y139.884 E4.77206
G1 X91.511 Y138.955 E4.80348
G1 X91.413 Y137.776 E4.84283
G1 X91.4 Y137.158 E4.86339
G1 X91.401 Y83.031 E6.66366
G1 X91.411 Y82.348 E6.68638
G1 X91.466 Y81.411 E6.7176
G1 X91.605 Y80.483 E6.74881
G1 X91.825 Y79.571 E6.78001
G1 X92.125 Y78.681 E6.81125
G1 X92.502 Y77.822 E6.84245
G1 X92.953 Y77 E6.87364
G1 X93.476 Y76.22 E6.90487
G1 X94.043 Y75.516 E6.93494
G0 F6000 X94.355 Y75.767
G1 F1200 X94.981 Y75.117 E6.96495
G1 X95.662 Y74.524 E6.99499
G1 X96.394 Y73.994 E7.02504
G1 X97.169 Y73.531 E7.05507
G1 X97.982 Y73.138 E7.0851
G1 X98.827 Y72.818 E7.11516
G1 X99.696 Y72.575 E7.14517
G1 X100.584 Y72.409 E7.17522
G1 X101.723 Y72.313 E7.21323
G1 X102.33 Y72.3 E7.23343
G1 X117.293 Y72.3 E7.7311
G1 X118.137 Y72.311 E7.75917
G1 X119.039 Y72.364 E7.78922
G1 X119.932 Y72.496 E7.81925
G1 X120.81 Y72.707 E7.84928
G1 X121.666 Y72.995 E7.87932
G1 X122.493 Y73.357 E7.90935
G1 X123.285 Y73.792 E7.9394
G1 X124.036 Y74.294 E7.96945
G1 X124.739 Y74.861 E7.99949
G1 X125.389 Y75.488 E8.02952
G1 X125.981 Y76.17 E8.05956
G1 X126.511 Y76.901 E8.08959
G1 X126.973 Y77.677 E8.11963
G1 X127.366 Y78.49 E8.14966
G1 X127.684 Y79.335 E8.17969
G1 X127.927 Y80.205 E8.20974
G1 X128.092 Y81.093 E8.23978
G1 X128.187 Y82.223 E8.27749
G1 X128.2 Y82.83 E8.29769
G1 X128.199 Y136.89 E10.09573
G1 X128.19 Y137.617 E10.11991
G1 X128.139 Y138.519 E10.14996
G1 X128.008 Y139.413 E10.18001
G1 X127.799 Y140.291 E10.21003
G1 X127.513 Y141.148 E10.24008
G1 X127.152 Y141.976 E10.27012
G1 X126.72 Y142.768 E10.30013
G1 X126.219 Y143.52 E10.33018
G1 X125.653 Y144.224 E10.36023
G1 X125.028 Y144.875 E10.39024
G1 X124.347 Y145.469 E10.4203
G1 X123.616 Y146 E10.45035
G1 X122.842 Y146.464 E10.48036
G1 X122.029 Y146.858 E10.51041
G1 X121.185 Y147.178 E10.54043
G1 X120.315 Y147.423 E10.5705
G1 X119.428 Y147.589 E10.60051
G1 X118.277 Y147.687 E10.63893
G1 X117.67 Y147.7 E10.65912
G1 X102.575 Y147.699 E11.16119
G1 X101.877 Y147.69 E11.1844
G1 X100.976 Y147.639 E11.21442
G1 X100.082 Y147.507 E11.24448
G1 X99.204 Y147.298 E11.27449
G1 X98.347 Y147.011 E11.30455
G1 X97.52 Y146.65 E11.33457
G1 X96.727 Y146.217 E11.36462
G1 X95.976 Y145.716 E11.39464
G1 X95.272 Y145.15 E11.42469
G1 X94.621 Y144.524 E11.45473
G1 X94.028 Y143.843 E11.48476
G1 X93.498 Y143.112 E11.51479
G1 X93.034 Y142.337 E11.54484
G1 X92.64 Y141.524 E11.57488
G1 X92.32 Y140.68 E11.60491
G1 X92.076 Y139.81 E11.63496
G1 X91.91 Y138.922 E11.66501
G1 X91.813 Y137.767 E11.70356
G1 X91.8 Y137.158 E11.72382
G1 X91.801 Y83.036 E13.52392
G1 X91.81 Y82.371 E13.54604
G1 X91.862 Y81.469 E13.57609
G1 X91.994 Y80.576 E13.60612
G1 X92.204 Y79.698 E13.63614
G1 X92.491 Y78.841 E13.6662
G1 X92.853 Y78.014 E13.69623
G1 X93.286 Y77.222 E13.72625
G1 X93.788 Y76.471 E13.75629
G1 X94.355 Y75.767 E13.78636
G1 F1500 E7.28636
;MESH:test_Wiha_9-sided_Screwdriver_rack.stl
G0 F6000 X106.449 Y98.682
G0 X105.051 Y102.5
G0 X106.502 Y105.998
G0 X109.912 Y107.541
;TYPE:WALL-INNER
G1 F1500 E13.78636
G1 F1200 X109.616 Y107.468 E13.7965
G1 X106.609 Y106.219 E13.9048
G1 X106.363 Y105.987 E13.91604
G1 X106.216 Y105.739 E13.92563
G1 X104.971 Y102.737 E14.03373
G1 X104.971 Y102.262 E14.04952
G1 X106.216 Y99.257 E14.15771
G1 X106.364 Y99.008 E14.16734
G1 X106.609 Y98.777 E14.17854
G1 X109.708 Y97.494 E14.2901
G1 X110.119 Y97.462 E14.30381
G1 X110.383 Y97.532 E14.3129
G1 X113.39 Y98.778 E14.42116
G1 X113.632 Y99.008 E14.43226
G1 X113.78 Y99.256 E14.44187
G1 X115.03 Y102.265 E14.55024
G1 X115.03 Y102.736 E14.5659
G1 X113.779 Y105.74 E14.67413
G1 X113.633 Y105.988 E14.68371
G1 X113.386 Y106.219 E14.69495
G1 X110.257 Y107.521 E14.80767
G1 X109.912 Y107.541 E14.81917
G0 F6000 X110.053 Y107.142
G1 F1200 X109.844 Y107.13 E14.82613
G1 X106.821 Y105.875 E14.935
G1 X106.629 Y105.692 E14.94382
G1 X105.365 Y102.643 E15.0536
G1 X105.365 Y102.357 E15.06311
G1 X106.629 Y99.303 E15.17304
G1 X106.823 Y99.121 E15.18189
G1 X109.884 Y97.854 E15.29208
G1 X110.23 Y97.901 E15.30369
G1 X113.175 Y99.122 E15.40973
G1 X113.367 Y99.302 E15.41848
G1 X114.636 Y102.361 E15.52863
G1 X114.636 Y102.64 E15.53791
G1 X113.366 Y105.693 E15.64789
G1 X113.177 Y105.873 E15.65657
G1 X110.231 Y107.099 E15.7627
G1 X110.053 Y107.142 E15.76879
G1 F1500 E9.26879
G0 F6000 X110.177 Y107.444
G0 X110.104 Y107.721
G0 X109.896 Y112.027
G0 X106.325 Y113.825
G0 X104.801 Y117.5
G0 X106.325 Y121.175
G0 X109.981 Y122.792
G1 F1500 E15.76879
G1 F1200 X109.71 Y122.755 E15.77789
G1 X106.433 Y121.395 E15.89589
G1 X106.188 Y121.163 E15.90712
G1 X106.04 Y120.916 E15.91669
G1 X104.718 Y117.735 E16.03127
G1 X104.718 Y117.265 E16.0469
G1 X106.04 Y114.08 E16.1616
G1 X106.188 Y113.833 E16.17117
G1 X106.433 Y113.601 E16.1824
G1 X109.743 Y112.227 E16.30159
G1 X110.088 Y112.207 E16.31309
G1 X110.384 Y112.28 E16.32323
G1 X113.562 Y113.601 E16.4377
G1 X113.809 Y113.832 E16.44895
G1 X113.956 Y114.08 E16.45853
G1 X115.279 Y117.268 E16.57334
G1 X115.279 Y117.732 E16.58877
G1 X113.956 Y120.916 E16.70345
G1 X113.809 Y121.164 E16.71304
G1 X113.562 Y121.395 E16.72428
G1 X110.299 Y122.751 E16.84181
G1 X109.981 Y122.792 E16.85247
G0 F6000 X109.988 Y122.392
G1 F1200 X109.824 Y122.37 E16.85798
G1 X106.645 Y121.051 E16.97245
G1 X106.409 Y120.763 E16.98484
G1 X105.112 Y117.642 E17.09725
G1 X105.112 Y117.358 E17.10669
G1 X106.453 Y114.128 E17.22301
G1 X106.645 Y113.945 E17.23184
G1 X109.769 Y112.649 E17.34433
G1 X109.947 Y112.606 E17.35042
G1 X110.156 Y112.618 E17.35738
G1 X113.351 Y113.945 E17.47245
G1 X113.543 Y114.128 E17.48127
G1 X114.884 Y117.362 E17.59771
G1 X114.884 Y117.639 E17.60693
G1 X113.544 Y120.868 E17.7232
G1 X113.351 Y121.051 E17.73205
G1 X110.231 Y122.347 E17.84442
G1 X109.988 Y122.392 E17.85264
G1 F1500 E11.35264
G0 F6000 X109.857 Y122.707
G0 X111.218 Y122.586
G0 X116.8 Y122.586
G0 X117 Y136.5
G1 F1500 E17.85264
G1 F1200 X117 Y83.5 E19.61543
G1 X103 Y83.5 E20.08107
G1 X103.001 Y136.499 E21.84382
G1 X117 Y136.5 E22.30943
G0 F6000 X117.4 Y136.9
G1 F1200 X117.4 Y83.1 E24.09882
G1 X102.6 Y83.1 E24.59107
G1 X102.601 Y136.899 E26.38044
G1 X117.4 Y136.9 E26.87265
G0 F6000 X117.8 Y137.3
;TYPE:WALL-OUTER
G1 F1200 X117.8 Y82.7 E28.68866
G1 X102.2 Y82.7 E29.20752
G1 X102.201 Y137.299 E31.02349
G1 X117.8 Y137.3 E31.54231
G1 F1500 E25.04231
G0 F6000 X117.53 Y137.03
G0 X116.8 Y122.638
G0 X113.485 Y121.624
G0 X110 Y122.699
G0 X109.691 Y122.638
G0 X109.959 Y121.992
G1 F1500 E31.54231
G1 F1200 X106.846 Y120.695 E31.65448
G1 X106.779 Y120.609 E31.6581
G1 X105.506 Y117.535 E31.76876
G1 X105.506 Y117.465 E31.77109
G1 X106.808 Y114.317 E31.8844
G1 X110.001 Y112.987 E31.99944
G1 X113.15 Y114.301 E32.11293
G1 X113.217 Y114.387 E32.11656
G1 X114.49 Y117.465 E32.22734
G1 X114.49 Y117.535 E32.22967
G1 X113.188 Y120.679 E32.34285
G1 X110.051 Y121.986 E32.45588
G1 X109.959 Y121.992 E32.45895
G1 F1500 E25.95895
G0 F6000 X109.691 Y122.638
G0 X106.325 Y121.175
G0 X104.801 Y117.5
G0 X106.325 Y113.825
G0 X109.896 Y112.027
G0 X110.104 Y107.721
G0 X109.731 Y107.405
G0 X109.999 Y106.761
G1 F1500 E32.45895
G1 F1200 X107.022 Y105.519 E32.56623
G1 X106.955 Y105.433 E32.56986
G1 X105.739 Y102.5 E32.67546
G1 X106.984 Y99.493 E32.78371
G1 X109.95 Y98.262 E32.89052
G1 X110.041 Y98.256 E32.89355
G1 X112.974 Y99.477 E32.99922
G1 X113.041 Y99.563 E33.00285
G1 X114.242 Y102.465 E33.10731
G1 X114.242 Y102.535 E33.10963
G1 X113.012 Y105.503 E33.21649
G1 X109.999 Y106.761 E33.32509
G1 F1500 E26.82509
G0 F6000 X109.731 Y107.405
G0 X110.104 Y107.721
G0 X116.8 Y107.721
G0 X116.9 Y136.139
G0 X116.64 Y136.139
;TYPE:SKIN
G1 F1500 E33.32509
G1 F1200 X103.361 Y136.136 E33.76675
G1 X103.36 Y83.86 E35.50546
G1 X116.64 Y83.86 E35.94715
G1 X116.64 Y136.139 E37.68596
G1 F1500 E31.18596
G0 F6000 X116.9 Y136.139
G0 X116.8 Y122.89
G0 X113.485 Y121.624
G0 X109.984 Y122.89
G0 X109.948 Y123.147
G1 F1500 E37.68596
G1 F1200 X110.398 Y123.1 E37.70101
G1 X113.565 Y121.78 E37.81512
G1 X113.813 Y121.644 E37.82453
G1 X114.071 Y121.405 E37.83623
G1 X114.272 Y121.083 E37.84885
G1 X115.634 Y117.807 E37.96686
G1 X115.636 Y117.267 E37.98482
G1 X115.557 Y116.995 E37.99424
G1 X114.289 Y113.943 E38.10416
G1 X114.09 Y113.605 E38.11721
G1 X113.846 Y113.374 E38.12838
G1 X113.573 Y113.216 E38.13887
G1 X110.362 Y111.881 E38.25453
G1 X109.877 Y111.849 E38.2707
G1 X109.471 Y111.947 E38.28459
G1 X106.443 Y113.203 E38.39362
G1 X106.184 Y113.35 E38.40353
G1 X105.907 Y113.6 E38.41594
G1 X105.72 Y113.913 E38.42807
G1 X104.36 Y117.183 E38.54586
G1 X104.362 Y117.807 E38.56661
G1 X105.707 Y121.053 E38.68348
G1 X105.907 Y121.393 E38.6966
G1 X106.181 Y121.643 E38.70893
G1 X106.429 Y121.783 E38.7184
G1 X109.604 Y123.098 E38.8327
G1 X109.948 Y123.147 E38.84426
G1 F1500 E32.34426
G0 F6000 X109.984 Y122.89
G0 X106.325 Y121.175
G0 X104.801 Y117.5
G0 X106.325 Y113.825
G0 X109.896 Y112.027
G0 X110.104 Y107.721
G0 X110.119 Y107.899
G1 F1500 E38.84426
G1 F1200 X110.513 Y107.802 E38.85776
G1 X113.377 Y106.609 E38.96095
G1 X113.631 Y106.466 E38.97064
G1 X113.914 Y106.216 E38.9832
G1 X114.097 Y105.906 E38.99517
G1 X115.386 Y102.807 E39.10681
G1 X115.388 Y102.187 E39.12743
G1 X114.097 Y99.086 E39.23915
G1 X113.914 Y98.777 E39.2511
G1 X113.634 Y98.525 E39.26362
G1 X113.398 Y98.393 E39.27262
G1 X110.525 Y97.199 E39.3761
G1 X110.16 Y97.105 E39.38863
G1 X109.705 Y97.105 E39.40377
G1 X106.619 Y98.383 E39.51486
G1 X106.323 Y98.553 E39.52621
G1 X106.082 Y98.776 E39.53714
G1 X105.895 Y99.094 E39.54941
G1 X104.612 Y102.183 E39.66066
G1 X104.614 Y102.735 E39.67902
G1 X104.699 Y103.021 E39.68894
G1 X105.879 Y105.869 E39.79147
G1 X106.082 Y106.215 E39.80482
G1 X106.318 Y106.438 E39.81561
G1 X106.602 Y106.603 E39.82654
G1 X109.636 Y107.868 E39.93587
G1 X110.119 Y107.899 E39.95197
G1 F1500 E33.45197
G0 F6000 X110.098 Y107.639
G0 X113.192 Y105.692
G0 X114.516 Y102.5
G0 X113.192 Y99.308
G0 X110.81 Y98.32
G0 X110.583 Y97.398
G0 X110.583 Y83.7
G0 X116.304 Y83.6
G0 X116.304 Y84.06
G1 F1500 E39.95197
G1 F1200 X116.44 Y84.196 E39.95836
G0 F6000 X116.44 Y84.762
G1 F1200 X115.739 Y84.06 E39.99136
G0 F6000 X115.173 Y84.06
G1 F1200 X116.44 Y85.327 E40.05096
G0 F6000 X116.44 Y85.893
G1 F1200 X114.607 Y84.06 E40.13718
G0 F6000 X114.041 Y84.06
G1 F1200 X116.44 Y86.459 E40.25002
G0 F6000 X116.44 Y87.024
G1 F1200 X113.476 Y84.06 E40.38943
G0 F6000 X112.91 Y84.06
G1 F1200 X116.44 Y87.59 E40.55548
G0 F6000 X116.44 Y88.156
G1 F1200 X112.344 Y84.06 E40.74814
G0 F6000 X111.779 Y84.06
G1 F1200 X116.44 Y88.721 E40.96738
G0 F6000 X116.44 Y89.287
G1 F1200 X111.213 Y84.06 E41.21324
G0 F6000 X110.647 Y84.06
G1 F1200 X116.44 Y89.853 E41.48572
G0 F6000 X116.44 Y90.418
G1 F1200 X110.082 Y84.06 E41.78479
G0 F6000 X109.516 Y84.06
G1 F1200 X116.44 Y90.984 E42.11047
G0 F6000 X116.44 Y91.55
G1 F1200 X108.95 Y84.06 E42.46278
G0 F6000 X108.385 Y84.06
G1 F1200 X116.44 Y92.116 E42.84168
G0 F6000 X116.44 Y92.681
G1 F1200 X107.819 Y84.06 E43.24719
G0 F6000 X107.253 Y84.06
G1 F1200 X116.44 Y93.247 E43.67932
G0 F6000 X116.44 Y93.813
G1 F1200 X106.688 Y84.06 E44.13804
G0 F6000 X106.122 Y84.06
G1 F1200 X116.44 Y94.378 E44.62337
G0 F6000 X116.44 Y94.944
G1 F1200 X105.556 Y84.06 E45.13532
G0 F6000 X104.991 Y84.06
G1 F1200 X116.44 Y95.51 E45.67387
G0 F6000 X116.44 Y96.075
G1 F1200 X104.425 Y84.06 E46.23902
G0 F6000 X103.859 Y84.06
G1 F1200 X116.44 Y96.641 E46.83079
G0 F6000 X116.44 Y97.207
G1 F1200 X103.56 Y84.327 E47.43663
G0 F6000 X103.56 Y84.892
G1 F1200 X116.44 Y97.772 E48.04246
G0 F6000 X116.44 Y98.338
G1 F1200 X103.56 Y85.458 E48.6483
G0 F6000 X103.56 Y86.024
G1 F1200 X116.44 Y98.904 E49.25413
G0 F6000 X116.44 Y99.469
G1 F1200 X103.56 Y86.589 E49.85997
G0 F6000 X103.56 Y87.155
G1 F1200 X116.44 Y100.035 E50.4658
G0 F6000 X116.44 Y100.601
G1 F1200 X103.56 Y87.721 E51.07164
G0 F6000 X103.56 Y88.287
G1 F1200 X113.488 Y98.214 E51.5386
G0 F6000 X113.273 Y98.621
G0 X112.344 Y98.235
G0 X112.52 Y97.812
G1 F1200 X103.56 Y88.852 E51.96005
G0 F6000 X103.56 Y89.418
G1 F1200 X111.551 Y97.409 E52.33592
G0 F6000 X111.374 Y97.834
G0 X110.429 Y97.441
G0 X110.587 Y97.01
G1 F1200 X103.56 Y89.984 E52.66643
G0 F6000 X103.56 Y90.549
G1 F1200 X109.917 Y96.906 E52.96544
G0 F6000 X109.442 Y96.997
G1 F1200 X103.56 Y91.115 E53.24211
G0 F6000 X103.56 Y91.681
G1 F1200 X109.042 Y97.163 E53.49997
G0 F6000 X108.642 Y97.328
G1 F1200 X103.56 Y92.246 E53.73901
G0 F6000 X103.56 Y92.812
G1 F1200 X108.242 Y97.494 E53.95924
G0 F6000 X107.842 Y97.659
G1 F1200 X103.56 Y93.378 E54.16063
G0 F6000 X103.56 Y93.943
G1 F1200 X107.441 Y97.825 E54.3432
G0 F6000 X107.042 Y97.991
G1 F1200 X103.56 Y94.509 E54.50698
G0 F6000 X103.56 Y95.075
G1 F1200 X106.642 Y98.156 E54.65193
