; Generated by Kiri:Moto 4.0.33
; Mon Dec 30 2024 21:47:29 GMT-0800 (Pacific Standard Time)
; Bed left:0 right:220 top:220 bottom:0
; Bed type: fixed
; Target: My Any Generic Marlin
; --- process ---
; processName = Ender 3 PLA
; sliceHeight = 0.24
; sliceShells = 3
; sliceShellOrder = in-out
; sliceLayerStart = center
; sliceFillAngle = 45
; sliceFillOverlap = 0.45
; sliceFillSparse = 0.05
; sliceFillType = hex
; sliceAdaptive = false
; sliceMinHeight = 0.1
; sliceSupportDensity = 0.15
; sliceSupportOffset = 0.4
; sliceSupportGap = 0
; sliceSupportSize = 1
; sliceSupportArea = 2
; sliceSupportExtra = 0
; sliceSupportAngle = 1
; sliceSupportNozzle = 0
; sliceSolidMinArea = 5
; sliceBottomLayers = 3
; sliceTopLayers = 3
; firstLayerRate = 50
; firstLayerPrintMult = 1
; firstLayerYOffset = 0
; firstLayerBrim = 0
; firstLayerBeltLead = 200
; firstLayerFanSpeed = 0
; outputTemp = 210
; outputBedTemp = 60
; outputFanSpeed = 200
; outputFeedrate = 60
; outputFinishrate = 45
; outputSeekrate = 110
; outputShellMult = 1
; outputFillMult = 1
; outputSparseMult = 1
; outputRetractDist = 5
; outputRetractSpeed = 80
; outputRetractWipe = 2
; outputRetractDwell = 0
; outputShortPoly = 50
; outputMinSpeed = 1
; outputCoastDist = 0.05
; outputLayerRetract = true
; zHopDistance = 0.1
; antiBacklash = 0
; sliceFillWidth = 1
; sliceFillRate = 0
; sliceSupportEnable = false
; firstSliceHeight = 0.2
; firstLayerFillRate = 35
; firstLayerLineMult = 1
; firstLayerNozzleTemp = 0
; firstLayerBedTemp = 0
; firstLayerBrimTrig = 0
; firstLayerBrimGap = 0
; outputRaft = false
; outputRaftSpacing = 0.2
; outputBrimCount = 1
; outputBrimOffset = 3
; outputPurgeTower = 0
; outputInvertX = false
; outputInvertY = false
; arcTolerance = 0
; ranges = []
; outputLoops = 0
; firstLayerBrimIn = 0
; firstLayerBeltBump = 0
; outputBeltFirst = false
; sliceFillRepeat = 4
; sliceLineWidth = 0
; sliceSupportSpan = 5
; sliceSupportOutline = false
; firstLayerFlatten = 0
; outputDraftShield = false
; outputAvoidGaps = false
; sliceDetectThin = off
; sliceAngle = 45
; sliceLayerStartX = 0
; sliceLayerStartY = 0
; sliceFillGrow = 0
; sliceSolidRate = 0
; sliceSupportGrow = 0
; outputFanLayer = 1
; outputAlternating = false
; outputNozzle = 0
; --- startup ---
M104 S210 T0             ; set extruder temperature
M140 S60 T0              ; set bed temperature
G90                      ; set absolute positioning mode
M83                      ; set relative positioning for extruder
M107                     ; turn off filament cooling fan
G28                      ; home axes
G92 X0 Y0 Z0 E0          ; reset all axes positions
G1 X0 Y0 Z0.25 F180      ; move xy to 0,0 and z 0.25mm over bed
G92 E0                   ; zero the extruded
M190 S60 T0              ; wait for bed to reach target temp
M109 S210 T0             ; wait for extruder to reach target temp
G1 E15 F200              ; purge 15mm from extruder
G92 E0                   ; zero the extruded
G1 F225                  ; set feed speed
G1 Z1.0 F3000            ; move z up little to prevent scratching
G1 X0.1 Y20 Z0.3 F5000.0 ; move to start-line position
G1 X0.1 Y100.0 Z0.3 F1500.0 E15 ; draw 1st line
G1 X0.4 Y100.0 Z0.3 F5000.0     ; move to side a little
G1 X0.4 Y20 Z0.3 F1500.0 E30    ; draw 2nd line
G92 E0 ; reset extruder
G1 Z1.0 F3000 ; move z up little to prevent scratching of surface
G1 E-5.0000 F4800 ; e-retract 5
;; --- layer 0 (0.200 @ 0.2) ---
G1 Z0.2000 F6600
; feature brim
G1 X140.7000 Y98.8000
G1 E5.0000 F4800 ; e-engage 5
G1 X79.3000 E1.6039 F3000
G1 Y121.2000 E0.5851
G1 X140.7000 E1.6039
G1 Y98.8000 E0.5851
G1 E-5.0000 F4800 ; e-retract 5
G1 Z0.3000 F6600 ; z-hop start
; feature shells
G1 X106.6906 Y110.7390
G1 Z0.2000 ; z-hop end
G1 E5.0000 F4800 ; e-engage 5
G1 X106.1848 Y107.8725 E0.0760 F1600
G1 X103.9549 Y106.0016 E0.0760
G1 X101.0451 E0.0760
G1 X98.8152 Y107.8725 E0.0760
G1 X98.3095 Y110.7390 E0.0760
G1 X99.7644 Y113.2593 E0.0760
G1 X102.5000 Y114.2550 E0.0760
G1 X105.2356 Y113.2593 E0.0760
G1 X106.6906 Y110.7390 E0.0760
G1 X107.1098 Y110.8129 F6600
G1 X106.5534 Y107.6597 E0.0836 F1754
G1 X104.1005 Y105.6016 E0.0836
G1 X100.8995 E0.0836
G1 X98.4466 Y107.6597 E0.0836
G1 X97.8902 Y110.8129 E0.0836
G1 X99.4908 Y113.5854 E0.0836
G1 X102.5000 Y114.6806 E0.0837
G1 X105.5092 Y113.5854 E0.0837
G1 X107.1098 Y110.8129 E0.0836
G1 X107.5290 Y110.8868 F6600
G1 X106.9220 Y107.4468 E0.0912 F1908
G1 X104.2461 Y105.2016 E0.0912
G1 X100.7539 E0.0912
G1 X98.0779 Y107.4468 E0.0912
G1 X97.4710 Y110.8868 E0.0912
G1 X99.2172 Y113.9115 E0.0912
G1 X102.5000 Y115.1063 E0.0913
G1 X105.7828 Y113.9115 E0.0913
G1 X107.5290 Y110.8868 E0.0912
G1 X113.3094 Y110.7390 F6600
G1 X114.7644 Y113.2593 E0.0760 F1600
G1 X117.5000 Y114.2550 E0.0760
G1 X120.2356 Y113.2593 E0.0760
G1 X121.6905 Y110.7390 E0.0760
G1 X121.1848 Y107.8725 E0.0760
G1 X118.9549 Y106.0016 E0.0760
G1 X116.0451 E0.0760
G1 X113.8152 Y107.8725 E0.0760
G1 X113.3094 Y110.7390 E0.0760
G1 X112.8902 Y110.8129 F6600
G1 X114.4908 Y113.5854 E0.0836 F1754
G1 X117.5000 Y114.6806 E0.0837
G1 X120.5092 Y113.5854 E0.0837
G1 X122.1098 Y110.8129 E0.0836
G1 X121.5534 Y107.6597 E0.0836
G1 X119.1005 Y105.6016 E0.0836
G1 X115.8995 E0.0836
G1 X113.4466 Y107.6597 E0.0836
G1 X112.8902 Y110.8129 E0.0836
G1 X112.4710 Y110.8868 F6600
G1 X114.2172 Y113.9115 E0.0912 F1908
G1 X117.5000 Y115.1063 E0.0913
G1 X120.7828 Y113.9115 E0.0913
G1 X122.5290 Y110.8868 E0.0912
G1 X121.9221 Y107.4468 E0.0912
G1 X119.2461 Y105.2016 E0.0912
G1 X115.7539 E0.0912
G1 X113.0780 Y107.4468 E0.0912
G1 X112.4710 Y110.8868 E0.0912
G1 E-5.0000 F4800 ; e-retract 5
G1 Z0.3000 F6600 ; z-hop start
G1 X114.4501 Y110.5984
G1 X136.5000 Y117.0000
G1 Z0.2000 ; z-hop end
G1 E5.0000 F4800 ; e-engage 5
G1 Y103.0000 E0.3657 F3000
G1 X83.5000 E1.3845
G1 Y117.0000 E0.3657
G1 X136.5000 E1.3845
G1 X136.9000 Y117.4000 F6600
G1 Y102.6000 E0.3866 F3000
G1 X83.1000 E1.4054
G1 Y117.4000 E0.3866
G1 X136.9000 E1.4054
G1 X137.3000 Y117.8000 F6600
G1 Y102.2000 E0.4075 F3000
G1 X82.7000 E1.4263
G1 Y117.8000 E0.4075
G1 X137.3000 E1.4263
G1 E-5.0000 F4800 ; e-retract 5
G1 Z0.3000 F6600 ; z-hop start
; feature solid fill
G1 X135.3770 Y117.2506
G1 X136.2635 Y116.7800
G1 Z0.2000 ; z-hop end
G1 E5.0000 F4800 ; e-engage 5
G1 X122.7035 Y103.2200 E0.5009 F2100
G1 X122.1379 E0.0148
G1 X135.6979 Y116.7800 E0.5009
G1 X135.1322 E0.0148
G1 X121.5722 Y103.2200 E0.5009
G1 X121.0065 E0.0148
G1 X134.5665 Y116.7800 E0.5009
G1 X134.0008 E0.0148
G1 X120.4408 Y103.2200 E0.5009
G1 X119.8751 E0.0148
G1 X133.4351 Y116.7800 E0.5009
G1 X132.8694 E0.0148
G1 X119.3094 Y103.2200 E0.5009
G1 X118.7437 E0.0148
G1 X132.3037 Y116.7800 E0.5009
G1 X131.7381 E0.0148
G1 X118.1781 Y103.2200 E0.5009
G1 X117.6124 E0.0148
G1 X119.6232 Y105.2309 E0.0743
G1 X118.8083 Y104.9816 F6600
G1 X117.0467 Y103.2200 E0.0651 F2100
G1 X116.4810 E0.0148
G1 X118.2426 Y104.9816 E0.0651
G1 X117.6769 E0.0148
G1 X115.9153 Y103.2200 E0.0651
G1 X115.3496 E0.0148
G1 X117.1113 Y104.9816 E0.0651
G1 X116.5456 E0.0148
G1 X114.7840 Y103.2200 E0.0651
G1 X114.2183 E0.0148
G1 X115.9799 Y104.9816 E0.0651
G1 X115.5327 Y105.1001 E0.0121
G1 X113.6526 Y103.2200 E0.0695
G1 X113.0869 E0.0148
G1 X115.2250 Y105.3581 E0.0790
G1 X114.9175 Y105.6162 E0.0105
G1 X112.5212 Y103.2200 E0.0885
G1 X111.9555 E0.0148
G1 X114.6098 Y105.8743 E0.0981
G1 X114.3023 Y106.1324 E0.0105
G1 X111.3898 Y103.2200 E0.1076
G1 X110.8242 E0.0148
G1 X113.9946 Y106.3905 E0.1171
G1 X113.6870 Y106.6486 E0.0105
G1 X110.2585 Y103.2200 E0.1267
G1 X109.6928 E0.0148
G1 X113.3794 Y106.9067 E0.1362
G1 X113.0718 Y107.1647 E0.0105
G1 X109.1271 Y103.2200 E0.1457
G1 X108.5614 E0.0148
G1 X112.8446 Y107.5032 E0.1582
G1 X112.7598 Y107.9840 E0.0128
G1 X107.9957 Y103.2200 E0.1760
G1 X107.4300 E0.0148
G1 X112.6749 Y108.4649 E0.1938
G1 X112.5901 Y108.9457 E0.0128
G1 X106.8644 Y103.2200 E0.2115
G1 X106.2987 E0.0148
G1 X112.5053 Y109.4266 E0.2293
G1 X112.4204 Y109.9074 E0.0128
G1 X105.7330 Y103.2200 E0.2471
G1 X105.1673 E0.0148
G1 X112.3356 Y110.3883 E0.2648
G1 X112.2507 Y110.8691 E0.0128
G1 X104.6016 Y103.2200 E0.2826
G1 X104.0359 E0.0148
G1 X112.9193 Y112.1034 E0.3282
G1 E-5.0000 F4800 ; e-retract 5
G1 Z0.3000 F6600 ; z-hop start
G1 X111.2966 Y110.9342
G1 X113.6919 Y113.4416
G1 Z0.2000 ; z-hop end
G1 E5.0000 F4800 ; e-engage 5
G1 X103.4702 Y103.2200 E0.3776 F2100
G1 X102.9046 E0.0148
G1 X106.4383 Y106.7537 E0.1305
G1 E-5.0000 F4800 ; e-retract 5
G1 Z0.3000 F6600 ; z-hop start
G1 X107.9164 Y108.1010
G1 X107.2696 Y108.1508
G1 Z0.2000 ; z-hop end
G1 E5.0000 F4800 ; e-engage 5
G1 X115.8989 Y116.7800 E0.3188 F2100
G1 X116.4646 E0.0148
G1 X107.1485 Y107.4639 E0.3442
G1 E-5.0000 F4800 ; e-retract 5
G1 Z0.3000 F6600 ; z-hop start
G1 X108.6429 Y108.7930
G1 X104.1005 Y104.9816
G1 Z0.2000 ; z-hop end
G1 E5.0000 F4800 ; e-engage 5
G1 X102.3389 Y103.2200 E0.0651 F2100
G1 X101.7732 E0.0148
G1 X103.5348 Y104.9816 E0.0651
G1 X102.9691 E0.0148
G1 X101.2075 Y103.2200 E0.0651
G1 X100.6418 E0.0148
G1 X102.4034 Y104.9816 E0.0651
G1 X101.8377 E0.0148
G1 X100.0761 Y103.2200 E0.0651
G1 X99.5104 E0.0148
G1 X101.2721 Y104.9816 E0.0651
G1 X100.7064 E0.0148
G1 X98.9448 Y103.2200 E0.0651
G1 X98.3791 E0.0148
G1 X100.3839 Y105.2249 E0.0741
G1 X100.0763 Y105.4829 E0.0105
G1 X97.8134 Y103.2200 E0.0836
G1 X97.2477 E0.0148
G1 X99.7687 Y105.7410 E0.0931
G1 X99.4611 Y105.9991 E0.0105
G1 X96.6820 Y103.2200 E0.1027
G1 X96.1163 E0.0148
G1 X99.1535 Y106.2572 E0.1122
G1 X98.8459 Y106.5153 E0.0105
G1 X95.5506 Y103.2200 E0.1217
G1 X94.9850 E0.0148
G1 X98.5383 Y106.7733 E0.1313
G1 X98.2307 Y107.0314 E0.0105
G1 X94.4193 Y103.2200 E0.1408
G1 X93.8536 E0.0148
G1 X97.9231 Y107.2895 E0.1503
G1 X97.8036 Y107.7357 E0.0121
G1 X93.2879 Y103.2200 E0.1668
G1 X92.7222 E0.0148
G1 X97.7188 Y108.2165 E0.1846
G1 X97.6339 Y108.6974 E0.0128
G1 X92.1565 Y103.2200 E0.2023
G1 X91.5908 E0.0148
G1 X97.5491 Y109.1782 E0.2201
G1 X97.4642 Y109.6591 E0.0128
G1 X91.0252 Y103.2200 E0.2379
G1 X90.4595 E0.0148
G1 X97.3794 Y110.1399 E0.2556
G1 X97.2946 Y110.6208 E0.0128
G1 X89.8938 Y103.2200 E0.2734
G1 X89.3281 E0.0148
G1 X97.5203 Y111.4122 E0.3026
G1 E-5.0000 F4800 ; e-retract 5
G1 Z0.3000 F6600 ; z-hop start
G1 X99.5076 Y111.1873
G1 X98.2929 Y112.7504
G1 Z0.2000 ; z-hop end
G1 E5.0000 F4800 ; e-engage 5
G1 X88.7624 Y103.2200 E0.3521 F2100
G1 X88.1967 E0.0148
G1 X99.0654 Y114.0887 E0.4015
G1 X99.0681 Y114.0914 E0.0001
G1 X101.7567 Y116.7800 E0.0993
G1 X102.3224 E0.0148
G1 X99.9575 Y114.4151 E0.0874
G1 X100.8469 Y114.7387 F6600
G1 X102.8881 Y116.7800 E0.0754 F2100
G1 X103.4538 E0.0148
G1 X101.7362 Y115.0624 E0.0635
G1 X102.5586 Y115.3191 F6600
G1 X104.0195 Y116.7800 E0.0540 F2100
G1 X104.5852 E0.0148
G1 X102.9733 Y115.1681 E0.0595
G1 X103.3881 Y115.0172 E0.0115
G1 X105.1508 Y116.7800 E0.0651
G1 X105.7165 E0.0148
G1 X103.8028 Y114.8663 E0.0707
G1 X104.2175 Y114.7153 E0.0115
G1 X106.2822 Y116.7800 E0.0763
G1 X106.8479 E0.0148
G1 X104.6323 Y114.5644 E0.0819
G1 X105.0470 Y114.4134 E0.0115
G1 X107.4136 Y116.7800 E0.0874
G1 X107.9793 E0.0148
G1 X105.4617 Y114.2625 E0.0930
G1 X105.8765 Y114.1115 E0.0115
G1 X108.5450 Y116.7800 E0.0986
G1 X109.1106 E0.0148
G1 X106.1120 Y113.7814 E0.1108
G1 X106.3190 Y113.4227 E0.0108
G1 X109.6763 Y116.7800 E0.1240
G1 X110.2420 E0.0148
G1 X106.5261 Y113.0641 E0.1373
G1 X106.7331 Y112.7054 E0.0108
G1 X110.8077 Y116.7800 E0.1505
G1 X111.3734 E0.0148
G1 X106.9402 Y112.3468 E0.1638
G1 X107.1472 Y111.9881 E0.0108
G1 X111.9391 Y116.7800 E0.1770
G1 X112.5048 E0.0148
G1 X107.3543 Y111.6295 E0.1903
G1 X107.5613 Y111.2708 E0.0108
G1 X113.0704 Y116.7800 E0.2035
G1 X113.6361 E0.0148
G1 X107.7544 Y110.8983 E0.2173
G1 X107.6332 Y110.2114 E0.0182
G1 X114.2018 Y116.7800 E0.2427
G1 X114.7675 E0.0148
G1 X107.5120 Y109.5245 E0.2680
G1 X107.3908 Y108.8376 E0.0182
G1 X115.3332 Y116.7800 E0.2934
G1 E-5.0000 F4800 ; e-retract 5
G1 Z0.3000 F6600 ; z-hop start
G1 X114.0967 Y115.2080
G1 X117.0302 Y116.7800
G1 Z0.2000 ; z-hop end
G1 E5.0000 F4800 ; e-engage 5
G1 X114.4981 Y114.2479 E0.0935 F2100
G1 X115.3875 Y114.5716 F6600
G1 X117.5959 Y116.7800 E0.0816 F2100
G1 X118.1616 E0.0148
G1 X116.2769 Y114.8953 E0.0696
G1 X117.1663 Y115.2190 F6600
G1 X118.7273 Y116.7800 E0.0577 F2100
G1 X119.2930 E0.0148
G1 X117.7591 Y115.2461 E0.0567
G1 X118.1738 Y115.0952 E0.0115
G1 X119.8587 Y116.7800 E0.0622
G1 X120.4244 E0.0148
G1 X118.5886 Y114.9442 E0.0678
G1 X119.0033 Y114.7933 E0.0115
G1 X120.9900 Y116.7800 E0.0734
G1 X121.5557 E0.0148
G1 X119.4181 Y114.6423 E0.0790
G1 X119.8328 Y114.4914 E0.0115
G1 X122.1214 Y116.7800 E0.0845
G1 X122.6871 E0.0148
G1 X120.2475 Y114.3404 E0.0901
G1 X120.6623 Y114.1895 E0.0115
G1 X123.2528 Y116.7800 E0.0957
G1 X123.8185 E0.0148
G1 X121.0051 Y113.9666 E0.1039
G1 X121.2121 Y113.6080 E0.0108
G1 X124.3842 Y116.7800 E0.1172
G1 X124.9498 E0.0148
G1 X121.4192 Y113.2493 E0.1304
G1 X121.6262 Y112.8907 E0.0108
G1 X125.5155 Y116.7800 E0.1437
G1 X126.0812 E0.0148
G1 X121.8332 Y112.5320 E0.1569
G1 X122.0403 Y112.1734 E0.0108
G1 X126.6469 Y116.7800 E0.1702
G1 X127.2126 E0.0148
G1 X122.2473 Y111.8147 E0.1834
G1 X122.4544 Y111.4561 E0.0108
G1 X127.7783 Y116.7800 E0.1967
G1 X128.3440 E0.0148
G1 X122.6614 Y111.0974 E0.2099
G1 X122.6958 Y110.5661 E0.0139
G1 X128.9096 Y116.7800 E0.2296
G1 X129.4753 E0.0148
G1 X122.5746 Y109.8793 E0.2549
G1 X122.4534 Y109.1924 E0.0182
G1 X130.0410 Y116.7800 E0.2803
G1 X130.6067 E0.0148
G1 X122.3322 Y108.5055 E0.3057
G1 X122.2111 Y107.8187 E0.0182
G1 X131.1724 Y116.7800 E0.3311
G1 E-5.0000 F4800 ; e-retract 5
G1 Z0.3000 F6600 ; z-hop start
G1 X129.2677 Y116.1701
G1 X136.2800 Y116.2308
G1 Z0.2000 ; z-hop end
G1 E5.0000 F4800 ; e-engage 5
G1 X123.2692 Y103.2200 E0.4807 F2100
G1 X123.8349 E0.0148
G1 X136.2800 Y115.6651 E0.4598
G1 Y115.0994 E0.0148
G1 X124.4006 Y103.2200 E0.4389
G1 X124.9663 E0.0148
G1 X136.2800 Y114.5337 E0.4180
G1 Y113.9680 E0.0148
G1 X125.5320 Y103.2200 E0.3971
G1 X126.0977 E0.0148
G1 X136.2800 Y113.4023 E0.3762
G1 Y112.8367 E0.0148
G1 X126.6633 Y103.2200 E0.3553
G1 X127.2290 E0.0148
G1 X136.2800 Y112.2710 E0.3344
G1 Y111.7053 E0.0148
G1 X127.7947 Y103.2200 E0.3135
G1 X128.3604 E0.0148
G1 X136.2800 Y111.1396 E0.2926
G1 Y110.5739 E0.0148
G1 X128.9261 Y103.2200 E0.2717
G1 X129.4918 E0.0148
G1 X136.2800 Y110.0082 E0.2508
G1 Y109.4425 E0.0148
G1 X130.0575 Y103.2200 E0.2299
G1 X130.6231 E0.0148
G1 X136.2800 Y108.8769 E0.2090
G1 Y108.3112 E0.0148
G1 X131.1888 Y103.2200 E0.1881
G1 X131.7545 E0.0148
G1 X136.2800 Y107.7455 E0.1672
G1 Y107.1798 E0.0148
G1 X132.3202 Y103.2200 E0.1463
G1 X132.8859 E0.0148
G1 X136.2800 Y106.6141 E0.1254
G1 Y106.0484 E0.0148
G1 X133.4516 Y103.2200 E0.1045
G1 X134.0173 E0.0148
G1 X136.2800 Y105.4827 E0.0836
G1 Y104.9171 E0.0148
G1 X134.5829 Y103.2200 E0.0627
G1 X135.1486 E0.0148
G1 X136.2800 Y104.3514 E0.0418
G1 X135.9972 Y103.5028 E0.0234
G1 E-5.0000 F4800 ; e-retract 5
G1 Z0.3000 F6600 ; z-hop start
G1 X134.0568 Y103.9878
G1 X101.1910 Y116.7800
G1 Z0.2000 ; z-hop end
G1 E5.0000 F4800 ; e-engage 5
G1 X87.6310 Y103.2200 E0.5009 F2100
G1 X87.0654 E0.0148
G1 X100.6254 Y116.7800 E0.5009
G1 X100.0597 E0.0148
G1 X86.4997 Y103.2200 E0.5009
G1 X85.9340 E0.0148
G1 X99.4940 Y116.7800 E0.5009
G1 X98.9283 E0.0148
G1 X85.3683 Y103.2200 E0.5009
G1 X84.8026 E0.0148
G1 X98.3626 Y116.7800 E0.5009
G1 X97.7969 E0.0148
G1 X84.2369 Y103.2200 E0.5009
G1 X83.7200 Y103.2687 E0.0136
G1 X97.2313 Y116.7800 E0.4991
G1 X96.6656 E0.0148
G1 X83.7200 Y103.8344 E0.4782
G1 Y104.4001 E0.0148
G1 X96.0999 Y116.7800 E0.4573
G1 X95.5342 E0.0148
G1 X83.7200 Y104.9658 E0.4364
G1 Y105.5315 E0.0148
G1 X94.9685 Y116.7800 E0.4156
G1 X94.4028 E0.0148
G1 X83.7200 Y106.0972 E0.3947
G1 Y106.6629 E0.0148
G1 X93.8371 Y116.7800 E0.3738
G1 X93.2715 E0.0148
G1 X83.7200 Y107.2285 E0.3529
G1 Y107.7942 E0.0148
G1 X92.7058 Y116.7800 E0.3320
G1 X92.1401 E0.0148
G1 X83.7200 Y108.3599 E0.3111
G1 Y108.9256 E0.0148
G1 X91.5744 Y116.7800 E0.2902
G1 X91.0087 E0.0148
G1 X83.7200 Y109.4913 E0.2693
G1 Y110.0570 E0.0148
G1 X90.4430 Y116.7800 E0.2484
G1 X89.8773 E0.0148
G1 X83.7200 Y110.6226 E0.2275
G1 Y111.1883 E0.0148
G1 X89.3117 Y116.7800 E0.2066
G1 X88.7460 E0.0148
G1 X83.7200 Y111.7540 E0.1857
G1 Y112.3197 E0.0148
