;FLAVOR:Marlin
;TIME:3491
;Filament used: 2.60458m
;Layer height: 0.24
;MINX:67.465
;MINY:79.102
;MINZ:0.2
;MAXX:152.535
;MAXY:140.898
;MAXZ:3.32
;TARGET_MACHINE.NAME:Creality Ender-3 Pro
;Generated with Cura_SteamEngine 5.8.1
M82 ;absolute extrusion mode
; Ender 3 Custom Start G-code
G92 E0 ; Reset Extruder
G28 ; Home all axes
G1 Z5.0 F3000 ; Move Z Axis up a bit during heating to not damage bed
M104 S210.0 ; Start heating up the nozzle most of the way
M190 S60.0 ; Start heating the bed, wait until target temperature reached
M109 S215.0 ; Finish heating the nozzle
G1 Z2.0 F3000 ; Move Z Axis up little to prevent scratching of Heat Bed
G1 X0.1 Y20 Z0.3 F5000.0 ; Move to start position
G1 X0.1 Y200.0 Z0.3 F1500.0 E15 ; Draw the first line
G1 X0.4 Y200.0 Z0.3 F5000.0 ; Move to side a little
G1 X0.4 Y20 Z0.3 F1500.0 E30 ; Draw the second line
G92 E0 ; Reset Extruder
G1 Z2.0 F3000 ; Move Z Axis up little to prevent scratching of Heat Bed
G1 X5 Y20 Z0.3 F5000.0 ; Move over to prevent blob squish
G92 E0
G92 E0
G1 F1200 E-5
;LAYER_COUNT:14
;LAYER:0
M107
G0 F6000 X72.768 Y83.591 Z0.2
;TYPE:SKIRT
G1 F1200 E0
G1 X73.775 Y82.723 E0.04864
G1 X74.397 Y82.252 E0.07718
G1 X75.489 Y81.528 E0.12512
G1 X76.137 Y81.154 E0.15249
G1 X77.333 Y80.561 E0.20133
G1 X78.081 Y80.248 E0.231
G1 X79.33 Y79.816 E0.27935
G1 X80.042 Y79.619 E0.30638
G1 X81.299 Y79.354 E0.35338
G1 X82.129 Y79.234 E0.38406
G1 X83.423 Y79.127 E0.43157
G1 X84.754 Y79.102 E0.48027
G1 X135.55 Y79.102 E2.3387
G1 X136.3 Y79.112 E2.36614
G1 X137.259 Y79.169 E2.40129
G1 X138.013 Y79.25 E2.42904
G1 X139.272 Y79.464 E2.47576
G1 X140.087 Y79.656 E2.50639
G1 X141.347 Y80.038 E2.55456
G1 X142.056 Y80.303 E2.58225
G1 X143.245 Y80.833 E2.62988
G1 X143.955 Y81.205 E2.65921
G1 X145.096 Y81.9 E2.70809
G1 X145.693 Y82.317 E2.73473
G1 X146.7 Y83.115 E2.78174
G1 X147.313 Y83.667 E2.81192
G1 X148.238 Y84.616 E2.8604
G1 X148.762 Y85.228 E2.88988
G1 X149.526 Y86.24 E2.93627
G1 X149.947 Y86.875 E2.96414
G1 X150.597 Y88.001 E3.01171
G1 X150.945 Y88.701 E3.04031
G1 X151.452 Y89.906 E3.08814
G1 X151.727 Y90.7 E3.11888
G1 X152.078 Y91.965 E3.16691
G1 X152.226 Y92.666 E3.19313
G1 X152.417 Y93.974 E3.24149
G1 X152.481 Y94.738 E3.26954
G1 X152.517 Y95.438 E3.29518
G1 X152.534 Y96.453 E3.33232
G1 X152.535 Y123.552 E4.32377
G1 X152.513 Y124.631 E4.36326
G1 X152.472 Y125.43 E4.39253
G1 X152.336 Y126.665 E4.43798
G1 X152.201 Y127.454 E4.46727
G1 X151.894 Y128.749 E4.51596
G1 X151.693 Y129.412 E4.54131
G1 X151.232 Y130.652 E4.58971
G1 X150.905 Y131.385 E4.61907
G1 X150.284 Y132.568 E4.66796
G1 X149.891 Y133.214 E4.69562
G1 X149.142 Y134.289 E4.74356
G1 X148.657 Y134.901 E4.77213
G1 X147.78 Y135.874 E4.82005
G1 X147.232 Y136.409 E4.84807
G1 X146.225 Y137.277 E4.89671
G1 X145.603 Y137.748 E4.92525
G1 X144.511 Y138.472 E4.97319
G1 X143.863 Y138.846 E5.00056
G1 X142.667 Y139.439 E5.0494
G1 X141.919 Y139.752 E5.07907
G1 X140.67 Y140.184 E5.12742
G1 X139.958 Y140.381 E5.15445
G1 X138.701 Y140.646 E5.20145
G1 X137.871 Y140.766 E5.23213
G1 X136.577 Y140.873 E5.27964
G1 X135.238 Y140.898 E5.32863
G1 X100.716 Y140.897 E6.59166
G1 X99.384 Y140.878 E6.6404
G1 X96.707 Y140.878 E6.73834
G1 X95.397 Y140.896 E6.78627
G1 X94.134 Y140.878 E6.83248
G1 X91.457 Y140.878 E6.93043
G1 X90.147 Y140.896 E6.97836
G1 X88.884 Y140.878 E7.02457
G1 X86.281 Y140.878 E7.1198
G1 X85.681 Y140.891 E7.14176
G1 X84.31 Y140.897 E7.19192
G1 X83.7 Y140.888 E7.21424
G1 X82.741 Y140.831 E7.24939
G1 X81.987 Y140.75 E7.27713
G1 X80.728 Y140.536 E7.32386
G1 X79.913 Y140.344 E7.35449
G1 X78.653 Y139.962 E7.40266
G1 X77.944 Y139.697 E7.43035
G1 X76.755 Y139.167 E7.47798
G1 X76.07 Y138.809 E7.50626
G1 X74.898 Y138.097 E7.55643
G1 X74.299 Y137.678 E7.58317
G1 X73.277 Y136.865 E7.63095
G1 X72.685 Y136.331 E7.66012
G1 X71.758 Y135.379 E7.70874
G1 X71.236 Y134.769 E7.73811
G1 X70.476 Y133.763 E7.78424
G1 X70.054 Y133.127 E7.81216
G1 X69.396 Y131.987 E7.86032
G1 X69.048 Y131.285 E7.88899
G1 X68.541 Y130.077 E7.93692
G1 X68.284 Y129.339 E7.96551
G1 X67.918 Y128.018 E8.01566
G1 X67.771 Y127.316 E8.0419
G1 X67.582 Y126.017 E8.08993
G1 X67.518 Y125.246 E8.11823
G1 X67.483 Y124.556 E8.14351
G1 X67.466 Y123.549 E8.18035
G1 X67.465 Y96.448 E9.17188
G1 X67.487 Y95.369 E9.21136
G1 X67.528 Y94.57 E9.24063
G1 X67.661 Y93.357 E9.28528
G1 X67.792 Y92.582 E9.31403
G1 X68.101 Y91.268 E9.36342
G1 X68.306 Y90.591 E9.3893
G1 X68.768 Y89.348 E9.43781
G1 X69.095 Y88.615 E9.46718
G1 X69.716 Y87.432 E9.51606
G1 X70.109 Y86.786 E9.54373
G1 X70.858 Y85.711 E9.59166
G1 X71.343 Y85.099 E9.62023
G1 X72.22 Y84.126 E9.66816
G1 X72.768 Y83.591 E9.69617
G0 F6000 X73.075 Y83.906
G1 F1200 X74.041 Y83.074 E9.74282
G1 X74.663 Y82.603 E9.77136
G1 X75.732 Y81.895 E9.81827
G1 X76.357 Y81.535 E9.84466
G1 X77.503 Y80.967 E9.89146
G1 X78.225 Y80.664 E9.9201
G1 X79.448 Y80.24 E9.96746
G1 X80.133 Y80.05 E9.99347
G1 X81.39 Y79.785 E10.04047
G1 X82.165 Y79.672 E10.06912
G1 X83.431 Y79.567 E10.1156
G1 X84.762 Y79.542 E10.16431
G1 X135.545 Y79.542 E12.02226
G1 X136.274 Y79.551 E12.04893
G1 X137.213 Y79.607 E12.08335
G1 X137.939 Y79.684 E12.11006
G1 X139.198 Y79.898 E12.15678
G1 X139.96 Y80.077 E12.18542
G1 X141.193 Y80.45 E12.23255
G1 X141.877 Y80.705 E12.25926
G1 X143.041 Y81.223 E12.30587
G1 X143.726 Y81.581 E12.33415
G1 X144.844 Y82.261 E12.38202
G1 X145.441 Y82.678 E12.40866
G1 X146.427 Y83.46 E12.45471
G1 X146.998 Y83.974 E12.48281
G1 X147.923 Y84.923 E12.5313
G1 X148.411 Y85.493 E12.55875
G1 X149.16 Y86.484 E12.6042
G1 X149.566 Y87.095 E12.63104
G1 X150.203 Y88.197 E12.67761
G1 X150.539 Y88.872 E12.70519
G1 X151.046 Y90.077 E12.75302
G1 X151.303 Y90.818 E12.78172
G1 X151.647 Y92.056 E12.82873
G1 X151.795 Y92.757 E12.85494
G1 X151.979 Y94.011 E12.90131
G1 X152.042 Y94.76 E12.92881
G1 X152.077 Y95.445 E12.95391
G1 X152.094 Y96.453 E12.99079
G1 X152.095 Y123.543 E13.98191
G1 X152.074 Y124.609 E14.02092
G1 X152.035 Y125.382 E14.04923
G1 X151.902 Y126.591 E14.09373
G1 X151.767 Y127.38 E14.12302
G1 X151.473 Y128.621 E14.16968
G1 X151.272 Y129.284 E14.19503
G1 X150.83 Y130.473 E14.24144
G1 X150.515 Y131.181 E14.26979
G1 X149.908 Y132.339 E14.31762
G1 X149.515 Y132.985 E14.34529
G1 X148.797 Y134.016 E14.39125
G1 X148.33 Y134.606 E14.41878
G1 X147.453 Y135.579 E14.46671
G1 X146.925 Y136.094 E14.49369
G1 X145.959 Y136.926 E14.54033
G1 X145.337 Y137.397 E14.56888
G1 X144.268 Y138.105 E14.61579
G1 X143.643 Y138.465 E14.64218
G1 X142.497 Y139.033 E14.68897
G1 X141.775 Y139.336 E14.71762
G1 X140.552 Y139.76 E14.76498
G1 X139.867 Y139.95 E14.79099
G1 X138.61 Y140.215 E14.83799
G1 X137.835 Y140.328 E14.86664
G1 X136.569 Y140.433 E14.91312
G1 X135.238 Y140.458 E14.96182
G1 X100.722 Y140.457 E16.22463
G1 X99.39 Y140.438 E16.27337
G1 X96.701 Y140.438 E16.37175
G1 X95.403 Y140.456 E16.41924
G1 X94.14 Y140.438 E16.46545
G1 X91.451 Y140.438 E16.56383
G1 X90.153 Y140.456 E16.61133
G1 X88.89 Y140.438 E16.65754
G1 X86.271 Y140.438 E16.75336
G1 X85.679 Y140.451 E16.77502
G1 X84.316 Y140.457 E16.82489
G1 X83.726 Y140.449 E16.84648
G1 X82.787 Y140.393 E16.88089
G1 X82.061 Y140.316 E16.9076
G1 X80.802 Y140.102 E16.95433
G1 X80.04 Y139.923 E16.98296
G1 X78.807 Y139.55 E17.03009
G1 X78.123 Y139.295 E17.0568
G1 X76.959 Y138.777 E17.10341
G1 X76.274 Y138.419 E17.13169
G1 X75.15 Y137.736 E17.17981
G1 X74.551 Y137.317 E17.20656
G1 X73.571 Y136.538 E17.25236
G1 X73 Y136.024 E17.28047
G1 X72.073 Y135.072 E17.32908
G1 X71.587 Y134.504 E17.35643
G1 X70.842 Y133.519 E17.40161
G1 X70.435 Y132.907 E17.4285
G1 X69.79 Y131.791 E17.47566
G1 X69.454 Y131.114 E17.50332
G1 X68.957 Y129.932 E17.55023
G1 X68.7 Y129.194 E17.57882
G1 X68.349 Y127.928 E17.62688
G1 X68.202 Y127.226 E17.65312
G1 X68.02 Y125.98 E17.69919
G1 X67.957 Y125.224 E17.72695
G1 X67.923 Y124.549 E17.75168
G1 X67.906 Y123.549 E17.78827
G1 X67.905 Y96.457 E18.77946
G1 X67.926 Y95.391 E18.81847
G1 X67.965 Y94.618 E18.84678
G1 X68.095 Y93.43 E18.89051
G1 X68.226 Y92.655 E18.91927
G1 X68.522 Y91.396 E18.96658
G1 X68.727 Y90.719 E18.99246
G1 X69.17 Y89.527 E19.03899
G1 X69.485 Y88.819 E19.06734
G1 X70.092 Y87.661 E19.11517
G1 X70.485 Y87.015 E19.14284
G1 X71.203 Y85.984 E19.1888
G1 X71.67 Y85.394 E19.21633
G1 X72.547 Y84.421 E19.26426
G1 X73.075 Y83.906 E19.29124
G1 F1200 E14.29124
;MESH:Ender-grey.stl
G0 F6000 X77.957 Y93.233
G0 X78.938 Y93.692
G0 X79.446 Y124.846
G0 X79.741 Y125.992
G0 X80.303 Y127.017
G0 X81.109 Y127.877
G0 X82.126 Y128.522
G0 X83.238 Y128.879
G0 X83.834 Y128.955
G0 X84.776 Y128.953
G0 X89.596 Y128.451
G0 X90.122 Y128.824
G0 X92.8 Y128.613
G0 X95.375 Y129.112
;TYPE:WALL-INNER
G1 F1200 E19.29124
G1 X95.616 Y128.878 E19.30353
G1 X95.995 Y128.608 E19.32056
G1 X96.344 Y128.412 E19.3352
G1 X96.818 Y128.212 E19.35402
G1 X97.279 Y128.093 E19.37144
G1 X97.723 Y128.032 E19.38784
G1 X98.261 Y128.031 E19.40752
G1 X98.675 Y128.084 E19.42279
G1 X99.119 Y128.195 E19.43954
G1 X99.52 Y128.348 E19.45524
G1 X100.002 Y128.601 E19.47516
G1 X100.42 Y128.92 E19.49439
G1 X100.651 Y129.136 E19.50596
G1 X134.546 Y129.136 E20.74605
G1 F1068.8 X134.93 Y129.082 E20.76198
G1 F884.4 X135.119 Y129.033 E20.77167
G1 F836.8 X135.699 Y129.048 E20.80211
G1 F854.4 X136.168 Y129.046 E20.82622
G1 F853 X136.776 Y128.97 E20.85775
G1 F854.4 X137.366 Y128.818 E20.88906
G1 F853 X137.909 Y128.605 E20.91908
G1 F854.4 X138.45 Y128.306 E20.95085
G1 X138.945 Y127.948 E20.98224
G1 F853 X139.379 Y127.54 E21.0129
G1 X139.768 Y127.071 E21.04426
G1 F854.4 X140.088 Y126.565 E21.07502
G1 X140.343 Y126.026 E21.10567
G1 X140.529 Y125.445 E21.13701
G1 X140.641 Y124.858 E21.16772
G1 F851.6 X140.682 Y124.193 E21.20207
G1 F834.1 X140.67 Y123.595 E21.23355
G1 F963.5 X140.766 Y123.221 E21.25115
G1 F1175.9 X140.769 Y109.508 E21.76311
G1 F1191.9 X140.772 Y95.795 E22.26824
G1 F1200 X140.73 Y95.131 E22.29258
G1 X140.615 Y94.532 E22.3149
G1 X140.426 Y93.937 E22.33774
G1 X140.166 Y93.388 E22.35996
G1 X139.84 Y92.872 E22.38229
G1 X139.445 Y92.397 E22.40489
G1 X139.002 Y91.982 E22.4271
G1 X138.497 Y91.615 E22.44994
G1 X137.946 Y91.314 E22.47291
G1 X137.39 Y91.093 E22.4948
G1 X136.793 Y90.939 E22.51736
G1 X136.174 Y90.86 E22.54019
G1 X83.822 Y90.86 E24.45555
G1 X83.203 Y90.939 E24.47838
G1 X82.606 Y91.092 E24.50093
G1 X82.05 Y91.314 E24.52283
G1 X81.499 Y91.616 E24.54582
G1 X80.994 Y91.982 E24.56864
G1 X80.551 Y92.396 E24.59082
G1 X80.156 Y92.872 E24.61345
G1 X79.831 Y93.386 E24.6357
G1 X79.574 Y93.937 E24.65794
G1 X79.38 Y94.535 E24.68095
G1 X79.266 Y95.131 E24.70315
G1 X79.224 Y95.795 E24.72749
G1 X79.225 Y124.205 E25.7669
G1 X79.266 Y124.869 E25.79124
G1 X79.38 Y125.465 E25.81344
G1 X79.573 Y126.059 E25.83629
G1 X79.831 Y126.61 E25.85855
G1 X80.156 Y127.124 E25.8808
G1 X80.552 Y127.601 E25.90348
G1 X80.994 Y128.017 E25.92569
G1 X81.499 Y128.381 E25.94846
G1 X82.049 Y128.686 E25.97147
G1 X82.603 Y128.903 E25.99324
G1 X83.203 Y129.057 E26.0159
G1 X83.822 Y129.136 E26.03873
G1 X84.85 Y129.136 E26.07635
G1 X85.115 Y128.883 E26.08975
G1 X85.49 Y128.609 E26.10674
G1 X85.882 Y128.392 E26.12313
G1 X86.339 Y128.202 E26.14124
G1 X86.848 Y128.081 E26.16038
G1 X87.249 Y128.028 E26.17518
G1 X87.74 Y128.03 E26.19315
G1 X88.231 Y128.095 E26.21127
G1 X88.674 Y128.212 E26.22803
G1 X89.087 Y128.377 E26.2443
G1 X89.499 Y128.604 E26.26151
G1 X89.822 Y128.838 E26.2761
G1 X90.123 Y129.111 E26.29097
G1 X90.377 Y128.871 E26.30376
G1 X90.798 Y128.577 E26.32254
G1 X91.101 Y128.409 E26.33522
G1 X91.566 Y128.212 E26.35369
G1 X92.039 Y128.091 E26.37156
G1 X92.5 Y128.03 E26.38857
G1 X92.987 Y128.03 E26.40639
G1 X93.456 Y128.089 E26.42368
G1 X93.926 Y128.212 E26.44146
G1 X94.344 Y128.376 E26.45788
G1 X94.747 Y128.604 E26.47482
G1 X95.07 Y128.838 E26.48942
G1 X95.375 Y129.112 E26.50442
G0 F6000 X95.528 Y129.576
G1 F1200 X95.875 Y129.24 E26.52209
G1 X96.229 Y128.98 E26.53816
G1 X96.595 Y128.778 E26.55345
G1 X96.963 Y128.628 E26.56799
G1 X97.387 Y128.52 E26.584
G1 X97.761 Y128.47 E26.59781
G1 X98.196 Y128.468 E26.61372
G1 X98.599 Y128.517 E26.62857
G1 X99.016 Y128.624 E26.64432
G1 X99.434 Y128.793 E26.66082
G1 X99.8 Y129.001 E26.67622
G1 X100.119 Y129.241 E26.69083
G1 X100.478 Y129.576 E26.70879
G1 X136.202 Y129.576 E28.01579
G1 X136.875 Y129.49 E28.04062
G1 X137.528 Y129.322 E28.06529
G1 X138.134 Y129.085 E28.08909
G1 X138.733 Y128.753 E28.11415
G1 X139.283 Y128.357 E28.13894
G1 X139.765 Y127.903 E28.16317
G1 X140.197 Y127.383 E28.1879
G1 X140.552 Y126.821 E28.21222
G1 X140.836 Y126.22 E28.23654
G1 X141.043 Y125.576 E28.26129
G1 X141.167 Y124.925 E28.28554
G1 X141.212 Y124.219 E28.31142
G1 X141.212 Y95.781 E29.35186
G1 X141.167 Y95.076 E29.3777
G1 X141.043 Y94.423 E29.40202
G1 X140.836 Y93.775 E29.42691
G1 X140.552 Y93.175 E29.45119
G1 X140.196 Y92.613 E29.47553
G1 X139.766 Y92.094 E29.50019
G1 X139.283 Y91.642 E29.5244
G1 X138.733 Y91.243 E29.54925
G1 X138.134 Y90.915 E29.57424
G1 X137.527 Y90.673 E29.59815
G1 X136.875 Y90.506 E29.62277
G1 X136.202 Y90.42 E29.64759
G1 X83.794 Y90.42 E31.565
G1 X83.121 Y90.506 E31.58982
G1 X82.469 Y90.673 E31.61445
G1 X81.862 Y90.915 E31.63836
G1 X81.263 Y91.243 E31.66334
G1 X80.713 Y91.642 E31.6882
G1 X80.23 Y92.094 E31.7124
G1 X79.8 Y92.613 E31.73706
G1 X79.445 Y93.174 E31.76135
G1 X79.164 Y93.775 E31.78562
G1 X78.953 Y94.425 E31.81063
G1 X78.829 Y95.075 E31.83484
G1 X78.784 Y95.781 E31.86072
G1 X78.785 Y124.219 E32.90116
G1 X78.829 Y124.925 E32.92704
G1 X78.953 Y125.575 E32.95125
G1 X79.163 Y126.221 E32.9761
G1 X79.445 Y126.822 E33.00039
G1 X79.8 Y127.383 E33.02468
G1 X80.23 Y127.903 E33.04936
G1 X80.713 Y128.357 E33.07361
G1 X81.263 Y128.753 E33.09841
G1 X81.862 Y129.085 E33.12347
G1 X82.468 Y129.322 E33.14727
G1 X83.121 Y129.49 E33.17194
G1 X83.794 Y129.576 E33.19676
G1 X85.025 Y129.576 E33.2418
G1 X85.369 Y129.249 E33.25917
G1 X85.727 Y128.98 E33.27555
G1 X86.079 Y128.786 E33.29025
G1 X86.43 Y128.64 E33.30416
G1 X86.907 Y128.517 E33.32218
G1 X87.32 Y128.468 E33.3374
G1 X87.711 Y128.469 E33.35171
G1 X88.132 Y128.524 E33.36724
G1 X88.508 Y128.621 E33.38145
G1 X88.87 Y128.762 E33.39566
G1 X89.263 Y128.975 E33.41201
G1 X89.561 Y129.192 E33.4255
G1 X89.979 Y129.576 E33.44627
G1 X90.268 Y129.576 E33.45684
G1 X90.685 Y129.193 E33.47756
G1 X90.981 Y128.98 E33.4909
G1 X91.347 Y128.778 E33.50619
G1 X91.711 Y128.628 E33.5206
G1 X92.122 Y128.523 E33.53612
G1 X92.528 Y128.469 E33.5511
G1 X92.959 Y128.469 E33.56687
G1 X93.388 Y128.525 E33.5827
G1 X93.76 Y128.621 E33.59675
G1 X94.119 Y128.761 E33.61085
G1 X94.511 Y128.975 E33.62719
G1 X94.809 Y129.192 E33.64068
G1 X95.233 Y129.576 E33.66161
G1 X95.528 Y129.576 E33.6724
G1 F1200 E28.6724
G0 F6000 X95.43 Y129.348
G0 X96.513 Y128.619
G0 X97.34 Y128.347
G0 X98.216 Y128.291
G0 X99.071 Y128.453
G0 X99.857 Y128.824
G0 X100.361 Y129.236
G0 X134.551 Y128.955
G0 X134.944 Y128.845
G0 X135.158 Y128.714
G0 X135.684 Y128.432
G1 F1200 E33.6724
G1 F836.8 X135.16 Y128.39 E33.69998
G1 F884.4 X135.027 Y128.314 E33.70759
G1 F1068.8 X134.669 Y128.165 E33.72351
G1 F1200 X134.543 Y128.125 E33.72835
G1 X134.127 Y127.962 E33.7447
G1 X133.679 Y127.717 E33.76338
G1 X133.305 Y127.441 E33.78038
G1 X132.888 Y127.065 E33.80093
G1 X132.515 Y126.599 E33.82277
G1 X132.279 Y126.226 E33.83891
G1 X132.036 Y125.69 E33.86045
G1 X131.92 Y125.33 E33.87428
G1 X131.803 Y124.775 E33.89503
G1 X131.769 Y124.248 E33.91436
G1 X131.803 Y123.728 E33.93342
G1 X131.9 Y123.229 E33.95202
G1 X132.063 Y122.734 E33.97109
G1 X132.287 Y122.263 E33.99017
G1 X132.547 Y121.854 E34.0079
G1 X132.865 Y121.461 E34.02639
G1 X133.248 Y121.094 E34.0458
G1 X133.678 Y120.787 E34.06513
G1 X134.116 Y120.548 E34.08339
G1 X134.592 Y120.35 E34.10225
G1 X135.106 Y120.217 E34.12167
G1 X135.537 Y120.164 E34.13756
G1 X136.064 Y120.156 E34.15684
G1 X136.619 Y120.213 E34.17726
G1 X137.149 Y120.348 E34.19727
G1 X137.563 Y120.515 E34.2136
G1 X138.067 Y120.776 E34.23436
G1 X138.542 Y121.138 E34.25621
G1 X138.81 Y121.39 E34.26967
G1 X139.2 Y121.847 E34.29165
G1 X139.494 Y122.326 E34.31222
G1 X139.688 Y122.732 E34.32868
G1 F1183.9 X139.868 Y123.303 E34.35088
G1 F963.5 X140.03 Y123.653 E34.36845
G1 F834.1 X140.061 Y124.204 E34.3975
G1 F851.6 X140.028 Y124.78 E34.42725
G1 F854.4 X139.931 Y125.292 E34.45402
G1 X139.768 Y125.797 E34.48129
