; Generated by Kiri:Moto 4.0.31
; Thu Oct 31 2024 16:53:18 GMT-0700 (Pacific Daylight Time)
; Bed left:0 right:220 top:220 bottom:0
; Bed type: fixed
; Target: My Any Generic Marlin
; --- process ---
; processName = Ender 3 PLA
; sliceHeight = 0.2
; sliceShells = 3
; sliceShellOrder = in-out
; sliceLayerStart = center
; sliceFillAngle = 50
; sliceFillOverlap = 0.15
; sliceFillSparse = 0.35
; sliceFillType = hex
; sliceAdaptive = false
; sliceMinHeight = 0.1
; sliceSupportDensity = 0.15
; sliceSupportOffset = 0.4
; sliceSupportGap = 0
; sliceSupportSize = 1
; sliceSupportArea = 2
; sliceSupportExtra = 0
; sliceSupportAngle = 1
; sliceSupportNozzle = 0
; sliceSolidMinArea = 5
; sliceBottomLayers = 3
; sliceTopLayers = 3
; firstLayerRate = 35
; firstLayerPrintMult = 1
; firstLayerYOffset = 0
; firstLayerBrim = 0
; firstLayerBeltLead = 200
; firstLayerFanSpeed = 0
; outputTemp = 200
; outputBedTemp = 60
; outputFanSpeed = 255
; outputFeedrate = 35
; outputFinishrate = 30
; outputSeekrate = 85
; outputShellMult = 0.8
; outputFillMult = 0.8
; outputSparseMult = 0.8
; outputRetractDist = 4
; outputRetractSpeed = 80
; outputRetractWipe = 2
; outputRetractDwell = 0
; outputShortPoly = 50
; outputMinSpeed = 1
; outputCoastDist = 0.05
; outputLayerRetract = true
; zHopDistance = 0.1
; antiBacklash = 0
; sliceFillWidth = 1
; sliceFillRate = 0
; sliceSupportEnable = false
; firstSliceHeight = 0.2
; firstLayerFillRate = 30
; firstLayerLineMult = 1
; firstLayerNozzleTemp = 0
; firstLayerBedTemp = 0
; firstLayerBrimTrig = 0
; firstLayerBrimGap = 0
; outputRaft = false
; outputRaftSpacing = 0.2
; outputBrimCount = 2
; outputBrimOffset = 3
; outputPurgeTower = 0
; outputInvertX = false
; outputInvertY = false
; arcTolerance = 0
; ranges = []
; outputLoops = 0
; firstLayerBrimIn = 0
; firstLayerBeltBump = 0
; outputBeltFirst = false
; sliceFillRepeat = 4
; sliceLineWidth = 0.4
; sliceSupportSpan = 5
; sliceSupportOutline = false
; firstLayerFlatten = 0
; outputDraftShield = false
; outputAvoidGaps = false
; sliceDetectThin = type 2
; sliceAngle = 45
; sliceLayerStartX = 0
; sliceLayerStartY = 0
; sliceFillGrow = 0
; sliceSolidRate = 0
; sliceSupportGrow = 0
; outputFanLayer = 1
; outputAlternating = false
; outputNozzle = 0
; --- startup ---
M104 S200 T0             ; set extruder temperature
M140 S60 T0              ; set bed temperature
G90                      ; set absolute positioning mode
M83                      ; set relative positioning for extruder
M107                     ; turn off filament cooling fan
G28                      ; home axes
G92 X0 Y0 Z0 E0          ; reset all axes positions
G1 X0 Y0 Z0.25 F180      ; move xy to 0,0 and z 0.25mm over bed
G92 E0                   ; zero the extruded
M190 S60 T0              ; wait for bed to reach target temp
M109 S200 T0             ; wait for extruder to reach target temp
G1 E15 F200              ; purge 15mm from extruder
G92 E0                   ; zero the extruded
G1 F225                  ; set feed speed
G1 Z1.0 F3000            ; move z up little to prevent scratching
G1 X0.1 Y20 Z0.3 F5000.0 ; move to start-line position
G1 X0.1 Y100.0 Z0.3 F1500.0 E15 ; draw 1st line
G1 X0.4 Y100.0 Z0.3 F5000.0     ; move to side a little
G1 X0.4 Y20 Z0.3 F1500.0 E30    ; draw 2nd line
G92 E0 ; reset extruder
G1 Z1.0 F3000 ; move z up little to prevent scratching of surface
G1 E-4.0000 F4800 ; e-retract 4
;; --- layer 0 (0.200 @ 0.2) ---
G1 Z0.2000 F5100
; feature brim
G1 X97.9800 Y86.6790
G1 E4.0000 F4800 ; e-engage 4
G1 X97.0000 E0.0205 F2100
G1 Y133.3220 E0.9747
G1 X97.9800 E0.0205
G1 Y140.5660 E0.1514
G1 X122.0200 E0.5024
G1 Y133.3220 E0.1514
G1 X123.0000 E0.0205
G1 Y86.6790 E0.9747
G1 X122.0200 E0.0205
G1 Y79.4340 E0.1514
G1 X97.9800 E0.5024
G1 Y86.6790 E0.1514
G1 X97.5800 Y86.2790 F5100
G1 X96.6000 E0.0205 F2100
G1 Y133.7220 E0.9915
G1 X97.5800 E0.0205
G1 Y140.9660 E0.1514
G1 X122.4200 E0.5191
G1 Y133.7220 E0.1514
G1 X123.4000 E0.0205
G1 Y86.2790 E0.9915
G1 X122.4200 E0.0205
G1 Y79.0340 E0.1514
G1 X97.5800 E0.5191
G1 Y86.2790 E0.1514
G1 E-4.0000 F4800 ; e-retract 4
G1 Z0.3000 F5100 ; z-hop start
; feature shells
G1 X102.1800 Y90.8790
G1 Z0.2000 ; z-hop end
G1 E4.0000 F4800 ; e-engage 4
G1 X101.2000 E0.0205 F2100
G1 Y129.1220 E0.7992
G1 X102.1800 E0.0205
G1 Y133.7940 E0.0976
G1 X102.5918 Y133.1077 E0.0167
G1 X103.1780 Y132.5302 E0.0172
G1 X103.8924 Y132.1197 E0.0172
G1 X104.6888 Y131.9070 E0.0172
G1 X105.5114 E0.0172
G1 X106.3068 Y132.1198 E0.0172
G1 X107.0204 Y132.5299 E0.0172
G1 X107.6084 Y133.1077 E0.0172
G1 X108.0315 Y133.8152 E0.0172
G1 X108.2669 Y134.6047 E0.0172
G1 X108.3014 Y135.4300 E0.0173
G1 X108.1304 Y136.2377 E0.0173
G1 X108.0666 Y136.3660 E0.0030
G1 X111.9324 E0.0808
G1 X111.8684 Y136.2377 E0.0030
G1 X111.6988 Y135.4300 E0.0172
G1 X111.7318 Y134.6056 E0.0172
G1 X111.9677 Y133.8145 E0.0173
G1 X112.3918 Y133.1077 E0.0172
G1 X112.9780 Y132.5302 E0.0172
G1 X113.6922 Y132.1198 E0.0172
G1 X114.4875 Y131.9070 E0.0172
G1 X115.3114 E0.0172
G1 X116.1068 Y132.1198 E0.0172
G1 X116.8204 Y132.5299 E0.0172
G1 X117.4084 Y133.1077 E0.0172
G1 X117.8200 Y133.7960 E0.0168
G1 Y129.1220 E0.0977
G1 X118.8000 E0.0205
G1 Y90.8790 E0.7992
G1 X117.8200 E0.0205
G1 Y86.2040 E0.0977
G1 X117.4084 Y86.8923 E0.0168
G1 X116.8204 Y87.4702 E0.0172
G1 X116.1068 Y87.8802 E0.0172
G1 X115.3114 Y88.0930 E0.0172
G1 X114.4875 E0.0172
G1 X113.6922 Y87.8802 E0.0172
G1 X112.9780 Y87.4698 E0.0172
G1 X112.3918 Y86.8923 E0.0172
G1 X111.9677 Y86.1855 E0.0172
G1 X111.7318 Y85.3944 E0.0173
G1 X111.6988 Y84.5700 E0.0172
G1 X111.8684 Y83.7624 E0.0172
G1 X111.9323 Y83.6340 E0.0030
G1 X108.0667 E0.0808
G1 X108.1304 Y83.7623 E0.0030
G1 X108.3014 Y84.5700 E0.0173
G1 X108.2669 Y85.3953 E0.0173
G1 X108.0315 Y86.1848 E0.0172
G1 X107.6084 Y86.8923 E0.0172
G1 X107.0204 Y87.4702 E0.0172
G1 X106.3068 Y87.8802 E0.0172
G1 X105.5114 Y88.0930 E0.0172
G1 X104.6888 E0.0172
G1 X103.8924 Y87.8803 E0.0172
G1 X103.1780 Y87.4698 E0.0172
G1 X102.5918 Y86.8923 E0.0172
G1 X102.1800 Y86.2060 E0.0167
G1 Y90.8790 E0.0977
G1 X101.7800 Y90.4790 F5100
G1 X100.8000 E0.0205 F2100
G1 Y129.5220 E0.8159
G1 X101.7800 E0.0205
G1 Y136.7660 E0.1514
G1 X102.7786 E0.0209
G1 X102.7691 Y136.7549 E0.0003
G1 X102.4493 Y136.1052 E0.0151
G1 X102.3005 Y135.3964 E0.0151
G1 X102.3295 Y134.6717 E0.0152
G1 X102.5366 Y133.9771 E0.0151
G1 X102.9087 Y133.3570 E0.0151
G1 X103.4220 Y132.8513 E0.0151
G1 X104.0462 Y132.4926 E0.0150
G1 X104.7413 Y132.3070 E0.0150
G1 X105.4589 E0.0150
G1 X106.1529 Y132.4927 E0.0150
G1 X106.7767 Y132.8511 E0.0150
G1 X107.2914 Y133.3570 E0.0151
G1 X107.6625 Y133.9776 E0.0151
G1 X107.8694 Y134.6712 E0.0151
G1 X107.8996 Y135.3964 E0.0152
G1 X107.7495 Y136.1052 E0.0151
G1 X107.4310 Y136.7549 E0.0151
G1 X107.4215 Y136.7660 E0.0003
G1 X112.5786 E0.1078
G1 X112.5691 Y136.7549 E0.0003
G1 X112.2493 Y136.1052 E0.0151
G1 X112.1005 Y135.3964 E0.0151
G1 X112.1295 Y134.6717 E0.0152
G1 X112.3366 Y133.9771 E0.0151
G1 X112.7087 Y133.3570 E0.0151
G1 X113.2220 Y132.8513 E0.0151
G1 X113.8461 Y132.4927 E0.0150
G1 X114.5401 Y132.3070 E0.0150
G1 X115.2589 E0.0150
G1 X115.9529 Y132.4927 E0.0150
G1 X116.5767 Y132.8511 E0.0150
G1 X117.0914 Y133.3570 E0.0151
G1 X117.4625 Y133.9776 E0.0151
G1 X117.6694 Y134.6712 E0.0151
G1 X117.6996 Y135.3964 E0.0152
G1 X117.5494 Y136.1057 E0.0152
G1 X117.2299 Y136.7549 E0.0151
G1 X117.2204 Y136.7660 E0.0003
G1 X118.2200 E0.0209
G1 Y129.5220 E0.1514
G1 X119.2000 E0.0205
G1 Y90.4790 E0.8159
G1 X118.2200 E0.0205
G1 Y83.2340 E0.1514
G1 X117.2204 E0.0209
G1 X117.2298 Y83.2448 E0.0003
G1 X117.5494 Y83.8943 E0.0151
G1 X117.6996 Y84.6036 E0.0152
G1 X117.6694 Y85.3288 E0.0152
G1 X117.4625 Y86.0224 E0.0151
G1 X117.0914 Y86.6430 E0.0151
G1 X116.5767 Y87.1489 E0.0151
G1 X115.9529 Y87.5073 E0.0150
G1 X115.2589 Y87.6930 E0.0150
G1 X114.5401 E0.0150
G1 X113.8461 Y87.5073 E0.0150
G1 X113.2220 Y87.1487 E0.0150
G1 X112.7087 Y86.6430 E0.0151
G1 X112.3366 Y86.0229 E0.0151
G1 X112.1295 Y85.3283 E0.0151
G1 X112.1005 Y84.6036 E0.0152
G1 X112.2493 Y83.8948 E0.0151
G1 X112.5692 Y83.2448 E0.0151
G1 X112.5786 Y83.2340 E0.0003
G1 X107.4216 E0.1078
G1 X107.4309 Y83.2448 E0.0003
G1 X107.7495 Y83.8948 E0.0151
G1 X107.8996 Y84.6036 E0.0151
G1 X107.8694 Y85.3288 E0.0152
G1 X107.6625 Y86.0224 E0.0151
G1 X107.2914 Y86.6430 E0.0151
G1 X106.7767 Y87.1489 E0.0151
G1 X106.1529 Y87.5073 E0.0150
G1 X105.4589 Y87.6930 E0.0150
G1 X104.7413 E0.0150
G1 X104.0462 Y87.5074 E0.0150
G1 X103.4220 Y87.1487 E0.0150
G1 X102.9087 Y86.6430 E0.0151
G1 X102.5366 Y86.0229 E0.0151
G1 X102.3295 Y85.3283 E0.0151
G1 X102.3005 Y84.6036 E0.0152
G1 X102.4493 Y83.8948 E0.0151
G1 X102.7692 Y83.2448 E0.0151
G1 X102.7785 Y83.2340 E0.0003
G1 X101.7800 E0.0209
G1 Y90.4790 E0.1514
G1 X101.3800 Y90.0790 F5100
G1 X100.4000 E0.0205 F2100
G1 Y129.9220 E0.8326
G1 X101.3800 E0.0205
G1 Y137.1660 E0.1514
G1 X103.7439 E0.0494
G1 X103.5090 Y137.0038 E0.0060
G1 X103.1057 Y136.5329 E0.0130
G1 X102.8304 Y135.9737 E0.0130
G1 X102.7022 Y135.3628 E0.0130
G1 X102.7272 Y134.7379 E0.0131
G1 X102.9055 Y134.1397 E0.0130
G1 X103.2256 Y133.6063 E0.0130
G1 X103.6660 Y133.1724 E0.0129
G1 X104.2001 Y132.8655 E0.0129
G1 X104.7938 Y132.7070 E0.0128
G1 X105.4063 E0.0128
G1 X105.9990 Y132.8656 E0.0128
G1 X106.5329 Y133.1724 E0.0129
G1 X106.9745 Y133.6063 E0.0129
G1 X107.2935 Y134.1398 E0.0130
G1 X107.4718 Y134.7378 E0.0130
G1 X107.4979 Y135.3628 E0.0131
G1 X107.3685 Y135.9737 E0.0131
G1 X107.0944 Y136.5329 E0.0130
G1 X106.6900 Y137.0038 E0.0130
G1 X106.4556 Y137.1660 E0.0060
G1 X113.5439 E0.1481
G1 X113.3090 Y137.0038 E0.0060
G1 X112.9057 Y136.5329 E0.0130
G1 X112.6304 Y135.9737 E0.0130
G1 X112.5022 Y135.3628 E0.0130
G1 X112.5272 Y134.7379 E0.0131
G1 X112.7055 Y134.1397 E0.0130
G1 X113.0256 Y133.6063 E0.0130
G1 X113.4660 Y133.1724 E0.0129
G1 X114.0000 Y132.8656 E0.0129
G1 X114.5927 Y132.7070 E0.0128
G1 X115.2063 E0.0128
G1 X115.7990 Y132.8656 E0.0128
G1 X116.3329 Y133.1724 E0.0129
G1 X116.7745 Y133.6063 E0.0129
G1 X117.0935 Y134.1398 E0.0130
G1 X117.2718 Y134.7378 E0.0130
G1 X117.2979 Y135.3628 E0.0131
G1 X117.1685 Y135.9739 E0.0131
G1 X116.8933 Y136.5329 E0.0130
G1 X116.4900 Y137.0038 E0.0130
G1 X116.2551 Y137.1660 E0.0060
G1 X118.6200 E0.0494
G1 Y129.9220 E0.1514
G1 X119.6000 E0.0205
G1 Y90.0790 E0.8326
G1 X118.6200 E0.0205
G1 Y82.8340 E0.1514
G1 X116.2543 E0.0494
G1 X116.4900 Y82.9972 E0.0060
G1 X116.8932 Y83.4669 E0.0129
G1 X117.1685 Y84.0261 E0.0130
G1 X117.2979 Y84.6372 E0.0131
G1 X117.2718 Y85.2622 E0.0131
G1 X117.0935 Y85.8602 E0.0130
G1 X116.7745 Y86.3937 E0.0130
G1 X116.3329 Y86.8276 E0.0129
G1 X115.7990 Y87.1344 E0.0129
G1 X115.2063 Y87.2930 E0.0128
G1 X114.5927 E0.0128
G1 X114.0000 Y87.1344 E0.0128
G1 X113.4660 Y86.8276 E0.0129
G1 X113.0256 Y86.3937 E0.0129
G1 X112.7055 Y85.8603 E0.0130
G1 X112.5272 Y85.2621 E0.0130
G1 X112.5022 Y84.6372 E0.0131
G1 X112.6304 Y84.0263 E0.0130
G1 X112.9057 Y83.4669 E0.0130
G1 X113.3090 Y82.9972 E0.0129
G1 X113.5447 Y82.8340 E0.0060
G1 X106.4548 E0.1482
G1 X106.6900 Y82.9972 E0.0060
G1 X107.0943 Y83.4669 E0.0130
G1 X107.3685 Y84.0263 E0.0130
G1 X107.4979 Y84.6372 E0.0131
G1 X107.4718 Y85.2622 E0.0131
G1 X107.2935 Y85.8602 E0.0130
G1 X106.9745 Y86.3937 E0.0130
G1 X106.5329 Y86.8276 E0.0129
G1 X105.9990 Y87.1344 E0.0129
G1 X105.4063 Y87.2930 E0.0128
G1 X104.7938 E0.0128
G1 X104.2001 Y87.1345 E0.0128
G1 X103.6660 Y86.8276 E0.0129
G1 X103.2256 Y86.3937 E0.0129
G1 X102.9055 Y85.8603 E0.0130
G1 X102.7272 Y85.2621 E0.0130
G1 X102.7022 Y84.6372 E0.0131
G1 X102.8304 Y84.0263 E0.0130
G1 X103.1058 Y83.4669 E0.0130
G1 X103.5090 Y82.9972 E0.0129
G1 X103.7447 Y82.8340 E0.0060
G1 X101.3800 E0.0494
G1 Y90.0790 E0.1514
G1 E-4.0000 F4800 ; e-retract 4
G1 Z0.3000 F5100 ; z-hop start
; feature thin fill
G1 X102.1743 Y91.9145
G1 X117.8774 Y83.8142
G1 Z0.2000 ; z-hop end
G1 E4.0000 F4800 ; e-engage 4
G1 E0.0000 F1800
G1 X117.8887 Y83.8873 E0.0019
G1 X117.8522 Y83.6409 E0.0065
G1 E-4.0000 F4800 ; e-retract 4
G1 Z0.3000 F5100 ; z-hop start
G1 X117.2813 Y85.5577
G1 X102.1474 Y83.6406
G1 Z0.2000 ; z-hop end
G1 E4.0000 F4800 ; e-engage 4
G1 E0.0000 F1800
G1 X102.1218 Y83.8150 E0.0046
G1 X102.1109 Y83.8869 E0.0019
G1 E-4.0000 F4800 ; e-retract 4
G1 Z0.3000 F5100 ; z-hop start
G1 X102.6893 Y85.8014
G1 X102.1142 Y136.1485
G1 Z0.2000 ; z-hop end
G1 E4.0000 F4800 ; e-engage 4
G1 E0.0000 F1800
G1 X102.1399 Y136.2418 E0.0025
G1 X102.1539 Y136.3917 E0.0039
G1 E-4.0000 F4800 ; e-retract 4
G1 Z0.3000 F5100 ; z-hop start
G1 X102.7238 Y134.4747
G1 X117.8458 Y136.3914
G1 Z0.2000 ; z-hop end
G1 E4.0000 F4800 ; e-engage 4
G1 E0.0000 F1800
G1 X117.8591 Y136.2428 E0.0039
G1 X117.8853 Y136.1481 E0.0026
G1 E-4.0000 F4800 ; e-retract 4
G1 Z0.3000 F5100 ; z-hop start
; feature solid fill
G1 X117.3079 Y134.2332
G1 X117.4800 Y132.5892
G1 Z0.2000 ; z-hop end
G1 E4.0000 F4800 ; e-engage 4
G1 X101.5400 Y113.5927 E0.4146 F1800
G1 Y114.2150 E0.0104
G1 X116.3541 Y131.8698 E0.3853
G1 X115.6421 Y131.6435 E0.0125
G1 X101.5400 Y114.8373 E0.3668
G1 Y115.4596 E0.0104
G1 X115.0557 Y131.5670 E0.3515
G1 X114.5336 E0.0087
G1 X101.5400 Y116.0819 E0.3380
G1 Y116.7041 E0.0104
G1 X114.0905 Y131.6613 E0.3264
G1 X113.6641 Y131.7754 E0.0074
G1 X101.5400 Y117.3264 E0.3153
G1 Y117.9487 E0.0104
G1 X113.2939 Y131.9565 E0.3057
G1 X112.9416 Y132.1589 E0.0068
G1 X101.5400 Y118.5710 E0.2965
G1 Y119.1933 E0.0104
G1 X112.6235 Y132.4021 E0.2883
G1 X112.3377 Y132.6837 E0.0067
G1 X101.5400 Y119.8156 E0.2808
G1 Y120.4379 E0.0104
G1 X112.0687 Y132.9854 E0.2738
G1 X111.8509 Y133.3483 E0.0071
G1 X101.5400 Y121.0602 E0.2682
G1 Y121.6825 E0.0104
G1 X111.6410 Y133.7203 E0.2627
G1 X111.5041 Y134.1795 E0.0080
G1 X101.5400 Y122.3047 E0.2592
G1 Y122.9270 E0.0104
G1 X111.3892 Y134.6648 E0.2562
G1 X111.3654 Y135.2588 E0.0099
G1 X101.5400 Y123.5493 E0.2556
G1 Y124.1716 E0.0104
G1 X111.4731 Y136.0094 E0.2584
G1 X110.9649 Y136.0260 E0.0085
G1 X101.5400 Y124.7939 E0.2451
G1 Y125.4162 E0.0104
G1 X107.5257 Y132.5497 E0.1557
G1 X106.3593 Y131.7818 F5100
G1 X101.5400 Y126.0385 E0.1253 F1800
G1 Y126.6608 E0.0104
G1 X105.6860 Y131.6017 E0.1078
G1 X105.1347 Y131.5670 E0.0092
G1 X101.5400 Y127.2831 E0.0935
G1 Y127.9053 E0.0104
G1 X102.2756 Y128.7820 E0.0191
G1 X101.6467 Y128.6548 E0.0107
G1 X102.5200 Y129.0733 F5100
G1 X104.6183 Y131.5739 E0.0546 F1800
G1 X104.1917 Y131.6878 E0.0074
G1 X102.5200 Y129.6956 E0.0435
G1 Y130.3178 E0.0104
G1 X103.7651 Y131.8017 E0.0324
G1 X103.4122 Y132.0034 E0.0068
G1 X102.5200 Y130.9401 E0.0232
G1 Y131.5624 E0.0104
G1 X103.0599 Y132.2059 E0.0140
G1 X102.6386 Y132.3261 E0.0073
G1 E-4.0000 F4800 ; e-retract 4
G1 Z0.3000 F5100 ; z-hop start
G1 X103.2649 Y130.4267
G1 X108.0310 Y133.1518
G1 Z0.2000 ; z-hop end
G1 E4.0000 F4800 ; e-engage 4
G1 X110.4427 Y136.0260 E0.0627 F1800
G1 X109.9205 E0.0087
G1 X108.5632 Y134.4084 E0.0353
G1 X108.6282 Y135.1082 E0.0118
G1 X109.3984 Y136.0260 E0.0200
G1 X108.7351 Y135.8578 E0.0114
G1 E-4.0000 F4800 ; e-retract 4
G1 Z0.3000 F5100 ; z-hop start
G1 X108.8328 Y133.8602
G1 X117.4800 Y131.9669
G1 Z0.2000 ; z-hop end
G1 E4.0000 F4800 ; e-engage 4
G1 X101.5400 Y112.9704 E0.4146 F1800
G1 Y112.3481 E0.0104
G1 X117.4800 Y131.3447 E0.4146
G1 Y130.7224 E0.0104
G1 X101.5400 Y111.7258 E0.4146
G1 Y111.1035 E0.0104
G1 X117.4800 Y130.1001 E0.4146
G1 Y129.4778 E0.0104
G1 X101.5400 Y110.4812 E0.4146
G1 Y109.8589 E0.0104
G1 X117.4800 Y128.8555 E0.4146
G1 X117.9405 Y128.7820 E0.0078
G1 X101.5400 Y109.2367 E0.4266
G1 Y108.6144 E0.0104
G1 X118.4600 Y128.7789 E0.4401
G1 Y128.1566 E0.0104
G1 X101.5400 Y107.9921 E0.4401
G1 Y107.3698 E0.0104
G1 X118.4600 Y127.5343 E0.4401
G1 Y126.9120 E0.0104
G1 X101.5400 Y106.7475 E0.4401
G1 Y106.1252 E0.0104
G1 X118.4600 Y126.2897 E0.4401
G1 Y125.6674 E0.0104
G1 X101.5400 Y105.5029 E0.4401
G1 Y104.8806 E0.0104
G1 X118.4600 Y125.0451 E0.4401
G1 Y124.4228 E0.0104
G1 X101.5400 Y104.2584 E0.4401
G1 Y103.6361 E0.0104
G1 X118.4600 Y123.8005 E0.4401
G1 Y123.1782 E0.0104
G1 X101.5400 Y103.0138 E0.4401
G1 Y102.3915 E0.0104
G1 X118.4600 Y122.5559 E0.4401
G1 Y121.9337 E0.0104
G1 X101.5400 Y101.7692 E0.4401
G1 Y101.1469 E0.0104
G1 X118.4600 Y121.3114 E0.4401
G1 Y120.6891 E0.0104
G1 X101.5400 Y100.5246 E0.4401
