;FLAVOR:Marlin
;TIME:5261
;Filament used: 3.39581m
;Layer height: 0.24
;MINX:73.494
;MINY:77.501
;MINZ:0.2
;MAXX:145.005
;MAXY:142.498
;MAXZ:15.08
;TARGET_MACHINE.NAME:Creality Ender-3 Pro
;Generated with Cura_SteamEngine 5.8.1
M82 ;absolute extrusion mode
; Ender 3 Custom Start G-code
G92 E0 ; Reset Extruder
G28 ; Home all axes
G1 Z5.0 F3000 ; Move Z Axis up a bit during heating to not damage bed
M104 S175 ; Start heating up the nozzle most of the way
M190 S60 ; Start heating the bed, wait until target temperature reached
M109 S215.0 ; Finish heating the nozzle
G1 Z2.0 F3000 ; Move Z Axis up little to prevent scratching of Heat Bed
G1 X0.1 Y20 Z0.3 F5000.0 ; Move to start position
G1 X0.1 Y200.0 Z0.3 F1500.0 E15 ; Draw the first line
G1 X0.4 Y200.0 Z0.3 F5000.0 ; Move to side a little
G1 X0.4 Y20 Z0.3 F1500.0 E30 ; Draw the second line
G92 E0 ; Reset Extruder
G1 Z2.0 F3000 ; Move Z Axis up little to prevent scratching of Heat Bed
G1 X5 Y20 Z0.3 F5000.0 ; Move over to prevent blob squish
G92 E0
G92 E0
G1 F1500 E-6.5
;LAYER_COUNT:63
;LAYER:0
M107
G0 F6000 X76.961 Y82.122 Z0.2
;TYPE:SKIRT
G1 F1500 E0
G1 F1200 X77.671 Y81.508 E0.03122
G1 X78.49 Y80.918 E0.06479
G1 X79.33 Y80.422 E0.09724
G1 X80.241 Y79.987 E0.13082
G1 X81.917 Y79.294 E0.19114
G1 X82.859 Y78.968 E0.22429
G1 X83.803 Y78.732 E0.25665
G1 X84.742 Y78.582 E0.28828
G1 X88.391 Y78.148 E0.4105
G1 X91.311 Y77.899 E0.50798
G1 X94.1 Y77.578 E0.60135
G1 X95.251 Y77.509 E0.6397
G1 X96.617 Y77.501 E0.68514
G1 X97.538 Y77.514 E0.71577
G1 X98.715 Y77.599 E0.75502
G1 X99.903 Y77.75 E0.79485
G1 X102.448 Y78.043 E0.88006
G1 X105.017 Y78.265 E0.96582
G1 X107.479 Y78.406 E1.04784
G1 X110.068 Y78.482 E1.13399
G1 X111.464 Y78.492 E1.18042
G1 X120.944 Y78.49 E1.49573
G1 X123.534 Y78.452 E1.58188
G1 X126.083 Y78.344 E1.66674
G1 X129.015 Y78.138 E1.7645
G1 X129.626 Y78.112 E1.78484
G1 X130.126 Y78.105 E1.80147
G1 X130.956 Y78.116 E1.82908
G1 X132.109 Y78.2 E1.86753
G1 X133.207 Y78.34 E1.90434
G1 X135.307 Y78.587 E1.97467
G1 X136.267 Y78.746 E2.00703
G1 X137.142 Y78.969 E2.03707
G1 X138.127 Y79.317 E2.07181
G1 X139.013 Y79.722 E2.10421
G1 X139.859 Y80.205 E2.13662
G1 X140.658 Y80.76 E2.16897
G1 X141.407 Y81.385 E2.20142
G1 X142.048 Y82.021 E2.23145
G1 X142.722 Y82.819 E2.26619
G1 X143.278 Y83.617 E2.29854
G1 X143.764 Y84.461 E2.33093
G1 X144.145 Y85.28 E2.36098
G1 X144.5 Y86.263 E2.39574
G1 X144.738 Y87.17 E2.42693
G1 X144.908 Y88.173 E2.46076
G1 X144.988 Y89.307 E2.49857
G1 X145.005 Y90.307 E2.53184
G1 X145.005 Y93.252 E2.62979
G1 X144.995 Y93.945 E2.65284
G1 X144.959 Y94.661 E2.67669
G1 X144.768 Y96.943 E2.75285
G1 X144.63 Y99.406 E2.8349
G1 X144.528 Y104.47 E3.00336
G1 X144.442 Y106.268 E3.06323
G1 X144.369 Y108.786 E3.14702
G1 X144.369 Y111.297 E3.23053
G1 X144.44 Y113.818 E3.31442
G1 X144.535 Y115.834 E3.38154
G1 X144.583 Y119.242 E3.4949
G1 X144.69 Y121.775 E3.57923
G1 X144.88 Y124.428 E3.66769
G1 X144.956 Y125.308 E3.69707
G1 X144.99 Y125.926 E3.71766
G1 X145.005 Y126.562 E3.73882
G1 X145.005 Y129.977 E3.8524
G1 X144.994 Y130.672 E3.87552
G1 X144.934 Y131.662 E3.90851
G1 X144.787 Y132.625 E3.94091
G1 X144.555 Y133.57 E3.97327
G1 X144.255 Y134.458 E4.00445
G1 X143.849 Y135.383 E4.03804
G1 X143.414 Y136.175 E4.0681
G1 X142.831 Y137.041 E4.10282
G1 X142.217 Y137.798 E4.13524
G1 X141.539 Y138.497 E4.16763
G1 X140.829 Y139.111 E4.19885
G1 X140.011 Y139.701 E4.23239
G1 X139.235 Y140.163 E4.26243
G1 X138.293 Y140.616 E4.2972
G1 X137.379 Y140.957 E4.32964
G1 X136.47 Y141.208 E4.36101
G1 X135.255 Y141.418 E4.40202
G1 X134.068 Y141.556 E4.44176
G1 X132.126 Y141.798 E4.50685
G1 X131.017 Y141.877 E4.54383
G1 X130.243 Y141.892 E4.56958
G1 X129.597 Y141.889 E4.59107
G1 X128.966 Y141.858 E4.61208
G1 X127.32 Y141.732 E4.66699
G1 X124.741 Y141.586 E4.7529
G1 X122.176 Y141.512 E4.83825
G1 X120.829 Y141.503 E4.88305
G1 X111.28 Y141.508 E5.20065
G1 X108.7 Y141.546 E5.28647
G1 X106.124 Y141.657 E5.37223
G1 X103.676 Y141.832 E5.45386
G1 X101.156 Y142.082 E5.53809
G1 X100.01 Y142.234 E5.57654
G1 X99.742 Y142.258 E5.58549
G1 X98.514 Y142.41 E5.62664
G1 X97.258 Y142.491 E5.6685
G1 X95.653 Y142.498 E5.72189
G1 X94.937 Y142.485 E5.7457
G1 X93.892 Y142.414 E5.78054
G1 X91.055 Y142.087 E5.87552
G1 X88.3 Y141.851 E5.96749
G1 X87.858 Y141.804 E5.98228
G1 X86.948 Y141.688 E6.01279
G1 X86.443 Y141.638 E6.02967
G1 X84.564 Y141.396 E6.09268
G1 X83.604 Y141.227 E6.1251
G1 X82.664 Y140.974 E6.15748
G1 X81.774 Y140.648 E6.189
G1 X80.234 Y140.004 E6.24452
G1 X79.353 Y139.588 E6.27692
G1 X78.573 Y139.133 E6.30696
G1 X77.72 Y138.526 E6.34178
G1 X77.033 Y137.94 E6.37181
G1 X76.302 Y137.196 E6.4065
G1 X75.685 Y136.442 E6.43891
G1 X75.138 Y135.635 E6.47133
G1 X74.665 Y134.784 E6.50372
G1 X74.269 Y133.895 E6.53609
G1 X73.953 Y132.974 E6.56847
G1 X73.719 Y132.028 E6.60088
G1 X73.57 Y131.068 E6.6332
G1 X73.508 Y130.187 E6.66257
G1 X73.494 Y129.529 E6.68446
G1 X73.495 Y127.426 E6.75441
G1 X73.507 Y126.697 E6.77866
G1 X73.556 Y125.826 E6.80767
G1 X73.652 Y124.856 E6.84009
G1 X73.779 Y123.724 E6.87798
G1 X73.996 Y121.17 E6.96323
G1 X74.135 Y118.676 E7.04631
G1 X74.17 Y117.463 E7.08667
G1 X74.211 Y116.56 E7.11674
G1 X74.364 Y113.834 E7.20755
G1 X74.436 Y111.3 E7.29186
G1 X74.436 Y108.788 E7.37541
G1 X74.365 Y106.293 E7.45843
G1 X74.277 Y104.881 E7.50548
G1 X74.269 Y104.442 E7.52009
G1 X74.21 Y103.434 E7.55367
G1 X74.179 Y102.503 E7.58465
G1 X74.064 Y99.901 E7.67128
G1 X73.882 Y97.36 E7.75601
G1 X73.571 Y94.326 E7.85745
G1 X73.507 Y93.419 E7.88769
G1 X73.494 Y92.795 E7.90845
G1 X73.495 Y90.644 E7.97999
G1 X73.507 Y89.931 E8.00371
G1 X73.566 Y88.957 E8.03617
G1 X73.713 Y87.994 E8.06857
G1 X73.945 Y87.049 E8.10093
G1 X74.245 Y86.161 E8.13211
G1 X74.651 Y85.236 E8.1657
G1 X75.086 Y84.444 E8.19576
G1 X75.669 Y83.578 E8.23048
G1 X76.283 Y82.821 E8.2629
G1 X76.961 Y82.122 E8.29529
G0 F6000 X77.223 Y82.425
G1 F1200 X77.933 Y81.811 E8.32651
G1 X78.694 Y81.262 E8.35772
G1 X79.502 Y80.783 E8.38896
G1 X80.394 Y80.357 E8.42184
G1 X82.07 Y79.664 E8.48216
G1 X82.957 Y79.356 E8.51339
G1 X83.866 Y79.127 E8.54457
G1 X84.789 Y78.979 E8.57566
G1 X88.425 Y78.547 E8.69744
G1 X91.345 Y78.297 E8.79492
G1 X94.124 Y77.977 E8.88796
G1 X95.253 Y77.909 E8.92558
G1 X96.612 Y77.901 E8.97078
G1 X97.509 Y77.913 E9.00061
G1 X98.665 Y77.996 E9.03916
G1 X99.853 Y78.147 E9.07899
G1 X102.414 Y78.442 E9.16474
G1 X104.983 Y78.663 E9.2505
G1 X107.467 Y78.806 E9.33325
G1 X110.056 Y78.882 E9.4194
G1 X111.461 Y78.892 E9.46613
G1 X120.95 Y78.89 E9.78174
G1 X123.551 Y78.852 E9.86826
G1 X126.1 Y78.744 E9.95311
G1 X129.043 Y78.537 E10.05124
G1 X129.632 Y78.512 E10.07085
G1 X130.121 Y78.505 E10.08711
G1 X130.927 Y78.515 E10.11392
G1 X132.058 Y78.597 E10.15164
G1 X133.156 Y78.737 E10.18845
G1 X135.242 Y78.982 E10.25831
G1 X136.168 Y79.134 E10.28952
G1 X137.043 Y79.357 E10.31955
G1 X137.961 Y79.681 E10.35193
G1 X138.815 Y80.07 E10.38314
G1 X139.631 Y80.534 E10.41437
G1 X140.402 Y81.068 E10.44556
G1 X141.125 Y81.669 E10.47683
G1 X141.766 Y82.305 E10.50686
G1 X142.394 Y83.048 E10.53922
G1 X142.932 Y83.817 E10.57044
G1 X143.401 Y84.63 E10.60165
G1 X143.782 Y85.449 E10.6317
G1 X144.113 Y86.365 E10.66409
G1 X144.351 Y87.272 E10.69528
G1 X144.509 Y88.201 E10.72662
G1 X144.588 Y89.314 E10.76373
G1 X144.605 Y90.314 E10.797
G1 X144.605 Y93.246 E10.89452
G1 X144.595 Y93.925 E10.9171
G1 X144.56 Y94.628 E10.94051
G1 X144.37 Y96.91 E11.01668
G1 X144.23 Y99.398 E11.09956
G1 X144.128 Y104.451 E11.26765
G1 X144.042 Y106.249 E11.32753
G1 X143.969 Y108.774 E11.41154
G1 X143.969 Y111.297 E11.49546
G1 X144.04 Y113.837 E11.57997
G1 X144.135 Y115.84 E11.64667
G1 X144.183 Y119.259 E11.76039
G1 X144.291 Y121.804 E11.84512
G1 X144.481 Y124.462 E11.93375
G1 X144.557 Y125.342 E11.96313
G1 X144.59 Y125.935 E11.98288
G1 X144.605 Y126.571 E12.00404
G1 X144.605 Y129.971 E12.11712
G1 X144.595 Y130.648 E12.13964
G1 X144.538 Y131.602 E12.17143
G1 X144.398 Y132.53 E12.20264
G1 X144.176 Y133.442 E12.23386
G1 X143.888 Y134.298 E12.2639
G1 X143.498 Y135.19 E12.29628
G1 X143.063 Y135.982 E12.32634
G1 X142.52 Y136.79 E12.35871
G1 X141.93 Y137.52 E12.38993
G1 X141.277 Y138.194 E12.42115
G1 X140.567 Y138.808 E12.45237
G1 X139.806 Y139.357 E12.48358
G1 X139.03 Y139.819 E12.51361
G1 X138.153 Y140.241 E12.54598
G1 X137.273 Y140.571 E12.57724
G1 X136.364 Y140.822 E12.60861
G1 X135.209 Y141.021 E12.64759
G1 X134.018 Y141.159 E12.68747
G1 X132.097 Y141.399 E12.75186
G1 X131.009 Y141.477 E12.78814
G1 X130.245 Y141.492 E12.81355
G1 X129.616 Y141.489 E12.83447
G1 X128.997 Y141.459 E12.85509
G1 X127.351 Y141.333 E12.90999
G1 X124.753 Y141.186 E12.99654
G1 X122.188 Y141.112 E13.08189
G1 X120.832 Y141.103 E13.12699
G1 X111.274 Y141.108 E13.44489
G1 X108.683 Y141.146 E13.53108
G1 X106.107 Y141.257 E13.61683
G1 X103.641 Y141.433 E13.69906
G1 X101.116 Y141.684 E13.78346
G1 X99.975 Y141.836 E13.82174
G1 X99.693 Y141.861 E13.83116
G1 X98.488 Y142.011 E13.87155
G1 X97.256 Y142.091 E13.91261
G1 X95.66 Y142.098 E13.96569
G1 X94.964 Y142.086 E13.98885
G1 X93.938 Y142.017 E14.02305
G1 X91.089 Y141.688 E14.11844
G1 X88.342 Y141.453 E14.21014
G1 X87.909 Y141.407 E14.22462
G1 X86.999 Y141.291 E14.25513
G1 X86.494 Y141.241 E14.27201
G1 X84.633 Y141.002 E14.33441
G1 X83.708 Y140.841 E14.36564
G1 X82.802 Y140.598 E14.39684
G1 X81.912 Y140.272 E14.42837
G1 X80.404 Y139.642 E14.48272
G1 X79.555 Y139.242 E14.51394
G1 X78.775 Y138.787 E14.54397
G1 X77.98 Y138.222 E14.57641
G1 X77.293 Y137.636 E14.60644
G1 X76.611 Y136.942 E14.63881
G1 X76.016 Y136.217 E14.67
G1 X75.487 Y135.44 E14.70127
G1 X75.03 Y134.621 E14.73246
G1 X74.647 Y133.765 E14.76365
G1 X74.341 Y132.877 E14.79489
G1 X74.114 Y131.966 E14.82612
G1 X73.969 Y131.04 E14.85729
G1 X73.908 Y130.178 E14.88603
G1 X73.894 Y129.529 E14.90762
G1 X73.895 Y127.432 E14.97737
G1 X73.906 Y126.719 E15.00109
G1 X73.954 Y125.865 E15.02954
G1 X74.049 Y124.901 E15.06175
G1 X74.178 Y123.758 E15.10001
G1 X74.394 Y121.204 E15.18526
G1 X74.535 Y118.688 E15.26907
G1 X74.57 Y117.481 E15.30924
G1 X74.61 Y116.582 E15.33917
G1 X74.764 Y113.845 E15.43034
G1 X74.836 Y111.311 E15.51466
G1 X74.836 Y108.788 E15.59857
G1 X74.765 Y106.282 E15.68196
G1 X74.677 Y104.874 E15.72888
G1 X74.669 Y104.435 E15.74348
G1 X74.61 Y103.421 E15.77727
G1 X74.579 Y102.49 E15.80825
G1 X74.464 Y99.883 E15.89504
G1 X74.281 Y97.331 E15.98014
G1 X73.97 Y94.298 E16.08155
G1 X73.907 Y93.411 E16.11112
G1 X73.894 Y92.795 E16.13162
G1 X73.895 Y90.65 E16.20296
G1 X73.906 Y89.955 E16.22608
G1 X73.962 Y89.017 E16.25733
G1 X74.102 Y88.089 E16.28855
G1 X74.324 Y87.177 E16.31976
G1 X74.612 Y86.321 E16.3498
G1 X75.002 Y85.429 E16.38218
G1 X75.437 Y84.637 E16.41224
G1 X75.98 Y83.829 E16.44462
G1 X76.57 Y83.099 E16.47583
G1 X77.223 Y82.425 E16.50705
G0 F6000 X77.485 Y82.727
G1 F1200 X78.167 Y82.135 E16.53708
G1 X78.899 Y81.606 E16.56712
G1 X79.675 Y81.144 E16.59716
G1 X80.549 Y80.726 E16.62938
G1 X81.698 Y80.244 E16.67083
G1 X82.202 Y80.042 E16.68888
G1 X83.055 Y79.744 E16.71894
G1 X83.93 Y79.522 E16.74896
G1 X84.836 Y79.376 E16.77948
G1 X88.459 Y78.946 E16.90083
G1 X91.379 Y78.695 E16.99831
G1 X94.148 Y78.376 E17.09102
G1 X95.255 Y78.309 E17.1279
G1 X96.607 Y78.301 E17.17287
G1 X97.481 Y78.312 E17.20194
G1 X98.615 Y78.393 E17.23976
G1 X99.803 Y78.544 E17.27959
G1 X102.38 Y78.841 E17.36587
G1 X104.949 Y79.061 E17.45162
G1 X107.455 Y79.206 E17.53511
G1 X110.044 Y79.282 E17.62126
G1 X111.458 Y79.292 E17.66829
G1 X120.956 Y79.29 E17.9842
G1 X123.568 Y79.252 E18.07108
G1 X126.117 Y79.144 E18.15594
G1 X129.071 Y78.936 E18.25443
G1 X129.638 Y78.912 E18.27331
G1 X130.116 Y78.905 E18.28921
G1 X130.898 Y78.914 E18.31522
G1 X132.007 Y78.994 E18.3522
G1 X133.105 Y79.134 E18.38901
G1 X135.178 Y79.377 E18.45843
G1 X136.069 Y79.522 E18.48846
G1 X136.944 Y79.745 E18.51849
G1 X137.796 Y80.045 E18.54853
G1 X138.618 Y80.418 E18.57856
G1 X139.404 Y80.863 E18.6086
G1 X140.147 Y81.376 E18.63863
G1 X140.843 Y81.953 E18.6687
G1 X141.484 Y82.589 E18.69873
G1 X142.067 Y83.278 E18.72875
G1 X142.586 Y84.017 E18.75879
G1 X143.038 Y84.799 E18.78883
G1 X143.419 Y85.618 E18.81887
G1 X143.726 Y86.467 E18.8489
G1 X143.957 Y87.34 E18.87893
G1 X144.11 Y88.23 E18.90897
G1 X144.188 Y89.321 E18.94535
G1 X144.205 Y90.321 E18.97861
G1 X144.205 Y93.24 E19.0757
G1 X144.195 Y93.905 E19.09782
G1 X144.161 Y94.595 E19.1208
G1 X143.972 Y96.877 E19.19696
G1 X143.83 Y99.39 E19.28067
G1 X143.728 Y104.432 E19.44841
G1 X143.642 Y106.23 E19.50828
G1 X143.569 Y108.762 E19.59253
G1 X143.569 Y111.297 E19.67684
G1 X143.64 Y113.856 E19.76199
G1 X143.735 Y115.846 E19.82825
G1 X143.783 Y119.276 E19.94234
G1 X143.891 Y121.821 E20.02707
G1 X144.082 Y124.496 E20.11626
G1 X144.158 Y125.376 E20.14564
G1 X144.19 Y125.944 E20.16456
G1 X144.205 Y126.58 E20.18572
G1 X144.205 Y129.965 E20.29831
G1 X144.195 Y130.642 E20.32083
G1 X144.142 Y131.543 E20.35085
G1 X144.009 Y132.436 E20.38087
G1 X143.797 Y133.314 E20.41092
G1 X143.509 Y134.17 E20.44096
G1 X143.147 Y134.997 E20.47098
G1 X142.712 Y135.789 E20.50103
G1 X142.209 Y136.539 E20.53107
G1 X141.642 Y137.242 E20.56111
G1 X141.015 Y137.892 E20.59115
G1 X140.333 Y138.484 E20.62119
G1 X139.601 Y139.013 E20.65122
G1 X138.825 Y139.475 E20.68126
G1 X138.012 Y139.867 E20.71128
G1 X137.166 Y140.186 E20.74135
G1 X136.296 Y140.428 E20.77139
G1 X135.163 Y140.624 E20.80963
G1 X133.968 Y140.762 E20.84964
G1 X132.068 Y141 E20.91333
G1 X131.001 Y141.077 E20.94891
G1 X130.247 Y141.092 E20.97399
G1 X129.635 Y141.089 E20.99435
G1 X129.028 Y141.06 E21.01456
G1 X127.382 Y140.934 E21.06947
G1 X124.765 Y140.786 E21.15665
G1 X122.2 Y140.712 E21.242
G1 X120.835 Y140.703 E21.2874
G1 X111.268 Y140.708 E21.6056
G1 X108.666 Y140.746 E21.69215
G1 X106.09 Y140.857 E21.77791
G1 X103.606 Y141.034 E21.86073
G1 X101.076 Y141.286 E21.9453
G1 X99.94 Y141.438 E21.98342
G1 X99.643 Y141.464 E21.99333
G1 X98.462 Y141.612 E22.03292
G1 X97.254 Y141.691 E22.07319
G1 X95.667 Y141.698 E22.12597
G1 X94.991 Y141.687 E22.14846
G1 X93.984 Y141.62 E22.18202
G1 X91.123 Y141.289 E22.27782
G1 X88.384 Y141.055 E22.36925
G1 X87.96 Y141.01 E22.38343
G1 X87.05 Y140.894 E22.41394
G1 X86.545 Y140.844 E22.43082
G1 X84.701 Y140.608 E22.49265
G1 X83.811 Y140.454 E22.52269
G1 X82.939 Y140.222 E22.5527
G1 X82.066 Y139.903 E22.58362
G1 X80.574 Y139.28 E22.63739
G1 X79.757 Y138.896 E22.66742
G1 X78.977 Y138.441 E22.69745
G1 X78.24 Y137.918 E22.72751
G1 X77.553 Y137.332 E22.75755
G1 X76.92 Y136.688 E22.78758
G1 X76.346 Y135.991 E22.81761
G1 X75.836 Y135.245 E22.84767
G1 X75.395 Y134.457 E22.8777
G1 X75.025 Y133.634 E22.90771
G1 X74.729 Y132.78 E22.93778
G1 X74.509 Y131.904 E22.96782
G1 X74.368 Y131.012 E22.99785
G1 X74.308 Y130.169 E23.02596
G1 X74.294 Y129.529 E23.04725
G1 X74.295 Y127.438 E23.1168
G1 X74.305 Y126.741 E23.13998
G1 X74.352 Y125.904 E23.16787
G1 X74.446 Y124.946 E23.19988
G1 X74.577 Y123.792 E23.23851
G1 X74.792 Y121.238 E23.32376
G1 X74.935 Y118.7 E23.40831
G1 X74.97 Y117.498 E23.4483
G1 X75.009 Y116.605 E23.47803
G1 X75.164 Y113.857 E23.56958
G1 X75.236 Y111.322 E23.65393
G1 X75.236 Y108.788 E23.73821
G1 X75.165 Y106.271 E23.82196
G1 X75.077 Y104.867 E23.86874
G1 X75.069 Y104.428 E23.88335
G1 X75.01 Y103.408 E23.91733
G1 X74.979 Y102.477 E23.94831
G1 X74.864 Y99.865 E24.03527
G1 X74.68 Y97.302 E24.12074
G1 X74.369 Y94.269 E24.22214
G1 X74.307 Y93.402 E24.25105
G1 X74.294 Y92.795 E24.27125
G1 X74.295 Y90.656 E24.34239
G1 X74.305 Y89.978 E24.36494
G1 X74.358 Y89.076 E24.395
G1 X74.491 Y88.183 E24.42503
G1 X74.703 Y87.305 E24.45507
G1 X74.991 Y86.449 E24.48511
G1 X75.353 Y85.622 E24.51513
G1 X75.788 Y84.83 E24.54519
G1 X76.291 Y84.08 E24.57522
G1 X76.858 Y83.377 E24.60526
G1 X77.485 Y82.727 E24.6353
G1 F1500 E18.1353
G0 F6000 X84.694 Y90.32
G1 F1500 E24.6353
G1 F1200 X84.804 Y90.32 E24.63896
G1 X84.868 Y90.309 E24.64112
G1 X85.564 Y90.073 E24.66556
G1 X85.586 Y90.064 E24.66635
G1 X86.08 Y89.828 E24.68456
G1 X86.17 Y89.742 E24.6887
G1 X86.181 Y89.698 E24.69021
G1 X87.186 Y89.684 E24.72364
G1 X87.196 Y89.684 E24.72397
G1 X87.734 Y89.65 E24.7419
G1 X87.747 Y89.648 E24.74234
G1 X88.19 Y89.589 E24.7572
G1 X88.201 Y89.588 E24.75757
G1 X88.807 Y89.474 E24.77808
G1 X88.831 Y89.467 E24.77891
