;FLAVOR:Marlin
;TIME:597
;Filament used: 1.11077m
;Layer height: 0.24
;MINX:32.214
;MINY:23.869
;MINZ:0.2
;MAXX:97.372
;MAXY:89.027
;MAXZ:6.44
;TARGET_MACHINE.NAME:Creality Ender-3 Pro
;Generated with Cura_SteamEngine 5.9.0
M82 ;absolute extrusion mode
; Ender 3 Custom Start G-code
G92 E0 ; Reset Extruder
G28 ; Home all axes
G1 Z5.0 F3000 ; Move Z Axis up a bit during heating to not damage bed
M190 S60.0 ; Start heating the bed, wait until target temperature reached
M109 S205.0 ; Finish heating the nozzle
G1 Z2.0 F3000 ; Move Z Axis up little to prevent scratching of Heat Bed
G1 X0.1 Y20 Z0.3 F5000.0 ; Move to start position
G1 X0.1 Y200.0 Z0.3 F1500.0 E15 ; Draw the first line
G1 X0.4 Y200.0 Z0.3 F5000.0 ; Move to side a little
G1 X0.4 Y20 Z0.3 F1500.0 E30 ; Draw the second line
G92 E0 ; Reset Extruder
G1 Z2.0 F3000 ; Move Z Axis up little to prevent scratching of Heat Bed
G1 X5 Y20 Z0.3 F5000.0 ; Move over to prevent blob squish
G92 E0
G92 E0
G1 F2100 E-5.5
;LAYER_COUNT:27
;LAYER:0
M107
M204 S500
M205 X40 Y40
G0 F9000 X32.566 Y61.186 Z0.2
M204 S800
;TYPE:SKIRT
G1 F2100 E0
G1 F3000 X32.434 Y60.246 E0.03157
G1 X32.359 Y59.523 E0.05575
G1 X32.256 Y57.997 E0.10662
G1 X32.218 Y57.047 E0.13824
G1 X32.214 Y56.332 E0.16202
G1 X32.263 Y54.775 E0.21383
G1 X32.317 Y53.847 E0.24475
G1 X32.382 Y53.142 E0.2683
G1 X32.577 Y51.638 E0.31874
G1 X32.723 Y50.697 E0.35041
G1 X32.863 Y49.968 E0.3751
G1 X33.133 Y48.79 E0.4153
G1 X33.441 Y47.586 E0.45663
G1 X33.647 Y46.889 E0.48081
G1 X34.129 Y45.458 E0.53103
G1 X34.458 Y44.558 E0.5629
G1 X34.736 Y43.876 E0.5874
G1 X35.242 Y42.747 E0.62855
G1 X35.785 Y41.615 E0.6703
G1 X36.122 Y40.974 E0.69439
G1 X36.714 Y39.938 E0.73408
G1 X37.352 Y38.883 E0.77508
G1 X37.764 Y38.259 E0.79995
G1 X38.678 Y36.98 E0.85224
G1 X39.228 Y36.25 E0.88264
G1 X39.687 Y35.685 E0.90685
G1 X40.698 Y34.53 E0.9579
G1 X41.345 Y33.829 E0.98963
G1 X41.839 Y33.328 E1.01303
G1 X42.717 Y32.498 E1.05322
G1 X43.645 Y31.665 E1.0947
G1 X44.202 Y31.201 E1.11881
G1 X45.184 Y30.439 E1.16015
G1 X46.201 Y29.694 E1.20208
G1 X46.792 Y29.294 E1.22582
G1 X48.045 Y28.511 E1.27496
G1 X48.89 Y28.014 E1.30756
G1 X49.524 Y27.669 E1.33157
G1 X50.934 Y26.97 E1.38391
G1 X51.788 Y26.576 E1.4152
G1 X52.431 Y26.306 E1.43839
G1 X53.843 Y25.77 E1.48862
G1 X54.738 Y25.458 E1.52015
G1 X55.428 Y25.244 E1.54418
G1 X56.665 Y24.907 E1.58682
G1 X57.839 Y24.618 E1.62703
G1 X58.548 Y24.472 E1.65111
G1 X60.055 Y24.221 E1.70192
G1 X60.995 Y24.089 E1.73349
G1 X61.718 Y24.014 E1.75767
G1 X63.245 Y23.911 E1.80857
G1 X64.196 Y23.873 E1.84023
G1 X64.91 Y23.869 E1.86398
G1 X66.466 Y23.918 E1.91575
G1 X67.394 Y23.972 E1.94667
G1 X68.099 Y24.037 E1.97022
G1 X69.603 Y24.232 E2.02066
G1 X70.544 Y24.378 E2.05233
G1 X71.273 Y24.518 E2.07702
G1 X72.451 Y24.788 E2.11722
G1 X73.655 Y25.096 E2.15856
G1 X74.352 Y25.302 E2.18273
G1 X75.786 Y25.785 E2.23306
G1 X76.688 Y26.116 E2.26501
G1 X77.367 Y26.392 E2.28939
G1 X78.756 Y27.02 E2.34009
G1 X79.626 Y27.44 E2.37222
G1 X80.267 Y27.777 E2.39631
G1 X81.303 Y28.369 E2.436
G1 X82.358 Y29.007 E2.477
G1 X82.982 Y29.419 E2.50187
G1 X84.261 Y30.333 E2.55416
G1 X84.991 Y30.883 E2.58456
G1 X85.556 Y31.342 E2.60877
G1 X86.711 Y32.353 E2.65982
G1 X87.412 Y33 E2.69155
G1 X87.913 Y33.494 E2.71495
G1 X88.736 Y34.364 E2.75479
G1 X89.569 Y35.292 E2.79626
G1 X90.037 Y35.854 E2.82059
G1 X90.829 Y36.877 E2.86362
G1 X91.542 Y37.848 E2.90368
G1 X91.943 Y38.44 E2.92747
G1 X92.738 Y39.712 E2.97736
G1 X93.232 Y40.551 E3.00974
G1 X93.575 Y41.185 E3.03372
G1 X94.268 Y42.584 E3.08564
G1 X94.664 Y43.442 E3.11707
G1 X94.935 Y44.086 E3.14031
G1 X95.471 Y45.498 E3.19054
G1 X95.783 Y46.393 E3.22207
G1 X95.997 Y47.083 E3.2461
G1 X96.334 Y48.32 E3.28874
G1 X96.623 Y49.494 E3.32895
G1 X96.769 Y50.203 E3.35303
G1 X97.02 Y51.707 E3.40374
G1 X97.152 Y52.646 E3.43528
G1 X97.227 Y53.373 E3.45959
G1 X97.33 Y54.899 E3.51046
G1 X97.368 Y55.849 E3.54208
G1 X97.372 Y56.564 E3.56586
G1 X97.323 Y58.121 E3.61768
G1 X97.269 Y59.049 E3.64859
G1 X97.204 Y59.754 E3.67214
G1 X97.009 Y61.258 E3.72258
G1 X96.863 Y62.199 E3.75426
G1 X96.723 Y62.928 E3.77895
G1 X96.453 Y64.106 E3.81914
G1 X96.145 Y65.31 E3.86048
G1 X95.939 Y66.007 E3.88465
G1 X95.457 Y67.438 E3.93487
G1 X95.128 Y68.338 E3.96674
G1 X94.85 Y69.02 E3.99124
G1 X94.344 Y70.149 E4.03239
G1 X93.801 Y71.281 E4.07415
G1 X93.464 Y71.922 E4.09823
G1 X92.884 Y72.937 E4.13712
G1 X92.237 Y74.007 E4.1787
G1 X91.822 Y74.637 E4.2038
G1 X90.908 Y75.916 E4.25608
G1 X90.358 Y76.646 E4.28648
G1 X89.899 Y77.211 E4.31069
G1 X88.888 Y78.366 E4.36175
G1 X88.241 Y79.067 E4.39348
G1 X87.747 Y79.568 E4.41688
G1 X86.877 Y80.391 E4.45671
G1 X85.949 Y81.224 E4.49818
G1 X85.387 Y81.692 E4.52251
G1 X84.364 Y82.484 E4.56554
G1 X83.393 Y83.197 E4.60561
G1 X82.801 Y83.598 E4.62939
G1 X81.529 Y84.393 E4.67928
G1 X80.69 Y84.887 E4.71166
G1 X80.056 Y85.23 E4.73564
G1 X78.657 Y85.923 E4.78756
G1 X77.799 Y86.319 E4.81899
G1 X77.155 Y86.59 E4.84223
G1 X75.743 Y87.126 E4.89247
G1 X74.848 Y87.438 E4.92399
G1 X74.158 Y87.652 E4.94802
G1 X72.921 Y87.989 E4.99066
G1 X71.747 Y88.278 E5.03087
G1 X71.038 Y88.424 E5.05495
G1 X69.531 Y88.675 E5.10576
G1 X68.591 Y88.807 E5.13734
G1 X67.868 Y88.882 E5.16151
G1 X66.341 Y88.985 E5.21242
G1 X65.39 Y89.023 E5.24407
G1 X64.676 Y89.027 E5.26782
G1 X63.12 Y88.978 E5.3196
G1 X62.192 Y88.924 E5.35051
G1 X61.487 Y88.859 E5.37406
G1 X59.983 Y88.664 E5.4245
G1 X59.042 Y88.518 E5.45618
G1 X58.313 Y88.378 E5.48087
G1 X57.135 Y88.108 E5.52106
G1 X55.931 Y87.8 E5.5624
G1 X55.234 Y87.594 E5.58657
G1 X53.8 Y87.111 E5.6369
G1 X52.898 Y86.78 E5.66886
G1 X52.219 Y86.504 E5.69323
G1 X50.83 Y85.876 E5.74393
G1 X49.958 Y85.455 E5.77614
G1 X49.31 Y85.114 E5.8005
G1 X48.282 Y84.525 E5.8399
G1 X47.202 Y83.871 E5.8819
G1 X46.591 Y83.469 E5.90622
G1 X45.362 Y82.591 E5.95646
G1 X44.608 Y82.023 E5.98786
G1 X44.05 Y81.57 E6.01176
G1 X43.093 Y80.739 E6.05392
G1 X42.169 Y79.891 E6.09563
G1 X41.673 Y79.402 E6.11879
G1 X40.85 Y78.532 E6.15863
G1 X40.017 Y77.604 E6.2001
G1 X39.548 Y77.041 E6.22447
G1 X38.581 Y75.785 E6.2772
G1 X38.044 Y75.048 E6.30753
G1 X37.64 Y74.453 E6.33145
G1 X37.002 Y73.437 E6.37135
G1 X36.352 Y72.341 E6.41373
G1 X36.01 Y71.709 E6.43763
G1 X35.318 Y70.313 E6.48945
G1 X34.921 Y69.453 E6.52096
G1 X34.649 Y68.806 E6.5443
G1 X34.115 Y67.398 E6.59439
G1 X33.803 Y66.503 E6.62591
G1 X33.589 Y65.813 E6.64994
G1 X33.252 Y64.576 E6.69258
G1 X32.963 Y63.402 E6.7328
G1 X32.817 Y62.693 E6.75687
G1 X32.566 Y61.186 E6.80768
M204 S500
G0 F9000 X32.962 Y61.13
M204 S800
G1 F3000 X32.832 Y60.204 E6.83879
G1 X32.758 Y59.496 E6.86246
G1 X32.656 Y57.981 E6.91297
G1 X32.618 Y57.045 E6.94412
G1 X32.614 Y56.344 E6.96744
G1 X32.662 Y54.798 E7.01888
G1 X32.715 Y53.884 E7.04933
G1 X32.779 Y53.193 E7.07242
G1 X32.972 Y51.699 E7.12252
G1 X33.116 Y50.772 E7.15372
G1 X33.253 Y50.057 E7.17793
G1 X33.521 Y48.889 E7.21779
G1 X33.825 Y47.699 E7.25864
G1 X34.026 Y47.017 E7.28229
G1 X34.505 Y45.595 E7.3322
G1 X34.829 Y44.709 E7.36357
G1 X35.101 Y44.04 E7.38759
G1 X35.603 Y42.92 E7.42842
G1 X36.139 Y41.801 E7.46968
G1 X36.469 Y41.172 E7.49331
G1 X37.056 Y40.145 E7.53265
G1 X37.686 Y39.103 E7.57315
G1 X38.089 Y38.492 E7.5975
G1 X38.997 Y37.221 E7.64945
G1 X39.539 Y36.502 E7.6794
G1 X39.988 Y35.948 E7.70311
G1 X40.992 Y34.801 E7.75381
G1 X41.63 Y34.11 E7.7851
G1 X42.114 Y33.619 E7.80803
G1 X42.984 Y32.796 E7.84786
G1 X43.901 Y31.972 E7.88886
G1 X44.447 Y31.517 E7.9125
G1 X45.421 Y30.762 E7.95349
G1 X46.426 Y30.025 E7.99494
G1 X47.004 Y29.633 E8.01817
G1 X48.248 Y28.856 E8.06695
G1 X49.081 Y28.365 E8.09911
G1 X49.702 Y28.027 E8.12263
G1 X51.102 Y27.333 E8.1746
G1 X51.943 Y26.945 E8.20541
G1 X52.573 Y26.68 E8.22814
G1 X53.975 Y26.148 E8.27801
G1 X54.857 Y25.84 E8.30909
G1 X55.533 Y25.63 E8.33263
G1 X56.76 Y25.295 E8.37493
G1 X57.92 Y25.01 E8.41466
G1 X58.614 Y24.867 E8.43823
G1 X60.111 Y24.617 E8.48871
G1 X61.037 Y24.487 E8.51981
G1 X61.745 Y24.413 E8.54349
G1 X63.261 Y24.311 E8.59402
G1 X64.198 Y24.273 E8.62521
G1 X64.898 Y24.269 E8.6485
G1 X66.443 Y24.317 E8.69991
G1 X67.357 Y24.37 E8.73036
G1 X68.048 Y24.434 E8.75344
G1 X69.542 Y24.627 E8.80354
G1 X70.469 Y24.771 E8.83475
G1 X71.184 Y24.908 E8.85896
G1 X72.352 Y25.176 E8.89882
G1 X73.542 Y25.48 E8.93967
G1 X74.224 Y25.681 E8.96332
G1 X75.649 Y26.161 E9.01333
G1 X76.537 Y26.486 E9.04478
G1 X77.202 Y26.757 E9.06866
G1 X78.582 Y27.38 E9.11902
G1 X79.44 Y27.794 E9.15071
G1 X80.069 Y28.124 E9.17433
G1 X81.096 Y28.711 E9.21368
G1 X82.138 Y29.341 E9.25418
G1 X82.749 Y29.744 E9.27852
G1 X84.02 Y30.652 E9.33047
G1 X84.739 Y31.194 E9.36042
G1 X85.293 Y31.643 E9.38414
G1 X86.44 Y32.647 E9.43484
G1 X87.131 Y33.285 E9.46612
G1 X87.622 Y33.769 E9.48905
G1 X88.445 Y34.639 E9.52888
G1 X89.262 Y35.548 E9.56953
G1 X89.721 Y36.099 E9.59338
G1 X90.507 Y37.114 E9.63608
G1 X91.211 Y38.073 E9.67565
G1 X91.604 Y38.652 E9.69893
G1 X92.393 Y39.915 E9.74846
G1 X92.88 Y40.742 E9.78038
G1 X93.217 Y41.363 E9.80388
G1 X93.905 Y42.752 E9.85543
G1 X94.295 Y43.597 E9.88639
G1 X94.561 Y44.228 E9.90916
G1 X95.093 Y45.63 E9.95904
G1 X95.401 Y46.512 E9.99011
G1 X95.611 Y47.188 E10.01365
G1 X95.946 Y48.415 E10.05596
G1 X96.231 Y49.575 E10.09569
G1 X96.374 Y50.269 E10.11925
G1 X96.624 Y51.763 E10.16964
G1 X96.754 Y52.687 E10.20067
G1 X96.828 Y53.4 E10.22451
G1 X96.93 Y54.915 E10.27502
G1 X96.968 Y55.851 E10.30617
G1 X96.972 Y56.552 E10.32949
G1 X96.924 Y58.098 E10.38093
G1 X96.871 Y59.012 E10.41138
G1 X96.807 Y59.703 E10.43447
G1 X96.614 Y61.197 E10.48457
G1 X96.47 Y62.124 E10.51577
G1 X96.333 Y62.839 E10.53998
G1 X96.065 Y64.007 E10.57984
G1 X95.761 Y65.197 E10.62069
G1 X95.56 Y65.879 E10.64434
G1 X95.081 Y67.301 E10.69425
G1 X94.757 Y68.187 E10.72562
G1 X94.485 Y68.856 E10.74964
G1 X93.983 Y69.976 E10.79047
G1 X93.447 Y71.095 E10.83173
G1 X93.117 Y71.724 E10.85536
G1 X92.542 Y72.73 E10.8939
G1 X91.903 Y73.787 E10.93498
G1 X91.497 Y74.404 E10.95955
G1 X90.589 Y75.675 E11.0115
G1 X90.047 Y76.394 E11.04145
G1 X89.598 Y76.948 E11.06516
G1 X88.594 Y78.095 E11.11586
G1 X87.956 Y78.786 E11.14714
G1 X87.472 Y79.277 E11.17008
G1 X86.602 Y80.1 E11.20991
G1 X85.693 Y80.917 E11.25056
G1 X85.142 Y81.376 E11.27441
G1 X84.127 Y82.162 E11.31711
G1 X83.168 Y82.866 E11.35668
G1 X82.589 Y83.259 E11.37995
G1 X81.326 Y84.048 E11.42948
G1 X80.499 Y84.535 E11.4614
G1 X79.878 Y84.872 E11.4849
G1 X78.489 Y85.56 E11.53646
G1 X77.644 Y85.95 E11.56741
G1 X77.013 Y86.216 E11.59019
G1 X75.611 Y86.748 E11.64006
G1 X74.729 Y87.056 E11.67113
G1 X74.053 Y87.266 E11.69468
G1 X72.826 Y87.601 E11.73698
G1 X71.666 Y87.886 E11.77671
G1 X70.972 Y88.029 E11.80028
G1 X69.475 Y88.279 E11.85076
G1 X68.549 Y88.409 E11.88186
G1 X67.841 Y88.483 E11.90554
G1 X66.325 Y88.585 E11.95607
G1 X65.388 Y88.623 E11.98726
G1 X64.688 Y88.627 E12.01055
G1 X63.143 Y88.579 E12.06196
G1 X62.229 Y88.526 E12.09241
G1 X61.538 Y88.462 E12.11549
G1 X60.044 Y88.269 E12.16559
G1 X59.117 Y88.125 E12.19679
G1 X58.402 Y87.988 E12.22101
G1 X57.234 Y87.72 E12.26087
G1 X56.044 Y87.416 E12.30172
G1 X55.362 Y87.215 E12.32536
G1 X53.937 Y86.735 E12.37538
G1 X53.049 Y86.41 E12.40683
G1 X52.384 Y86.139 E12.43071
G1 X51.004 Y85.516 E12.48107
G1 X50.144 Y85.101 E12.51283
G1 X49.509 Y84.767 E12.53669
G1 X48.489 Y84.183 E12.57579
G1 X47.422 Y83.537 E12.61727
G1 X46.823 Y83.143 E12.64112
G1 X45.603 Y82.272 E12.69098
G1 X44.86 Y81.712 E12.72192
G1 X44.312 Y81.268 E12.74538
G1 X43.363 Y80.444 E12.78718
G1 X42.45 Y79.606 E12.8284
G1 X41.964 Y79.127 E12.8511
G1 X41.141 Y78.257 E12.89093
G1 X40.324 Y77.348 E12.93158
G1 X39.865 Y76.797 E12.95543
G1 X38.904 Y75.549 E13.00782
G1 X38.375 Y74.824 E13.03767
G1 X37.979 Y74.24 E13.06114
G1 X37.346 Y73.233 E13.1007
G1 X36.704 Y72.15 E13.14257
G1 X36.368 Y71.531 E13.166
G1 X35.681 Y70.145 E13.21745
G1 X35.29 Y69.298 E13.24848
G1 X35.023 Y68.664 E13.27136
G1 X34.493 Y67.266 E13.32109
G1 X34.185 Y66.384 E13.35216
G1 X33.975 Y65.708 E13.3757
G1 X33.64 Y64.481 E13.41801
G1 X33.355 Y63.321 E13.45773
G1 X33.212 Y62.627 E13.4813
G1 X32.962 Y61.13 E13.53178
M204 S500
G1 F2100 E8.03178
;MESH:spool_lock_ring.stl
G0 F9000 X43.835 Y65.069
G0 X44.864 Y64.7
G0 X52.55 Y71.366
G0 X54.071 Y72.495
G0 X55.695 Y73.469
G0 X57.407 Y74.278
G0 X59.191 Y74.917
G0 X60.233 Y75.179
G0 X66.787 Y76.587
M204 S800
;TYPE:WALL-INNER
G1 F2100 E13.53178
G1 F3200 X64.792 Y76.684 E13.59406
G1 X62.801 Y76.585 E13.65622
G1 F3208.6 X60.847 Y76.296 E13.71765
G1 X58.917 Y75.811 E13.77953
G1 X57.046 Y75.144 E13.84131
G1 X55.261 Y74.298 E13.90273
G1 X53.544 Y73.269 E13.96499
G1 X51.95 Y72.088 E14.02668
G1 X50.482 Y70.757 E14.0883
G1 X49.15 Y69.289 E14.14995
G1 X47.969 Y67.694 E14.21166
G1 X46.938 Y65.975 E14.274
G1 F3225.8 X46.094 Y64.191 E14.33505
G1 F3217.2 X45.426 Y62.324 E14.39655
G1 F3208.6 X44.944 Y60.393 E14.45844
G1 X44.655 Y58.439 E14.51987
G1 X44.554 Y56.447 E14.58189
G1 X44.663 Y54.385 E14.64611
G1 F3217.2 X44.932 Y52.569 E14.70305
G1 F3225.8 X45.425 Y50.571 E14.7667
G1 X46.094 Y48.7 E14.82816
G1 X46.938 Y46.917 E14.88918
G1 F3217.2 X47.97 Y45.198 E14.95137
G1 F3208.6 X49.149 Y43.604 E15.01302
G1 X50.481 Y42.137 E15.07464
G1 F3217.2 X51.951 Y40.803 E15.13621
G1 F3208.6 X53.544 Y39.623 E15.19786
G1 X55.261 Y38.594 E15.26011
G1 X57.046 Y37.748 E15.32154
G1 X58.917 Y37.081 E15.38331
G1 X60.847 Y36.596 E15.4452
G1 X62.733 Y36.315 E15.5045
G1 X64.79 Y36.207 E15.56855
G1 X66.784 Y36.307 E15.63064
G1 X68.737 Y36.596 E15.69204
G1 X70.667 Y37.081 E15.75392
G1 X72.534 Y37.748 E15.81558
G1 X74.323 Y38.595 E15.87713
G1 X76.04 Y39.622 E15.93935
G1 X77.633 Y40.804 E16.00104
G1 F3225.8 X79.103 Y42.134 E16.06236
G1 F3208.6 X80.433 Y43.605 E16.12403
G1 X81.614 Y45.198 E16.1857
G1 X82.643 Y46.907 E16.24773
G1 X83.488 Y48.701 E16.3094
G1 X84.159 Y50.571 E16.37119
G1 X84.64 Y52.503 E16.4331
G1 X84.931 Y54.45 E16.49432
G1 X85.027 Y56.448 E16.55653
G1 X84.929 Y58.439 E16.61852
G1 X84.64 Y60.393 E16.67995
G1 F3217.2 X84.158 Y62.324 E16.74168
G1 F3208.6 X83.488 Y64.191 E16.80336
G1 F3217.2 X82.647 Y65.976 E16.86456
G1 F3225.8 X81.615 Y67.694 E16.92655
G1 F3208.6 X80.432 Y69.287 E16.98826
G1 F3200 X79.102 Y70.757 E17.05007
G1 F3208.6 X77.634 Y72.088 E17.11169
G1 X76.039 Y73.27 E17.17343
G1 X74.323 Y74.297 E17.23562
G1 X72.534 Y75.144 E17.29718
G1 F3200 X70.667 Y75.811 E17.359
G1 X68.737 Y76.296 E17.42105
G1 F3208.6 X66.787 Y76.587 E17.48236
M204 S500
G0 F9000 X66.795 Y76.194
M204 S800
G1 F3000 X64.792 Y76.296 E17.54907
G1 X62.838 Y76.2 E17.61414
G1 X60.923 Y75.917 E17.67852
G1 X59.03 Y75.441 E17.74344
G1 X57.236 Y74.803 E17.80677
G1 X55.441 Y73.957 E17.87277
G1 X53.759 Y72.948 E17.93801
G1 X52.198 Y71.792 E18.00262
G1 X50.756 Y70.483 E18.06739
G1 X49.447 Y69.041 E18.13217
G1 X48.262 Y67.435 E18.19855
G1 X47.279 Y65.795 E18.26214
G1 X46.433 Y64.001 E18.32811
G1 X45.796 Y62.211 E18.39131
G1 X45.323 Y60.317 E18.45624
G1 X45.04 Y58.402 E18.52062
G1 X44.945 Y56.498 E18.58403
G1 X45.046 Y54.441 E18.65253
G1 X45.333 Y52.529 E18.71683
G1 X45.795 Y50.684 E18.78009
G1 X46.433 Y48.891 E18.84339
G1 X47.279 Y47.097 E18.90936
G1 X48.291 Y45.413 E18.97471
G1 X49.445 Y43.853 E19.03925
G1 X50.755 Y42.41 E19.10407
G1 X52.244 Y41.064 E19.17083
G1 X53.759 Y39.944 E19.23349
G1 X55.441 Y38.935 E19.29873
G1 X57.236 Y38.089 E19.36473
G1 X59.03 Y37.451 E19.42806
G1 X60.923 Y36.975 E19.49298
G1 X62.789 Y36.698 E19.55572
G1 X64.792 Y36.596 E19.62243
G1 X66.746 Y36.692 E19.6875
G1 X68.709 Y36.985 E19.75351
G1 X70.554 Y37.451 E19.8168
G1 X72.442 Y38.128 E19.88351
G1 X74.186 Y38.961 E19.9478
G1 X75.824 Y39.942 E20.0113
G1 X77.42 Y41.13 E20.07747
G1 X78.862 Y42.444 E20.14236
G1 X80.136 Y43.854 E20.20557
G1 X81.292 Y45.413 E20.27012
G1 X82.305 Y47.097 E20.33548
G1 X83.13 Y48.848 E20.39986
G1 X83.789 Y50.684 E20.46474
G1 X84.261 Y52.578 E20.52966
G1 X84.538 Y54.441 E20.59231
G1 X84.64 Y56.448 E20.65915
G1 X84.548 Y58.354 E20.72261
G1 X84.271 Y60.267 E20.7869
G1 X83.789 Y62.211 E20.85352
G1 X83.13 Y64.044 E20.9183
G1 X82.305 Y65.795 E20.98268
G1 X81.295 Y67.479 E21.048
G1 X80.134 Y69.039 E21.11267
G1 X78.828 Y70.484 E21.17746
G1 X77.387 Y71.79 E21.24214
G1 X75.778 Y72.979 E21.30868
G1 X74.102 Y73.976 E21.37354
G1 X72.348 Y74.803 E21.43804
G1 X70.554 Y75.44 E21.50136
