; Generated by Kiri:Moto 4.0.31
; Thu Oct 24 2024 21:11:40 GMT-0700 (Pacific Daylight Time)
; Bed left:0 right:220 top:220 bottom:0
; Bed type: fixed
; Target: My Any Generic Marlin
; --- process ---
; processName = Ender 3 PLA
; sliceHeight = 0.2
; sliceShells = 3
; sliceShellOrder = in-out
; sliceLayerStart = center
; sliceFillAngle = 45
; sliceFillOverlap = 0.35
; sliceFillSparse = 0.15
; sliceFillType = hex
; sliceAdaptive = false
; sliceMinHeight = 0.1
; sliceSupportDensity = 0.15
; sliceSupportOffset = 0.4
; sliceSupportGap = 0
; sliceSupportSize = 1
; sliceSupportArea = 2
; sliceSupportExtra = 0
; sliceSupportAngle = 1
; sliceSupportNozzle = 0
; sliceSolidMinArea = 5
; sliceBottomLayers = 3
; sliceTopLayers = 3
; firstLayerRate = 10
; firstLayerPrintMult = 1
; firstLayerYOffset = 0
; firstLayerBrim = 0
; firstLayerBeltLead = 200
; firstLayerFanSpeed = 0
; outputTemp = 190
; outputBedTemp = 70
; outputFanSpeed = 255
; outputFeedrate = 80
; outputFinishrate = 50
; outputSeekrate = 110
; outputShellMult = 1.35
; outputFillMult = 1.3
; outputSparseMult = 1.3
; outputRetractDist = 4
; outputRetractSpeed = 80
; outputRetractWipe = 2
; outputRetractDwell = 0
; outputShortPoly = 50
; outputMinSpeed = 1
; outputCoastDist = 0.05
; outputLayerRetract = true
; zHopDistance = 0.1
; antiBacklash = 0
; sliceFillWidth = 1
; sliceFillRate = 0
; sliceSupportEnable = false
; firstSliceHeight = 0.2
; firstLayerFillRate = 35
; firstLayerLineMult = 1
; firstLayerNozzleTemp = 0
; firstLayerBedTemp = 0
; firstLayerBrimTrig = 0
; firstLayerBrimGap = 0
; outputRaft = false
; outputRaftSpacing = 0.2
; outputBrimCount = 1
; outputBrimOffset = 3
; outputPurgeTower = 0
; outputInvertX = false
; outputInvertY = false
; arcTolerance = 0
; ranges = []
; outputLoops = 0
; firstLayerBrimIn = 0
; firstLayerBeltBump = 0
; outputBeltFirst = false
; sliceFillRepeat = 4
; sliceLineWidth = 0
; sliceSupportSpan = 5
; sliceSupportOutline = false
; firstLayerFlatten = 0
; outputDraftShield = false
; outputAvoidGaps = false
; sliceDetectThin = off
; sliceAngle = 45
; sliceLayerStartX = 0
; sliceLayerStartY = 0
; sliceFillGrow = 0
; sliceSolidRate = 0
; sliceSupportGrow = 0
; outputFanLayer = 1
; outputAlternating = false
; outputNozzle = 0
; --- startup ---
M104 S190 T0             ; set extruder temperature
M140 S70 T0              ; set bed temperature
G90                      ; set absolute positioning mode
M83                      ; set relative positioning for extruder
M107                     ; turn off filament cooling fan
G28                      ; home axes
G92 X0 Y0 Z0 E0          ; reset all axes positions
G1 X0 Y0 Z0.25 F180      ; move xy to 0,0 and z 0.25mm over bed
G92 E0                   ; zero the extruded
M190 S70 T0              ; wait for bed to reach target temp
M109 S190 T0             ; wait for extruder to reach target temp
G1 E15 F200              ; purge 15mm from extruder
G92 E0                   ; zero the extruded
G1 F225                  ; set feed speed
G1 Z1.0 F3000            ; move z up little to prevent scratching
G1 X0.1 Y20 Z0.3 F5000.0 ; move to start-line position
G1 X0.1 Y100.0 Z0.3 F1500.0 E15 ; draw 1st line
G1 X0.4 Y100.0 Z0.3 F5000.0     ; move to side a little
G1 X0.4 Y20 Z0.3 F1500.0 E30    ; draw 2nd line
G92 E0 ; reset extruder
G1 Z1.0 F3000 ; move z up little to prevent scratching of surface
G1 E-4.0000 F4800 ; e-retract 4
;; --- layer 0 (0.200 @ 0.2) ---
G1 Z0.2000 F6600
; feature brim
G1 X80.3000 Y133.0536
G1 E4.0000 F4800 ; e-engage 4
G1 X84.4881 Y150.5030 E0.6328 F600
G1 X84.6497 Y153.8750 E0.1191
G1 X89.4400 E0.1689
G1 Y155.6555 E0.0628
G1 X93.3095 Y159.5250 E0.1930
G1 X101.6905 E0.2956
G1 X105.5600 Y155.6555 E0.1930
G1 Y153.8750 E0.0628
G1 X109.4400 E0.1368
G1 Y155.6555 E0.0628
G1 X113.3095 Y159.5250 E0.1930
G1 X121.6905 E0.2956
G1 X125.5600 Y155.6555 E0.1930
G1 Y153.8750 E0.0628
G1 X129.2582 E0.1304
G1 X139.7000 Y133.4454 E0.8091
G1 Y60.4750 E2.5733
G1 X80.3000 E2.0948
G1 Y133.0536 E2.5595
G1 E-4.0000 F4800 ; e-retract 4
G1 Z0.3000 F6600 ; z-hop start
; feature shells
G1 X120.9892 Y73.5721
G1 Z0.2000 ; z-hop end
G1 E4.0000 F4800 ; e-engage 4
G1 X121.2821 Y73.6157 E0.0104 F226
G1 X121.5759 Y73.6242 E0.0104
G1 X121.8697 Y73.5976 E0.0104
G1 X122.2482 Y73.5089 E0.0137
G1 X122.5233 Y73.4013 E0.0104
G1 X122.7851 Y73.2619 E0.0105
G1 X123.0977 Y73.0330 E0.0137
G1 X123.3115 Y72.8254 E0.0105
G1 X123.5497 Y72.5189 E0.0137
G1 X123.6964 Y72.2611 E0.0105
G1 X123.8112 Y71.9893 E0.0104
G1 X123.9112 Y71.6140 E0.0137
G1 X123.9461 Y71.3201 E0.0104
G1 X123.9460 Y71.0287 E0.0103
G1 X123.9112 Y70.7365 E0.0104
G1 X123.8405 Y70.4512 E0.0104
G1 X123.7373 Y70.1761 E0.0104
G1 X123.6022 Y69.9155 E0.0104
G1 X123.4356 Y69.6726 E0.0104
G1 X123.2419 Y69.4515 E0.0104
G1 X123.0231 Y69.2555 E0.0104
G1 X122.7823 Y69.0865 E0.0104
G1 X122.5222 Y68.9482 E0.0104
G1 X122.2470 Y68.8407 E0.0104
G1 X121.8665 Y68.7517 E0.0138
G1 X121.4776 Y68.7245 E0.0138
G1 X121.1826 Y68.7453 E0.0104
G1 X120.8941 Y68.8007 E0.0104
G1 X120.6122 Y68.8906 E0.0104
G1 X120.2628 Y69.0598 E0.0137
G1 X120.0173 Y69.2241 E0.0104
G1 X119.7938 Y69.4159 E0.0104
G1 X119.5956 Y69.6335 E0.0104
G1 X119.4246 Y69.8720 E0.0103
G1 X119.2840 Y70.1300 E0.0104
G1 X119.1733 Y70.4051 E0.0105
G1 X119.0815 Y70.7816 E0.0137
G1 X119.0518 Y71.0763 E0.0104
G1 X119.0575 Y71.3728 E0.0105
G1 X119.0990 Y71.6637 E0.0104
G1 X119.1745 Y71.9479 E0.0104
G1 X119.2846 Y72.2211 E0.0104
G1 X119.4253 Y72.4791 E0.0104
G1 X119.5964 Y72.7175 E0.0103
G1 X119.7960 Y72.9364 E0.0104
G1 X120.0952 Y73.1833 E0.0137
G1 X120.3484 Y73.3376 E0.0105
G1 X120.6169 Y73.4612 E0.0104
G1 X120.9892 Y73.5721 E0.0137
G1 X120.9022 Y73.9635 F6600
G1 X121.2467 Y74.0149 E0.0123 F253
G1 X121.5881 Y74.0247 E0.0120
G1 X121.9337 Y73.9935 E0.0122
G1 X122.3674 Y73.8918 E0.0157
G1 X122.6907 Y73.7653 E0.0122
G1 X122.9983 Y73.6015 E0.0123
G1 X123.3564 Y73.3393 E0.0156
G1 X123.6102 Y73.0930 E0.0125
G1 X123.8831 Y72.7417 E0.0157
G1 X124.0557 Y72.4385 E0.0123
G1 X124.1906 Y72.1193 E0.0122
G1 X124.3051 Y71.6894 E0.0157
G1 X124.3461 Y71.3437 E0.0123
G1 X124.3460 Y71.0049 E0.0119
G1 X124.3055 Y70.6645 E0.0121
G1 X124.2232 Y70.3324 E0.0121
G1 X124.1034 Y70.0132 E0.0120
G1 X123.9460 Y69.7096 E0.0121
G1 X123.7521 Y69.4268 E0.0121
G1 X123.5268 Y69.1697 E0.0121
G1 X123.2723 Y68.9417 E0.0121
G1 X122.9919 Y68.7449 E0.0121
G1 X122.6894 Y68.5841 E0.0121
G1 X122.3660 Y68.4577 E0.0122
G1 X121.9264 Y68.3549 E0.0159
G1 X121.4775 Y68.3235 E0.0159
G1 X121.1306 Y68.3479 E0.0123
G1 X120.7953 Y68.4124 E0.0120
G1 X120.4635 Y68.5181 E0.0123
G1 X120.0635 Y68.7119 E0.0157
G1 X119.7750 Y68.9050 E0.0122
G1 X119.5147 Y69.1283 E0.0121
G1 X119.2842 Y69.3814 E0.0121
G1 X119.0851 Y69.6590 E0.0120
G1 X118.9216 Y69.9591 E0.0121
G1 X118.7915 Y70.2824 E0.0123
G1 X118.6863 Y70.7138 E0.0157
G1 X118.6515 Y71.0600 E0.0123
G1 X118.6580 Y71.4051 E0.0122
G1 X118.7064 Y71.7435 E0.0121
G1 X118.7942 Y72.0745 E0.0121
G1 X118.9223 Y72.3922 E0.0121
G1 X119.0859 Y72.6923 E0.0121
G1 X119.2851 Y72.9697 E0.0120
G1 X119.5195 Y73.2268 E0.0123
G1 X119.8626 Y73.5100 E0.0157
G1 X120.1601 Y73.6913 E0.0123
G1 X120.4755 Y73.8365 E0.0122
G1 X120.9022 Y73.9635 E0.0157
G1 X120.8152 Y74.3550 F6600
G1 X121.2113 Y74.4140 E0.0141 F281
G1 X121.6004 Y74.4252 E0.0137
G1 X121.9976 Y74.3893 E0.0141
G1 X122.4865 Y74.2747 E0.0177
G1 X122.8582 Y74.1293 E0.0141
G1 X123.2116 Y73.9411 E0.0141
G1 X123.6151 Y73.6457 E0.0176
G1 X123.9089 Y73.3605 E0.0144
G1 X124.2166 Y72.9645 E0.0177
G1 X124.4150 Y72.6159 E0.0141
G1 X124.5699 Y72.2492 E0.0140
G1 X124.6989 Y71.7648 E0.0177
G1 X124.7461 Y71.3673 E0.0141
G1 X124.7460 Y70.9811 E0.0136
G1 X124.6997 Y70.5925 E0.0138
G1 X124.6059 Y70.2136 E0.0138
G1 X124.4695 Y69.8503 E0.0137
G1 X124.2898 Y69.5037 E0.0138
G1 X124.0686 Y69.1810 E0.0138
G1 X123.8117 Y68.8879 E0.0137
G1 X123.5215 Y68.6279 E0.0137
G1 X123.2014 Y68.4033 E0.0138
G1 X122.8567 Y68.2200 E0.0138
G1 X122.4849 Y68.0747 E0.0141
G1 X121.9863 Y67.9581 E0.0181
G1 X121.4774 Y67.9226 E0.0180
G1 X121.0787 Y67.9506 E0.0141
G1 X120.6965 Y68.0241 E0.0137
G1 X120.3149 Y68.1457 E0.0141
G1 X119.8641 Y68.3640 E0.0177
G1 X119.5326 Y68.5858 E0.0141
G1 X119.2355 Y68.8408 E0.0138
G1 X118.9727 Y69.1293 E0.0138
G1 X118.7457 Y69.4459 E0.0137
G1 X118.5593 Y69.7882 E0.0137
G1 X118.4097 Y70.1597 E0.0141
G1 X118.2911 Y70.6461 E0.0177
G1 X118.2511 Y71.0437 E0.0141
G1 X118.2585 Y71.4373 E0.0139
G1 X118.3137 Y71.8234 E0.0138
G1 X118.4139 Y72.2011 E0.0138
G1 X118.5600 Y72.5634 E0.0138
G1 X118.7466 Y72.9055 E0.0137
G1 X118.9738 Y73.2219 E0.0137
G1 X119.2430 Y73.5173 E0.0141
G1 X119.6300 Y73.8367 E0.0177
G1 X119.9718 Y74.0450 E0.0141
G1 X120.3342 Y74.2117 E0.0141
G1 X120.8152 Y74.3550 E0.0177
G1 X98.9384 Y71.4186 F6600
G1 X98.9502 Y71.1240 E0.0104 F226
G1 X98.9261 Y70.8309 E0.0104
G1 X98.8671 Y70.5425 E0.0104
G1 X98.7737 Y70.2621 E0.0104
G1 X98.6020 Y69.9150 E0.0137
G1 X98.4340 Y69.6706 E0.0105
G1 X98.2401 Y69.4497 E0.0104
G1 X98.0210 Y69.2539 E0.0104
G1 X97.7801 Y69.0852 E0.0104
G1 X97.5198 Y68.9472 E0.0104
G1 X97.2446 Y68.8400 E0.0104
G1 X96.8659 Y68.7518 E0.0137
G1 X96.5721 Y68.7257 E0.0104
G1 X96.2783 Y68.7346 E0.0104
G1 X95.9855 Y68.7788 E0.0104
G1 X95.6134 Y68.8902 E0.0137
G1 X95.3450 Y69.0142 E0.0104
G1 X95.0921 Y69.1689 E0.0105
G1 X94.7933 Y69.4162 E0.0137
G1 X94.5941 Y69.6355 E0.0104
G1 X94.4233 Y69.8742 E0.0103
G1 X94.2830 Y70.1323 E0.0104
G1 X94.1733 Y70.4057 E0.0104
G1 X94.0983 Y70.6901 E0.0104
G1 X94.0569 Y70.9827 E0.0104
G1 X94.0570 Y71.3686 E0.0136
G1 X94.0985 Y71.6612 E0.0104
G1 X94.1736 Y71.9455 E0.0104
G1 X94.2835 Y72.2188 E0.0104
G1 X94.4239 Y72.4769 E0.0104
G1 X94.5948 Y72.7155 E0.0104
G1 X94.7929 Y72.9333 E0.0104
G1 X95.0163 Y73.1251 E0.0104
G1 X95.2617 Y73.2896 E0.0104
G1 X95.6110 Y73.4590 E0.0137
G1 X95.8929 Y73.5490 E0.0104
G1 X96.1813 Y73.6046 E0.0104
G1 X96.4763 Y73.6255 E0.0104
G1 X96.8653 Y73.5985 E0.0138
G1 X97.2458 Y73.5097 E0.0138
G1 X97.5210 Y73.4023 E0.0104
G1 X97.7812 Y73.2642 E0.0104
G1 X98.0221 Y73.0953 E0.0104
G1 X98.2410 Y72.8994 E0.0104
G1 X98.4348 Y72.6784 E0.0104
G1 X98.6015 Y72.4356 E0.0104
G1 X98.7368 Y72.1751 E0.0104
G1 X98.8401 Y71.9000 E0.0104
G1 X98.9105 Y71.6167 E0.0103
G1 X98.9384 Y71.4186 E0.0071
G1 X99.3372 Y71.4546 F6600
G1 X99.3509 Y71.1156 E0.0120 F253
G1 X99.3228 Y70.7742 E0.0121
G1 X99.2542 Y70.4389 E0.0121
G1 X99.1445 Y70.1095 E0.0122
G1 X98.9478 Y69.7120 E0.0156
G1 X98.7502 Y69.4244 E0.0123
G1 X98.5247 Y69.1676 E0.0121
G1 X98.2699 Y68.9399 E0.0121
G1 X97.9893 Y68.7434 E0.0121
G1 X97.6867 Y68.5829 E0.0121
G1 X97.3631 Y68.4569 E0.0122
G1 X96.9293 Y68.3558 E0.0157
G1 X96.5837 Y68.3252 E0.0122
G1 X96.2423 Y68.3355 E0.0120
G1 X95.8979 Y68.3874 E0.0123
G1 X95.4714 Y68.5151 E0.0157
G1 X95.1561 Y68.6608 E0.0122
G1 X94.8590 Y68.8425 E0.0123
G1 X94.5163 Y69.1262 E0.0157
G1 X94.2823 Y69.3838 E0.0123
G1 X94.0836 Y69.6615 E0.0120
G1 X93.9205 Y69.9618 E0.0121
G1 X93.7928 Y70.2797 E0.0121
G1 X93.7055 Y70.6108 E0.0121
G1 X93.6569 Y70.9546 E0.0122
G1 X93.6570 Y71.3969 E0.0156
G1 X93.7058 Y71.7406 E0.0122
G1 X93.7932 Y72.0717 E0.0121
G1 X93.9210 Y72.3896 E0.0121
G1 X94.0843 Y72.6898 E0.0121
G1 X94.2833 Y72.9674 E0.0120
G1 X94.5136 Y73.2206 E0.0121
G1 X94.7738 Y73.4441 E0.0121
G1 X95.0622 Y73.6374 E0.0122
G1 X95.4622 Y73.8313 E0.0157
G1 X95.7938 Y73.9372 E0.0123
G1 X96.1291 Y74.0019 E0.0120
G1 X96.4760 Y74.0265 E0.0123
G1 X96.9250 Y73.9953 E0.0159
G1 X97.3645 Y73.8927 E0.0159
G1 X97.6880 Y73.7665 E0.0122
G1 X97.9906 Y73.6059 E0.0121
G1 X98.2711 Y73.4092 E0.0121
G1 X98.5257 Y73.1813 E0.0120
G1 X98.7512 Y72.9244 E0.0121
G1 X98.9452 Y72.6417 E0.0121
G1 X99.1028 Y72.3382 E0.0121
G1 X99.2228 Y72.0190 E0.0120
G1 X99.3037 Y71.6930 E0.0118
G1 X99.3372 Y71.4546 E0.0085
G1 X99.7361 Y71.4906 F6600
G1 X99.7516 Y71.1072 E0.0135 F281
G1 X99.7194 Y70.7174 E0.0138
G1 X99.6412 Y70.3352 E0.0138
G1 X99.5153 Y69.9569 E0.0141
G1 X99.2937 Y69.5090 E0.0176
G1 X99.0664 Y69.1783 E0.0142
G1 X98.8093 Y68.8855 E0.0137
G1 X98.5188 Y68.6258 E0.0137
G1 X98.1985 Y68.4016 E0.0138
G1 X97.8536 Y68.2186 E0.0138
G1 X97.4817 Y68.0738 E0.0141
G1 X96.9927 Y67.9599 E0.0177
G1 X96.5953 Y67.9246 E0.0141
G1 X96.2062 Y67.9365 E0.0137
G1 X95.8103 Y67.9961 E0.0141
G1 X95.3294 Y68.1401 E0.0177
G1 X94.9673 Y68.3075 E0.0141
G1 X94.6259 Y68.5162 E0.0141
G1 X94.2394 Y68.8362 E0.0177
G1 X93.9706 Y69.1320 E0.0141
G1 X93.7439 Y69.4488 E0.0137
G1 X93.5579 Y69.7912 E0.0137
G1 X93.4123 Y70.1537 E0.0138
G1 X93.3127 Y70.5316 E0.0138
G1 X93.2569 Y70.9265 E0.0141
G1 X93.2570 Y71.4252 E0.0176
G1 X93.3131 Y71.8200 E0.0141
G1 X93.4128 Y72.1978 E0.0138
G1 X93.5586 Y72.5603 E0.0138
G1 X93.7448 Y72.9027 E0.0137
G1 X93.9717 Y73.2193 E0.0137
G1 X94.2343 Y73.5080 E0.0138
G1 X94.5313 Y73.7631 E0.0138
G1 X94.8627 Y73.9852 E0.0141
G1 X95.3133 Y74.2037 E0.0177
G1 X95.6948 Y74.3255 E0.0141
G1 X96.0770 Y74.3992 E0.0137
G1 X96.4757 Y74.4274 E0.0141
G1 X96.9846 Y74.3921 E0.0180
G1 X97.4833 Y74.2757 E0.0181
G1 X97.8551 Y74.1307 E0.0141
G1 X98.2000 Y73.9476 E0.0138
G1 X98.5202 Y73.7231 E0.0138
G1 X98.8105 Y73.4633 E0.0137
G1 X99.0675 Y73.1703 E0.0137
G1 X99.2889 Y72.8478 E0.0138
G1 X99.4688 Y72.5013 E0.0138
G1 X99.6054 Y72.1379 E0.0137
G1 X99.6969 Y71.7692 E0.0134
G1 X99.7361 Y71.4906 E0.0099
G1 E-4.0000 F4800 ; e-retract 4
G1 Z0.3000 F6600 ; z-hop start
G1 X97.7455 Y71.2969
G1 X84.5000 Y64.6750
G1 Z0.2000 ; z-hop end
G1 E4.0000 F4800 ; e-engage 4
G1 Y132.5567 E2.3939 F600
G1 X88.6086 Y149.6750 E0.6208
G1 X93.1142 E0.1589
G1 X96.2296 Y152.7904 E0.1554
G1 X95.7182 Y154.0250 E0.0471
G1 X93.7492 E0.0694
G1 X95.0492 Y155.3250 E0.0648
G1 X99.9508 E0.1729
G1 X101.2508 Y154.0250 E0.0648
G1 X99.2818 E0.0694
G1 X98.7704 Y152.7904 E0.0471
G1 X101.8858 Y149.6750 E0.1554
G1 X113.1142 E0.3960
G1 X116.2296 Y152.7904 E0.1554
G1 X115.7182 Y154.0250 E0.0471
G1 X113.7492 E0.0694
G1 X115.0492 Y155.3250 E0.0648
G1 X119.9508 E0.1729
G1 X121.2508 Y154.0250 E0.0648
G1 X119.2818 E0.0694
G1 X118.7704 Y152.7904 E0.0471
G1 X121.8858 Y149.6750 E0.1554
G1 X126.6881 E0.1694
G1 X135.5000 Y132.4343 E0.6828
G1 Y64.6750 E2.3896
G1 X84.5000 E1.7985
G1 X84.1000 Y64.2750 F6600
G1 Y132.6040 E2.4096 F600
G1 X88.2666 Y149.9639 E0.6296
G1 X88.2719 Y150.0750 E0.0039
G1 X92.9485 E0.1649
G1 X95.7577 Y152.8842 E0.1401
G1 X95.4509 Y153.6250 E0.0283
G1 X93.2400 E0.0780
G1 Y154.0815 E0.0161
G1 X94.8835 Y155.7250 E0.0820
G1 X100.1165 E0.1845
G1 X101.7600 Y154.0815 E0.0820
G1 Y153.6250 E0.0161
G1 X99.5491 E0.0780
G1 X99.2423 Y152.8842 E0.0283
G1 X102.0515 Y150.0750 E0.1401
G1 X112.9485 E0.3843
G1 X115.7578 Y152.8842 E0.1401
G1 X115.4509 Y153.6250 E0.0283
G1 X113.2400 E0.0780
G1 Y154.0815 E0.0161
G1 X114.8835 Y155.7250 E0.0820
G1 X120.1165 E0.1845
G1 X121.7600 Y154.0815 E0.0820
G1 Y153.6250 E0.0161
G1 X119.5491 E0.0780
G1 X119.2423 Y152.8842 E0.0283
G1 X122.0515 Y150.0750 E0.1401
G1 X126.9328 E0.1721
G1 X135.9000 Y132.5306 E0.6948
G1 Y64.2750 E2.4071
G1 X84.1000 E1.8267
G1 X83.7000 Y63.8750 F6600
G1 Y132.6513 E2.4254 F600
G1 X87.8689 Y150.0206 E0.6299
G1 X87.8906 Y150.4750 E0.0160
G1 X92.7828 E0.1725
G1 X95.2859 Y152.9781 E0.1248
G1 X95.1836 Y153.2250 E0.0094
G1 X92.8400 E0.0826
G1 Y154.2472 E0.0360
G1 X94.7178 Y156.1250 E0.0937
G1 X100.2822 E0.1962
G1 X102.1600 Y154.2472 E0.0937
G1 Y153.2250 E0.0360
G1 X99.8164 E0.0826
G1 X99.7141 Y152.9781 E0.0094
G1 X102.2172 Y150.4750 E0.1248
G1 X112.7828 E0.3726
G1 X115.2859 Y152.9781 E0.1248
G1 X115.1836 Y153.2250 E0.0094
G1 X112.8400 E0.0826
G1 Y154.2472 E0.0360
G1 X114.7178 Y156.1250 E0.0937
G1 X120.2822 E0.1962
G1 X122.1600 Y154.2472 E0.0937
G1 Y153.2250 E0.0360
G1 X119.8164 E0.0826
G1 X119.7141 Y152.9781 E0.0094
G1 X122.2172 Y150.4750 E0.1248
G1 X127.1776 E0.1749
G1 X136.3000 Y132.6269 E0.7069
G1 Y63.8750 E2.4246
G1 X83.7000 E1.8550
G1 E-4.0000 F4800 ; e-retract 4
G1 Z0.3000 F6600 ; z-hop start
; feature solid fill
G1 X84.6907 Y65.6124
G1 X84.8940 Y64.9350
G1 Z0.2000 ; z-hop end
G1 E4.0000 F4800 ; e-engage 4
G1 X135.2400 Y115.2810 E3.1433 F2100
G1 Y114.7153 E0.0250
G1 X94.7387 Y74.2141 E2.5286
G1 X95.6773 Y74.5869 F6600
G1 X135.2400 Y114.1496 E2.4700 F2100
G1 Y113.5840 E0.0250
G1 X96.3341 Y74.6781 E2.4290
G1 X96.8816 Y74.6599 E0.0242
G1 X135.2400 Y113.0183 E2.3948
