;FLAVOR:Marlin
;TIME:16787
;Filament used: 14.0992m
;Layer height: 0.28
;MINX:48.367
;MINY:56.036
;MINZ:0.28
;MAXX:167.803
;MAXY:154.764
;MAXZ:18.76
;Generated with Cura_SteamEngine 4.13.0
M140 S60
M105
M190 S60
M104 S200
M105
M109 S200
M82 ;absolute extrusion mode
; Ender 3 Custom Start G-code
G92 E0 ; Reset Extruder
G28 ; Home all axes
G1 Z2.0 F3000 ; Move Z Axis up little to prevent scratching of Heat Bed
G1 X0.1 Y20 Z0.3 F5000.0 ; Move to start position
G1 X0.1 Y200.0 Z0.3 F1500.0 E15 ; Draw the first line
G1 X0.4 Y200.0 Z0.3 F5000.0 ; Move to side a little
G1 X0.4 Y20 Z0.3 F1500.0 E30 ; Draw the second line
G92 E0 ; Reset Extruder
G1 Z2.0 F3000 ; Move Z Axis up little to prevent scratching of Heat Bed
G1 X5 Y20 Z0.3 F5000.0 ; Move over to prevent blob squish
G92 E0
G92 E0
G1 F1500 E-6.5
;LAYER_COUNT:67
;LAYER:0
M107
G0 F6000 X61.124 Y61.046 Z0.28
;TYPE:SKIRT
G1 F1500 E0
G1 F1200 X61.234 Y60.943 E0.00702
G1 X61.945 Y60.331 E0.0507
G1 X62.332 Y60.04 E0.07325
G1 X62.844 Y59.672 E0.10261
G1 X63.628 Y59.157 E0.14628
G1 X64.5 Y58.689 E0.19237
G1 X65.116 Y58.393 E0.22419
G1 X66.001 Y58.015 E0.269
G1 X66.269 Y57.914 E0.28234
G1 X66.802 Y57.728 E0.30862
G1 X67.181 Y57.607 E0.32715
G1 X67.73 Y57.448 E0.35376
G1 X68.156 Y57.336 E0.37427
G1 X68.739 Y57.199 E0.40216
G1 X69.727 Y56.996 E0.44913
G1 X70.138 Y56.92 E0.46859
G1 X70.824 Y56.806 E0.50097
G1 X71.084 Y56.766 E0.51322
G1 X71.571 Y56.697 E0.53612
G1 X71.807 Y56.666 E0.54721
G1 X72.388 Y56.597 E0.57445
G1 X73.141 Y56.518 E0.6097
G1 X73.536 Y56.483 E0.62817
G1 X74.358 Y56.415 E0.66658
G1 X75.126 Y56.362 E0.70242
G1 X76.285 Y56.296 E0.75648
G1 X76.927 Y56.265 E0.78641
G1 X78.23 Y56.213 E0.84713
G1 X79.72 Y56.169 E0.91654
G1 X81.756 Y56.128 E1.01136
G1 X83.506 Y56.105 E1.09286
G1 X86.219 Y56.077 E1.21919
G1 X89.004 Y56.058 E1.34888
G1 X91.814 Y56.046 E1.47972
G1 X94.634 Y56.041 E1.61103
G1 X108.638 Y56.036 E2.26312
G1 X121.553 Y56.041 E2.8645
G1 X124.384 Y56.046 E2.99632
G1 X127.196 Y56.058 E3.12726
G1 X129.99 Y56.078 E3.25736
G1 X132.944 Y56.108 E3.39492
G1 X134.906 Y56.137 E3.48629
G1 X136.592 Y56.173 E3.56481
G1 X137.176 Y56.189 E3.59202
G1 X138.628 Y56.239 E3.65967
G1 X139.273 Y56.267 E3.68973
G1 X140.017 Y56.303 E3.72442
G1 X141.305 Y56.378 E3.78449
G1 X141.968 Y56.427 E3.81545
G1 X142.72 Y56.49 E3.85059
G1 X143.206 Y56.536 E3.87332
G1 X143.913 Y56.611 E3.90642
G1 X144.36 Y56.665 E3.92739
G1 X145.134 Y56.772 E3.96377
G1 X145.409 Y56.814 E3.97673
G1 X146.292 Y56.961 E4.01841
G1 X146.618 Y57.021 E4.03384
G1 X146.78 Y57.053 E4.04153
G1 X147.265 Y57.16 E4.06466
G1 X148.245 Y57.4 E4.11164
G1 X148.803 Y57.552 E4.13857
G1 X149.085 Y57.637 E4.15229
G1 X149.546 Y57.787 E4.17486
G1 X149.803 Y57.877 E4.18754
G1 X150.337 Y58.08 E4.21414
G1 X150.647 Y58.207 E4.22974
G1 X151.107 Y58.408 E4.25311
G1 X151.496 Y58.596 E4.27323
G1 X151.874 Y58.788 E4.29297
G1 X152.946 Y59.411 E4.35071
G1 X153.213 Y59.587 E4.3656
G1 X153.655 Y59.894 E4.39066
G1 X153.834 Y60.025 E4.40099
G1 X154.649 Y60.683 E4.44976
G1 X154.812 Y60.828 E4.45992
G1 X155.389 Y61.381 E4.49713
G1 X155.527 Y61.523 E4.50635
G1 X156.186 Y62.265 E4.55256
G1 X156.395 Y62.523 E4.56803
G1 X157.033 Y63.394 E4.6183
G1 X157.149 Y63.57 E4.62811
G1 X157.405 Y63.978 E4.65054
G1 X157.457 Y64.066 E4.6553
G1 X158.841 Y66.298 E4.77759
G1 X159.036 Y66.594 E4.7941
G1 X159.616 Y67.505 E4.84439
G1 X160.086 Y68.317 E4.88807
G1 X160.484 Y69.166 E4.93173
G1 X160.809 Y70.046 E4.97542
G1 X161.058 Y70.95 E5.01908
G1 X161.229 Y71.872 E5.06274
G1 X161.332 Y73.092 E5.11975
G1 X161.34 Y73.366 E5.13252
G1 X161.343 Y73.912 E5.15794
G1 X161.343 Y76.495 E5.27822
G1 X161.413 Y79.018 E5.39574
G1 X161.556 Y81.554 E5.51402
G1 X161.765 Y84.023 E5.62939
G1 X162.134 Y87.191 E5.77791
G1 X162.52 Y90.237 E5.92088
G1 X162.901 Y92.682 E6.0361
G1 X163.366 Y95.202 E6.15542
G1 X163.885 Y97.63 E6.27103
G1 X164.479 Y100.074 E6.38815
G1 X165.145 Y102.5 E6.50529
G1 X166.043 Y105.423 E6.64768
G1 X166.259 Y106.089 E6.68028
G1 X166.586 Y107.34 E6.74049
G1 X166.74 Y108.114 E6.77724
G1 X166.837 Y108.682 E6.80407
G1 X167.017 Y109.923 E6.86246
G1 X167.052 Y110.189 E6.87495
G1 X167.172 Y111.187 E6.92176
G1 X167.199 Y111.432 E6.93324
G1 X167.311 Y112.58 E6.98695
G1 X167.396 Y113.623 E7.03567
G1 X167.473 Y114.766 E7.08902
G1 X167.519 Y115.558 E7.12596
G1 X167.578 Y116.828 E7.18516
G1 X167.603 Y117.45 E7.21414
G1 X167.631 Y118.292 E7.25337
G1 X167.662 Y119.431 E7.30643
G1 X167.695 Y121.114 E7.38481
G1 X167.716 Y122.674 E7.45746
G1 X167.737 Y125.036 E7.56745
G1 X167.766 Y129.616 E7.78072
G1 X167.787 Y134.312 E7.99938
G1 X167.798 Y137.852 E8.16422
G1 X167.796 Y138.062 E8.174
G1 X167.803 Y142.466 E8.37907
G1 X167.791 Y143.332 E8.4194
G1 X167.771 Y143.864 E8.44419
G1 X167.753 Y144.153 E8.45767
G1 X167.655 Y145.086 E8.50135
G1 X167.477 Y146.006 E8.54499
G1 X167.222 Y146.909 E8.58868
G1 X166.77 Y148.06 E8.64626
G1 X166.674 Y148.269 E8.65697
G1 X166.246 Y149.104 E8.70066
G1 X165.749 Y149.9 E8.74436
G1 X165.187 Y150.65 E8.788
G1 X164.562 Y151.349 E8.83166
G1 X163.88 Y151.993 E8.87534
G1 X163.145 Y152.576 E8.91902
G1 X162.364 Y153.095 E8.96268
G1 X161.34 Y153.641 E9.01672
G1 X161.184 Y153.714 E9.02474
G1 X160.319 Y154.075 E9.06838
G1 X159.425 Y154.361 E9.11209
G1 X158.511 Y154.57 E9.15575
G1 X157.582 Y154.7 E9.19943
G1 X156.702 Y154.75 E9.24047
G1 X156.09 Y154.76 E9.26897
G1 X155.744 Y154.76 E9.28508
G1 X154.074 Y154.734 E9.36286
G1 X153.76 Y154.725 E9.37748
G1 X152.362 Y154.714 E9.44258
G1 X148.822 Y154.711 E9.60742
G1 X140.698 Y154.711 E9.98571
G1 X139.634 Y154.717 E10.03525
G1 X138.734 Y154.726 E10.07716
G1 X138.46 Y154.726 E10.08992
G1 X138.175 Y154.722 E10.10319
G1 X136.704 Y154.711 E10.17169
G1 X79.733 Y154.712 E12.8245
G1 X78.675 Y154.718 E12.87376
G1 X77.756 Y154.726 E12.91656
G1 X76.049 Y154.712 E12.99605
G1 X63.514 Y154.715 E13.57973
G1 X61.546 Y154.751 E13.67138
G1 X60.328 Y154.764 E13.7281
G1 X60.024 Y154.763 E13.74226
G1 X59.554 Y154.755 E13.76414
G1 X58.618 Y154.699 E13.80781
G1 X57.69 Y154.564 E13.85147
G1 X56.422 Y154.244 E13.91237
G1 X56.204 Y154.175 E13.92301
G1 X55.322 Y153.854 E13.96672
G1 X54.472 Y153.46 E14.01034
G1 X53.658 Y152.994 E14.05402
G1 X52.886 Y152.46 E14.09773
G1 X52.163 Y151.863 E14.14139
G1 X51.536 Y151.251 E14.18219
G1 X51.429 Y151.138 E14.18943
G1 X50.813 Y150.43 E14.23313
G1 X50.261 Y149.673 E14.27676
G1 X49.775 Y148.871 E14.32042
G1 X49.359 Y148.03 E14.36411
G1 X49.016 Y147.157 E14.40779
G1 X48.748 Y146.258 E14.45147
G1 X48.558 Y145.34 E14.49512
G1 X48.457 Y144.519 E14.53364
G1 X48.418 Y144.066 E14.55481
G1 X48.385 Y143.535 E14.57958
G1 X48.377 Y143.322 E14.58951
G1 X48.369 Y142.954 E14.60665
G1 X48.367 Y142.404 E14.63226
G1 X48.371 Y140.647 E14.71407
G1 X48.375 Y140.361 E14.72739
G1 X48.371 Y138.028 E14.83603
G1 X48.38 Y135.123 E14.9713
G1 X48.411 Y128.353 E15.28654
G1 X48.433 Y125.005 E15.44244
G1 X48.458 Y122.387 E15.56435
G1 X48.471 Y121.375 E15.61148
G1 X48.495 Y120.071 E15.67221
G1 X48.512 Y119.273 E15.70937
G1 X48.542 Y118.226 E15.75815
G1 X48.581 Y117.099 E15.81065
G1 X48.609 Y116.453 E15.84076
G1 X48.644 Y115.718 E15.87503
G1 X48.673 Y115.187 E15.89979
G1 X48.748 Y113.989 E15.95568
G1 X48.804 Y113.231 E15.99107
G1 X48.88 Y112.361 E16.03174
G1 X48.978 Y111.375 E16.07788
G1 X49.002 Y111.156 E16.08814
G1 X49.122 Y110.153 E16.13517
G1 X49.159 Y109.872 E16.14837
G1 X49.326 Y108.727 E16.20225
G1 X49.364 Y108.487 E16.21357
G1 X49.426 Y108.119 E16.23094
G1 X49.47 Y107.875 E16.24249
G1 X49.54 Y107.51 E16.25979
G1 X49.845 Y106.296 E16.31808
G1 X50.149 Y105.328 E16.36532
G1 X50.464 Y104.37 E16.41228
G1 X51.177 Y101.971 E16.52882
G1 X51.833 Y99.509 E16.64746
G1 X52.404 Y97.097 E16.76288
G1 X52.919 Y94.613 E16.881
G1 X53.35 Y92.18 E16.99606
G1 X53.898 Y88.305 E17.17829
G1 X54.099 Y86.632 E17.25675
G1 X54.286 Y85.12 E17.32769
G1 X54.529 Y82.626 E17.44437
G1 X54.7 Y80.128 E17.56096
G1 X54.8 Y77.636 E17.67709
G1 X54.829 Y74.318 E17.8316
G1 X54.826 Y74.056 E17.8438
G1 X54.826 Y73.784 E17.85647
G1 X54.834 Y73.25 E17.88133
G1 X54.888 Y72.314 E17.92499
G1 X55.022 Y71.386 E17.96865
G1 X55.234 Y70.472 E18.01234
G1 X55.523 Y69.58 E18.056
G1 X55.887 Y68.716 E18.09966
G1 X56.465 Y67.65 E18.15612
G1 X56.623 Y67.395 E18.17009
G1 X57.965 Y65.284 E18.28657
G1 X58.196 Y64.901 E18.30739
G1 X58.871 Y63.806 E18.36729
G1 X59.254 Y63.227 E18.39962
G1 X59.423 Y62.988 E18.41325
G1 X59.88 Y62.386 E18.44844
G1 X60.323 Y61.871 E18.48007
G1 X60.53 Y61.645 E18.49434
G1 X61.124 Y61.046 E18.53362
G0 F6000 X61.397 Y61.338
G1 F1200 X61.507 Y61.235 E18.54064
G1 X62.565 Y60.365 E18.60442
G1 X63.077 Y59.997 E18.63378
G1 X63.848 Y59.492 E18.6767
G1 X64.673 Y59.05 E18.72028
G1 X65.289 Y58.754 E18.7521
G1 X66.142 Y58.389 E18.79531
G1 X66.41 Y58.288 E18.80864
G1 X66.924 Y58.109 E18.83399
G1 X67.303 Y57.988 E18.85251
G1 X67.832 Y57.834 E18.87817
G1 X68.258 Y57.722 E18.89868
G1 X68.82 Y57.591 E18.92555
G1 X69.808 Y57.388 E18.97251
G1 X70.203 Y57.314 E18.99123
G1 X70.889 Y57.2 E19.02361
G1 X71.14 Y57.162 E19.03543
G1 X71.627 Y57.093 E19.05833
G1 X71.855 Y57.063 E19.06904
G1 X72.43 Y56.995 E19.096
G1 X73.01 Y56.933 E19.12316
G1 X73.569 Y56.881 E19.1493
G1 X74.386 Y56.814 E19.18748
G1 X75.148 Y56.761 E19.22304
G1 X76.304 Y56.696 E19.27696
G1 X76.943 Y56.665 E19.30675
G1 X78.241 Y56.613 E19.36723
G1 X79.728 Y56.569 E19.43651
G1 X81.762 Y56.528 E19.53124
G1 X83.51 Y56.505 E19.61264
G1 X86.222 Y56.477 E19.73893
G1 X89.005 Y56.458 E19.86852
G1 X91.815 Y56.446 E19.99936
G1 X94.634 Y56.441 E20.13063
G1 X108.638 Y56.436 E20.78271
G1 X121.552 Y56.441 E21.38404
G1 X124.383 Y56.446 E21.51587
G1 X127.193 Y56.458 E21.64671
G1 X129.985 Y56.478 E21.77672
G1 X132.938 Y56.508 E21.91424
G1 X134.898 Y56.537 E22.00551
G1 X136.581 Y56.573 E22.0839
G1 X137.163 Y56.589 E22.11101
G1 X138.611 Y56.639 E22.17847
G1 X139.253 Y56.666 E22.20839
G1 X139.994 Y56.702 E22.24294
G1 X141.276 Y56.777 E22.30274
G1 X141.935 Y56.825 E22.3335
G1 X142.683 Y56.888 E22.36846
G1 X143.164 Y56.933 E22.39095
G1 X143.705 Y56.99 E22.41628
G1 X144.517 Y57.089 E22.45437
G1 X145.079 Y57.168 E22.4808
G1 X145.344 Y57.209 E22.49328
G1 X146.227 Y57.356 E22.53497
G1 X146.54 Y57.413 E22.54978
G1 X146.702 Y57.445 E22.55747
G1 X147.169 Y57.548 E22.57974
G1 X148.149 Y57.788 E22.62672
G1 X148.687 Y57.935 E22.65269
G1 X148.969 Y58.02 E22.6664
G1 X149.413 Y58.165 E22.68815
G1 X149.67 Y58.255 E22.70083
G1 X150.185 Y58.45 E22.72647
G1 X150.495 Y58.577 E22.74207
G1 X150.94 Y58.771 E22.76468
G1 X151.314 Y58.952 E22.78403
G1 X151.692 Y59.144 E22.80377
G1 X152.726 Y59.745 E22.85946
G1 X152.993 Y59.921 E22.87435
G1 X153.419 Y60.217 E22.8985
G1 X153.598 Y60.348 E22.90883
G1 X154.383 Y60.982 E22.95582
G1 X154.546 Y61.127 E22.96597
G1 X155.103 Y61.659 E23.00184
G1 X155.241 Y61.801 E23.01106
G1 X155.876 Y62.517 E23.05562
G1 X156.085 Y62.775 E23.07108
G1 X156.699 Y63.614 E23.1195
G1 X156.815 Y63.79 E23.12931
G1 X157.062 Y64.184 E23.15096
G1 X157.117 Y64.276 E23.15596
G1 X158.496 Y66.499 E23.27777
G1 X158.699 Y66.809 E23.29502
G1 X159.279 Y67.72 E23.34531
G1 X159.739 Y68.518 E23.3882
G1 X160.128 Y69.352 E23.43105
G1 X160.444 Y70.217 E23.47393
G1 X160.683 Y71.106 E23.5168
G1 X160.844 Y72.012 E23.55964
G1 X160.932 Y73.104 E23.61066
G1 X160.94 Y73.378 E23.62342
G1 X160.943 Y73.906 E23.64801
G1 X160.943 Y76.506 E23.76907
G1 X161.014 Y79.053 E23.88772
G1 X161.156 Y81.574 E24.00529
G1 X161.364 Y84.042 E24.12062
G1 X161.745 Y87.303 E24.2735
G1 X162.122 Y90.277 E24.41309
G1 X162.512 Y92.785 E24.53128
G1 X162.968 Y95.254 E24.64819
G1 X163.499 Y97.737 E24.76642
G1 X164.09 Y100.17 E24.88301
G1 X164.756 Y102.596 E25.00015
G1 X165.67 Y105.571 E25.14507
G1 X165.878 Y106.212 E25.17645
G1 X166.193 Y107.419 E25.23454
G1 X166.347 Y108.193 E25.27128
G1 X166.441 Y108.739 E25.29708
G1 X166.621 Y109.98 E25.35547
G1 X166.655 Y110.237 E25.36754
G1 X166.775 Y111.235 E25.41435
G1 X166.801 Y111.471 E25.4254
G1 X166.913 Y112.619 E25.47911
G1 X167.008 Y113.797 E25.53414
G1 X167.079 Y114.877 E25.58454
G1 X167.119 Y115.577 E25.61719
G1 X167.179 Y116.844 E25.67625
G1 X167.203 Y117.464 E25.70514
G1 X167.231 Y118.303 E25.74423
G1 X167.262 Y119.439 E25.79715
G1 X167.295 Y121.119 E25.87539
G1 X167.316 Y122.678 E25.94799
G1 X167.337 Y125.039 E26.05794
G1 X167.366 Y129.617 E26.27111
G1 X167.387 Y134.313 E26.48978
G1 X167.398 Y137.853 E26.65462
G1 X167.396 Y138.062 E26.66435
G1 X167.403 Y142.461 E26.86918
G1 X167.391 Y143.327 E26.90951
G1 X167.371 Y143.839 E26.93337
G1 X167.353 Y144.128 E26.94686
G1 X167.256 Y145.043 E26.9897
G1 X167.08 Y145.947 E27.03258
G1 X166.826 Y146.832 E27.07546
G1 X166.406 Y147.893 E27.12859
G1 X166.31 Y148.102 E27.1393
G1 X165.89 Y148.922 E27.1822
G1 X165.4 Y149.701 E27.22505
G1 X164.845 Y150.435 E27.2679
G1 X164.228 Y151.119 E27.3108
G1 X163.554 Y151.746 E27.35366
G1 X162.828 Y152.312 E27.39653
G1 X162.055 Y152.813 E27.43942
G1 X161.171 Y153.279 E27.48595
G1 X161.015 Y153.352 E27.49397
G1 X160.165 Y153.705 E27.53683
G1 X159.287 Y153.984 E27.57973
G1 X158.389 Y154.185 E27.62258
G1 X157.476 Y154.308 E27.66547
G1 X156.695 Y154.35 E27.70189
G1 X156.083 Y154.36 E27.73039
G1 X155.75 Y154.36 E27.7459
G1 X154.085 Y154.334 E27.82344
G1 X153.774 Y154.325 E27.83792
G1 X152.365 Y154.314 E27.90354
G1 X148.822 Y154.311 E28.06851
G1 X140.696 Y154.311 E28.44689
G1 X139.632 Y154.317 E28.49644
G1 X138.73 Y154.326 E28.53844
G1 X138.465 Y154.326 E28.55078
G1 X138.182 Y154.322 E28.56396
G1 X136.707 Y154.311 E28.63264
G1 X79.731 Y154.312 E31.28569
G1 X78.673 Y154.318 E31.33495
G1 X77.759 Y154.326 E31.37751
G1 X76.051 Y154.312 E31.45705
G1 X63.506 Y154.315 E32.04119
G1 X61.542 Y154.351 E32.13266
G1 X60.324 Y154.364 E32.18938
G1 X60.031 Y154.363 E32.20302
G1 X59.561 Y154.355 E32.22491
G1 X58.642 Y154.3 E32.26778
G1 X57.731 Y154.165 E32.31066
G1 X56.542 Y153.863 E32.36779
G1 X56.324 Y153.794 E32.37843
G1 X55.46 Y153.478 E32.42127
G1 X54.625 Y153.089 E32.46417
G1 X53.828 Y152.628 E32.50704
G1 X53.074 Y152.1 E32.5499
G1 X52.368 Y151.509 E32.59277
G1 X51.826 Y150.976 E32.62817
G1 X51.719 Y150.863 E32.63542
G1 X51.116 Y150.168 E32.67826
G1 X50.575 Y149.423 E32.72113
G1 X50.101 Y148.634 E32.76399
G1 X49.697 Y147.806 E32.80689
G1 X49.367 Y146.947 E32.84974
G1 X49.112 Y146.062 E32.89263
G1 X48.935 Y145.159 E32.93547
G1 X48.855 Y144.484 E32.96712
G1 X48.816 Y144.031 E32.9883
G1 X48.784 Y143.52 E33.01214
G1 X48.776 Y143.307 E33.02206
G1 X48.769 Y142.953 E33.03855
G1 X48.767 Y142.404 E33.06411
G1 X48.771 Y140.653 E33.14565
G1 X48.775 Y140.367 E33.15897
G1 X48.771 Y138.029 E33.26783
G1 X48.78 Y135.125 E33.40306
G1 X48.811 Y128.356 E33.71825
G1 X48.833 Y125.008 E33.87415
G1 X48.858 Y122.392 E33.99597
G1 X48.871 Y121.382 E34.043
G1 X48.895 Y120.08 E34.10364
G1 X48.912 Y119.284 E34.14071
G1 X48.942 Y118.24 E34.18935
G1 X48.981 Y117.116 E34.24172
G1 X49.008 Y116.472 E34.27173
G1 X49.044 Y115.74 E34.30586
G1 X49.072 Y115.212 E34.33048
G1 X49.147 Y114.018 E34.38618
G1 X49.202 Y113.265 E34.42134
G1 X49.278 Y112.401 E34.46173
G1 X49.376 Y111.415 E34.50787
G1 X49.399 Y111.204 E34.51775
G1 X49.519 Y110.201 E34.56479
G1 X49.555 Y109.93 E34.57752
G1 X49.722 Y108.785 E34.6314
G1 X49.758 Y108.554 E34.64228
G1 X49.82 Y108.186 E34.65966
G1 X49.933 Y107.586 E34.68809
G1 X50.227 Y106.415 E34.74431
G1 X50.529 Y105.453 E34.79126
G1 X50.851 Y104.472 E34.83934
G1 X51.562 Y102.082 E34.95544
G1 X52.215 Y99.632 E35.07351
G1 X52.799 Y97.164 E35.1916
G1 X53.312 Y94.692 E35.30916
G1 X53.749 Y92.222 E35.42596
G1 X54.295 Y88.359 E35.60763
G1 X54.496 Y86.681 E35.68632
G1 X54.683 Y85.168 E35.75731
G1 X54.928 Y82.656 E35.87483
G1 X55.1 Y80.138 E35.99235
G1 X55.2 Y77.656 E36.10802
G1 X55.229 Y74.317 E36.2635
G1 X55.226 Y74.052 E36.27584
G1 X55.226 Y73.79 E36.28804
G1 X55.234 Y73.256 E36.31291
G1 X55.288 Y72.337 E36.35578
G1 X55.421 Y71.426 E36.39865
G1 X55.633 Y70.53 E36.44152
G1 X55.922 Y69.656 E36.48439
G1 X56.285 Y68.81 E36.52725
G1 X56.805 Y67.86 E36.57768
G1 X56.96 Y67.61 E36.59138
G1 X58.313 Y65.483 E36.70876
G1 X58.537 Y65.111 E36.72898
G1 X59.212 Y64.016 E36.78888
G1 X59.58 Y63.458 E36.82
G1 X59.749 Y63.219 E36.83363
G1 X60.19 Y62.638 E36.8676
G1 X60.618 Y62.141 E36.89814
G1 X60.825 Y61.915 E36.91241
G1 X61.397 Y61.338 E36.95024
