;FLAVOR:Marlin
;TIME:3404
;Filament used: 2.17888m
;Layer height: 0.24
;MINX:19.12
;MINY:21.951
;MINZ:0.2
;MAXX:205.838
;MAXY:202.304
;MAXZ:3.08
;TARGET_MACHINE.NAME:Creality Ender-3 Pro
;Generated with Cura_SteamEngine 5.8.1
M82 ;absolute extrusion mode
; Ender 3 Custom Start G-code
G92 E0 ; Reset Extruder
G28 ; Home all axes
G1 Z5.0 F3000 ; Move Z Axis up a bit during heating to not damage bed
M104 S175 ; Start heating up the nozzle most of the way
M190 S60 ; Start heating the bed, wait until target temperature reached
M109 S215.0 ; Finish heating the nozzle
G1 Z2.0 F3000 ; Move Z Axis up little to prevent scratching of Heat Bed
G1 X0.1 Y20 Z0.3 F5000.0 ; Move to start position
G1 X0.1 Y200.0 Z0.3 F1500.0 E15 ; Draw the first line
G1 X0.4 Y200.0 Z0.3 F5000.0 ; Move to side a little
G1 X0.4 Y20 Z0.3 F1500.0 E30 ; Draw the second line
G92 E0 ; Reset Extruder
G1 Z2.0 F3000 ; Move Z Axis up little to prevent scratching of Heat Bed
G1 X5 Y20 Z0.3 F5000.0 ; Move over to prevent blob squish
G92 E0
G92 E0
G1 F1500 E-6.5
;LAYER_COUNT:13
;LAYER:0
M107
G0 F6000 X110.176 Y72.64 Z0.2
;TYPE:SKIRT
G1 F1500 E0
G1 F1200 X110.721 Y72.146 E0.02447
G1 X111.576 Y71.425 E0.06166
G1 X112.554 Y70.701 E0.10214
G1 X113.142 Y70.315 E0.12553
G1 X114.006 Y69.805 E0.1589
G1 X114.678 Y69.458 E0.18405
G1 X115.027 Y69.29 E0.19694
G1 X115.934 Y68.904 E0.22972
G1 X116.583 Y68.664 E0.25274
G1 X117.587 Y68.347 E0.28775
G1 X118.21 Y68.187 E0.30915
G1 X119.1 Y67.977 E0.33956
G1 X120.74 Y67.617 E0.39541
G1 X123.235 Y66.995 E0.48093
G1 X125.644 Y66.321 E0.56413
G1 X128.057 Y65.573 E0.64816
G1 X130.378 Y64.778 E0.72976
G1 X132.797 Y63.875 E0.81564
G1 X135.115 Y62.934 E0.89884
G1 X137.412 Y61.923 E0.98231
G1 X139.694 Y60.843 E1.06629
G1 X141.931 Y59.705 E1.14976
G1 X144.137 Y58.503 E1.23332
G1 X146.318 Y57.232 E1.31728
G1 X148.488 Y55.886 E1.40221
G1 X150.545 Y54.529 E1.48417
G1 X152.591 Y53.091 E1.56735
G1 X154.657 Y51.552 E1.65303
G1 X156.603 Y50.015 E1.73551
G1 X158.538 Y48.397 E1.8194
G1 X160.426 Y46.722 E1.90335
G1 X162.28 Y44.985 E1.98785
G1 X163.396 Y43.887 E2.03992
G1 X181.773 Y25.512 E2.90427
G1 X182.262 Y25.038 E2.92692
G1 X183.005 Y24.383 E2.95987
G1 X183.79 Y23.805 E2.99229
G1 X184.623 Y23.3 E3.02469
G1 X185.495 Y22.87 E3.05703
G1 X186.336 Y22.541 E3.08706
G1 X187.34 Y22.25 E3.12183
G1 X188.298 Y22.064 E3.15429
G1 X189.266 Y21.965 E3.18665
G1 X190.239 Y21.951 E3.21902
G1 X191.21 Y22.023 E3.2514
G1 X192.172 Y22.18 E3.28382
G1 X193.114 Y22.422 E3.31617
G1 X193.966 Y22.72 E3.34619
G1 X194.919 Y23.153 E3.38101
G1 X195.765 Y23.634 E3.41338
G1 X196.541 Y24.169 E3.44472
G1 X197.462 Y24.946 E3.4848
G1 X197.916 Y25.382 E3.50574
G1 X202.292 Y29.76 E3.71162
G1 X202.771 Y30.256 E3.73455
G1 X203.393 Y30.959 E3.76577
G1 X203.992 Y31.773 E3.79939
G1 X204.462 Y32.544 E3.82942
G1 X204.925 Y33.48 E3.86415
G1 X205.274 Y34.389 E3.89654
G1 X205.543 Y35.326 E3.92896
G1 X205.727 Y36.282 E3.96134
G1 X205.825 Y37.25 E3.9937
G1 X205.838 Y38.224 E4.0261
G1 X205.765 Y39.196 E4.05852
G1 X205.606 Y40.156 E4.09088
G1 X205.383 Y41.031 E4.12092
G1 X205.036 Y42.016 E4.15565
G1 X204.63 Y42.903 E4.1881
G1 X204.167 Y43.718 E4.21927
G1 X203.612 Y44.522 E4.25177
G1 X202.842 Y45.434 E4.29146
G1 X202.418 Y45.876 E4.31184
G1 X176.703 Y71.591 E5.52139
G1 X174.85 Y73.497 E5.60981
G1 X173.141 Y75.358 E5.69384
G1 X171.494 Y77.255 E5.7774
G1 X169.91 Y79.19 E5.86057
G1 X168.342 Y81.219 E5.94586
G1 X166.865 Y83.244 E6.02922
G1 X165.45 Y85.306 E6.1124
G1 X164.085 Y87.419 E6.19607
G1 X162.787 Y89.563 E6.27943
G1 X161.535 Y91.765 E6.36368
G1 X160.354 Y93.987 E6.44737
G1 X159.237 Y96.241 E6.53104
G1 X158.201 Y98.491 E6.61343
G1 X156.714 Y102.028 E6.74104
G1 X156.389 Y102.729 E6.76674
G1 X156.071 Y103.352 E6.79001
G1 X155.429 Y104.441 E6.83205
G1 X155.012 Y105.058 E6.85682
G1 X154.184 Y106.123 E6.90169
G1 X153.636 Y106.74 E6.92914
G1 X153.007 Y107.388 E6.95917
G1 X152.542 Y107.803 E6.9799
G1 X152.141 Y108.143 E6.99739
G1 X151.28 Y108.796 E7.03333
G1 X150.649 Y109.223 E7.05867
G1 X149.505 Y109.895 E7.1028
G1 X148.846 Y110.228 E7.12736
G1 X148.402 Y110.44 E7.14372
G1 X145.783 Y111.615 E7.23919
G1 X143.505 Y112.718 E7.32338
G1 X141.316 Y113.856 E7.40543
G1 X139.05 Y115.116 E7.49167
G1 X136.942 Y116.367 E7.5732
G1 X134.794 Y117.726 E7.65774
G1 X132.687 Y119.143 E7.74219
G1 X130.66 Y120.593 E7.82508
G1 X128.656 Y122.112 E7.90872
G1 X126.677 Y123.704 E7.9932
G1 X124.771 Y125.327 E8.07646
G1 X122.893 Y127.02 E8.16056
G1 X121.096 Y128.736 E8.2432
G1 X119.292 Y130.557 E8.32845
G1 X117.594 Y132.373 E8.41114
G1 X115.936 Y134.249 E8.49442
G1 X114.289 Y136.22 E8.57985
G1 X112.748 Y138.176 E8.66267
G1 X111.25 Y140.192 E8.74621
G1 X109.809 Y142.251 E8.82979
G1 X108.415 Y144.366 E8.91404
G1 X107.098 Y146.496 E8.99734
G1 X105.83 Y148.68 E9.08133
G1 X104.645 Y150.861 E9.16389
G1 X103.488 Y153.143 E9.24899
G1 X102.393 Y155.447 E9.33383
G1 X102.089 Y156.044 E9.35611
G1 X101.773 Y156.604 E9.3775
G1 X101.525 Y157.013 E9.39341
G1 X101.049 Y157.733 E9.42212
G1 X100.572 Y158.371 E9.44861
G1 X100.225 Y158.804 E9.46707
G1 X99.587 Y159.529 E9.49919
G1 X98.846 Y160.25 E9.53357
G1 X97.949 Y161.017 E9.57283
G1 X97.365 Y161.462 E9.59725
G1 X96.47 Y162.073 E9.63329
G1 X95.879 Y162.422 E9.65612
G1 X95.448 Y162.659 E9.67248
G1 X94.597 Y163.08 E9.70406
G1 X92.026 Y164.213 E9.79751
G1 X89.774 Y165.281 E9.8804
G1 X87.506 Y166.434 E9.96503
G1 X85.312 Y167.629 E10.04812
G1 X83.131 Y168.9 E10.13208
G1 X80.961 Y170.246 E10.21701
G1 X78.918 Y171.595 E10.29844
G1 X76.836 Y173.057 E10.38305
G1 X74.801 Y174.572 E10.46744
G1 X72.845 Y176.119 E10.55038
G1 X70.916 Y177.731 E10.63399
G1 X69.013 Y179.417 E10.71855
G1 X67.168 Y181.146 E10.80265
G1 X65.987 Y182.308 E10.85776
G1 X63.918 Y184.377 E10.95508
G1 X63.207 Y185.066 E10.98801
G1 X62.439 Y185.762 E11.02248
G1 X61.96 Y186.162 E11.04324
G1 X61.494 Y186.529 E11.06297
G1 X60.947 Y186.937 E11.08566
G1 X60.465 Y187.273 E11.1052
G1 X59.963 Y187.601 E11.12515
G1 X59.419 Y187.937 E11.14642
G1 X58.87 Y188.251 E11.16745
G1 X55.93 Y189.815 E11.27821
G1 X53.756 Y191.047 E11.36132
G1 X51.601 Y192.348 E11.44505
G1 X49.459 Y193.727 E11.52978
G1 X47.408 Y195.131 E11.61245
G1 X45.343 Y196.631 E11.69734
G1 X43.383 Y198.142 E11.77965
G1 X41.264 Y199.862 E11.87042
G1 X40.466 Y200.449 E11.90337
G1 X39.633 Y200.955 E11.93579
G1 X38.759 Y201.385 E11.96819
G1 X37.851 Y201.735 E12.00055
G1 X36.916 Y202.005 E12.03292
G1 X35.958 Y202.191 E12.06538
G1 X34.99 Y202.29 E12.09774
G1 X34.017 Y202.304 E12.13011
G1 X33.046 Y202.232 E12.16249
G1 X32.084 Y202.075 E12.19491
G1 X31.142 Y201.833 E12.22726
G1 X30.289 Y201.535 E12.25731
G1 X29.337 Y201.103 E12.29208
G1 X28.49 Y200.623 E12.32446
G1 X27.746 Y200.111 E12.3545
G1 X26.786 Y199.302 E12.39626
G1 X26.343 Y198.877 E12.41668
G1 X22.698 Y195.232 E12.58813
G1 X22.218 Y194.738 E12.61104
G1 X21.562 Y193.995 E12.644
G1 X20.983 Y193.211 E12.67642
G1 X20.477 Y192.38 E12.70878
G1 X20.045 Y191.507 E12.74117
G1 X19.716 Y190.666 E12.77121
G1 X19.424 Y189.663 E12.80596
G1 X19.236 Y188.707 E12.83836
G1 X19.135 Y187.739 E12.87073
G1 X19.12 Y186.764 E12.90316
G1 X19.191 Y185.793 E12.93555
G1 X19.348 Y184.833 E12.9679
G1 X19.588 Y183.888 E13.00033
G1 X19.898 Y183.003 E13.03152
G1 X20.316 Y182.083 E13.06513
G1 X20.797 Y181.236 E13.09752
G1 X21.355 Y180.429 E13.13016
G1 X22.111 Y179.533 E13.16915
G1 X22.535 Y179.091 E13.18952
G1 X26.734 Y174.892 E13.38703
G1 X28.042 Y173.631 E13.44746
G1 X28.669 Y173.059 E13.47569
G1 X30.625 Y171.323 E13.56267
G1 X32.483 Y169.58 E13.6474
G1 X34.27 Y167.803 E13.73122
G1 X36 Y165.983 E13.81474
G1 X37.669 Y164.126 E13.89778
G1 X39.324 Y162.175 E13.98288
G1 X40.873 Y160.241 E14.06529
G1 X42.386 Y158.238 E14.14878
G1 X43.869 Y156.156 E14.2338
G1 X45.257 Y154.087 E14.31666
G1 X46.601 Y151.954 E14.40052
G1 X47.874 Y149.796 E14.48385
G1 X49.097 Y147.59 E14.56774
G1 X50.258 Y145.347 E14.65175
G1 X51.345 Y143.089 E14.7351
G1 X52.385 Y140.767 E14.81972
G1 X53.337 Y138.466 E14.90254
G1 X54.234 Y136.108 E14.98645
G1 X55.069 Y133.719 E15.07063
G1 X55.836 Y131.31 E15.15471
G1 X56.513 Y128.949 E15.2364
G1 X57.205 Y126.216 E15.33017
G1 X57.555 Y124.933 E15.37441
G1 X57.968 Y123.718 E15.41709
G1 X58.267 Y122.992 E15.4432
G1 X58.813 Y121.86 E15.485
G1 X59.168 Y121.222 E15.50929
G1 X59.877 Y120.109 E15.55318
G1 X60.312 Y119.512 E15.57775
G1 X61.087 Y118.566 E15.61842
G1 X61.52 Y118.096 E15.63968
G1 X61.946 Y117.658 E15.66
G1 X62.622 Y117.003 E15.69131
G1 X110.176 Y72.64 E17.85435
G0 F6000 X110.445 Y72.936
G1 F1200 X110.979 Y72.452 E17.87832
G1 X111.834 Y71.731 E17.91552
G1 X112.774 Y71.035 E17.95443
G1 X113.346 Y70.659 E17.97719
G1 X114.19 Y70.16 E18.0098
G1 X114.852 Y69.818 E18.03459
G1 X115.184 Y69.658 E18.04684
G1 X116.073 Y69.279 E18.07899
G1 X116.704 Y69.045 E18.10137
G1 X117.687 Y68.734 E18.13566
G1 X118.302 Y68.576 E18.15678
G1 X119.186 Y68.368 E18.18699
G1 X120.826 Y68.008 E18.24283
G1 X123.332 Y67.383 E18.32874
G1 X125.752 Y66.706 E18.41232
G1 X128.175 Y65.955 E18.49669
G1 X130.518 Y65.153 E18.57905
G1 X132.937 Y64.25 E18.66493
G1 X135.265 Y63.305 E18.7485
G1 X137.583 Y62.285 E18.83273
G1 X139.865 Y61.205 E18.9167
G1 X142.112 Y60.062 E19.00055
G1 X144.338 Y58.849 E19.08487
G1 X146.519 Y57.578 E19.16883
G1 X148.699 Y56.226 E19.25414
G1 X150.765 Y54.863 E19.33647
G1 X152.83 Y53.412 E19.42041
G1 X154.896 Y51.873 E19.50609
G1 X156.86 Y50.322 E19.58933
G1 X158.795 Y48.703 E19.67324
G1 X160.699 Y47.014 E19.7579
G1 X162.561 Y45.27 E19.84275
G1 X163.677 Y44.172 E19.89482
G1 X182.052 Y25.799 E20.75908
G1 X182.527 Y25.338 E20.78109
G1 X183.243 Y24.705 E20.81288
G1 X183.998 Y24.147 E20.84411
G1 X184.8 Y23.659 E20.87533
G1 X185.641 Y23.243 E20.90654
G1 X186.482 Y22.914 E20.93657
G1 X187.417 Y22.643 E20.96895
G1 X188.339 Y22.462 E21.0002
G1 X189.272 Y22.365 E21.0314
G1 X190.21 Y22.35 E21.0626
G1 X191.146 Y22.418 E21.09382
G1 X192.073 Y22.568 E21.12505
G1 X192.982 Y22.8 E21.15625
G1 X193.834 Y23.098 E21.18627
G1 X194.722 Y23.501 E21.21871
G1 X195.538 Y23.963 E21.2499
G1 X196.314 Y24.498 E21.28125
G1 X197.185 Y25.235 E21.3192
G1 X197.633 Y25.665 E21.33985
G1 X202.004 Y30.038 E21.54549
G1 X202.471 Y30.521 E21.56784
G1 X203.093 Y31.224 E21.59906
G1 X203.65 Y31.981 E21.63032
G1 X204.12 Y32.752 E21.66035
G1 X204.552 Y33.624 E21.69272
G1 X204.89 Y34.5 E21.72395
G1 X205.15 Y35.402 E21.75517
G1 X205.329 Y36.323 E21.78638
G1 X205.425 Y37.256 E21.81757
G1 X205.439 Y38.195 E21.84881
G1 X205.37 Y39.131 E21.88002
G1 X205.218 Y40.057 E21.91123
G1 X204.995 Y40.932 E21.94127
G1 X204.672 Y41.85 E21.97363
G1 X204.282 Y42.705 E22.00489
G1 X203.819 Y43.52 E22.03607
G1 X203.306 Y44.264 E22.06612
G1 X202.553 Y45.157 E22.10497
G1 X202.129 Y45.599 E22.12535
G1 X176.42 Y71.308 E23.33462
G1 X174.555 Y73.226 E23.4236
G1 X172.846 Y75.087 E23.50763
G1 X171.192 Y76.993 E23.59157
G1 X169.593 Y78.945 E23.6755
G1 X168.025 Y80.974 E23.76078
G1 X166.542 Y83.008 E23.84451
G1 X165.12 Y85.08 E23.92809
G1 X163.749 Y87.202 E24.01212
G1 X162.439 Y89.365 E24.09622
G1 X161.187 Y91.567 E24.18047
G1 X160.001 Y93.799 E24.26454
G1 X158.879 Y96.063 E24.34858
G1 X157.832 Y98.336 E24.43182
G1 X156.351 Y101.86 E24.55895
G1 X156.033 Y102.547 E24.58413
G1 X155.726 Y103.149 E24.60661
G1 X155.084 Y104.238 E24.64866
G1 X154.696 Y104.812 E24.6717
G1 X153.868 Y105.877 E24.71657
G1 X153.349 Y106.461 E24.74255
G1 X152.72 Y107.109 E24.77259
G1 X152.284 Y107.498 E24.79202
G1 X151.899 Y107.824 E24.8088
G1 X151.038 Y108.477 E24.84474
G1 X150.446 Y108.878 E24.86853
G1 X149.324 Y109.538 E24.91182
G1 X148.674 Y109.867 E24.93605
G1 X148.238 Y110.075 E24.95212
G1 X145.619 Y111.25 E25.04759
G1 X143.32 Y112.363 E25.13255
G1 X141.131 Y113.501 E25.2146
G1 X138.856 Y114.766 E25.30118
G1 X136.728 Y116.029 E25.38349
G1 X134.58 Y117.388 E25.46803
G1 X132.464 Y118.811 E25.55284
G1 X130.418 Y120.274 E25.6365
G1 X128.414 Y121.793 E25.72014
G1 X126.426 Y123.392 E25.80499
G1 X124.512 Y125.022 E25.88861
G1 X122.625 Y126.723 E25.9731
G1 X120.812 Y128.454 E26.05648
G1 X119.008 Y130.275 E26.14173
G1 X117.294 Y132.108 E26.2252
G1 X115.636 Y133.984 E26.30847
G1 X113.982 Y135.963 E26.39425
G1 X112.434 Y137.928 E26.47746
G1 X110.929 Y139.953 E26.56137
G1 X109.481 Y142.022 E26.64537
G1 X108.081 Y144.146 E26.72998
G1 X106.752 Y146.295 E26.81402
G1 X105.484 Y148.479 E26.89801
G1 X104.288 Y150.68 E26.98133
G1 X103.131 Y152.962 E27.06642
G1 X102.037 Y155.265 E27.15123
G1 X101.74 Y155.848 E27.17299
G1 X101.431 Y156.397 E27.19394
G1 X101.191 Y156.793 E27.20934
G1 X100.728 Y157.494 E27.23728
G1 X100.26 Y158.121 E27.26331
G1 X99.925 Y158.54 E27.28115
G1 X99.308 Y159.242 E27.31223
G1 X98.567 Y159.963 E27.34662
G1 X97.689 Y160.713 E27.38503
G1 X97.139 Y161.132 E27.40802
G1 X96.266 Y161.729 E27.4432
G1 X95.686 Y162.072 E27.46561
G1 X95.27 Y162.301 E27.48141
G1 X94.436 Y162.714 E27.51236
G1 X91.865 Y163.847 E27.60581
G1 X89.593 Y164.924 E27.68943
G1 X87.325 Y166.077 E27.77406
G1 X85.111 Y167.283 E27.85791
G1 X82.93 Y168.554 E27.94187
G1 X80.75 Y169.906 E28.02719
G1 X78.698 Y171.261 E28.10898
G1 X76.597 Y172.736 E28.19436
G1 X74.562 Y174.251 E28.27874
G1 X72.588 Y175.812 E28.36244
G1 X70.659 Y177.425 E28.44607
G1 X68.74 Y179.125 E28.53134
G1 X66.887 Y180.861 E28.6158
G1 X65.706 Y182.023 E28.6709
G1 X63.639 Y184.09 E28.76813
G1 X62.938 Y184.77 E28.80061
G1 X62.182 Y185.455 E28.83454
G1 X61.712 Y185.848 E28.85492
G1 X61.255 Y186.208 E28.87427
G1 X60.718 Y186.609 E28.89656
G1 X60.246 Y186.938 E28.9157
G1 X59.752 Y187.261 E28.93533
G1 X59.221 Y187.59 E28.9561
G1 X58.682 Y187.898 E28.97675
G1 X55.742 Y189.462 E29.08751
G1 X53.559 Y190.699 E29.17096
G1 X51.384 Y192.012 E29.25546
G1 X49.242 Y193.391 E29.34019
G1 X47.173 Y194.807 E29.42358
G1 X45.108 Y196.307 E29.50847
G1 X43.131 Y197.831 E29.5915
G1 X41.026 Y199.54 E29.68168
G1 X40.258 Y200.107 E29.71343
G1 X39.456 Y200.596 E29.74467
G1 X38.614 Y201.012 E29.77591
G1 X37.74 Y201.351 E29.80709
G1 X36.839 Y201.612 E29.83829
G1 X35.917 Y201.793 E29.86954
G1 X34.984 Y201.89 E29.90074
G1 X34.046 Y201.905 E29.93194
G1 X33.11 Y201.837 E29.96315
G1 X32.183 Y201.687 E29.99439
G1 X31.274 Y201.455 E30.02559
G1 X30.421 Y201.157 E30.05564
G1 X29.534 Y200.755 E30.08803
G1 X28.717 Y200.293 E30.11925
G1 X27.973 Y199.781 E30.14929
G1 X27.063 Y199.013 E30.18889
G1 X26.62 Y198.588 E30.20931
G1 X22.985 Y194.953 E30.38029
G1 X22.505 Y194.459 E30.4032
G1 X21.883 Y193.757 E30.43439
G1 X21.324 Y193.002 E30.46564
G1 X20.835 Y192.202 E30.49683
G1 X20.418 Y191.361 E30.52805
G1 X20.089 Y190.52 E30.55808
G1 X19.816 Y189.585 E30.59048
G1 X19.634 Y188.665 E30.62167
G1 X19.535 Y187.732 E30.65288
G1 X19.519 Y186.793 E30.68411
G1 X19.586 Y185.857 E30.71532
G1 X19.736 Y184.931 E30.74653
G1 X19.966 Y184.02 E30.77778
G1 X20.276 Y183.135 E30.80896
G1 X20.664 Y182.28 E30.84019
G1 X21.126 Y181.463 E30.87141
G1 X21.661 Y180.687 E30.90276
G1 X22.4 Y179.81 E30.9409
G1 X22.824 Y179.368 E30.96128
G1 X27.012 Y175.18 E31.15827
G1 X28.312 Y173.926 E31.21834
G1 X28.934 Y173.358 E31.24636
G1 X30.899 Y171.615 E31.33372
G1 X32.757 Y169.872 E31.41845
G1 X34.552 Y168.087 E31.50265
G1 X36.29 Y166.259 E31.58654
G1 X37.967 Y164.393 E31.66999
G1 X39.629 Y162.434 E31.75543
G1 X41.185 Y160.491 E31.83823
G1 X42.712 Y158.47 E31.92248
G1 X44.195 Y156.388 E32.00749
G1 X45.589 Y154.31 E32.09072
G1 X46.939 Y152.167 E32.17496
G1 X48.224 Y149.99 E32.25904
G1 X49.447 Y147.784 E32.34293
G1 X50.613 Y145.531 E32.42731
G1 X51.71 Y143.253 E32.5114
G1 X52.75 Y140.931 E32.59603
G1 X53.707 Y138.619 E32.67925
G1 X54.612 Y136.24 E32.76391
G1 X55.447 Y133.851 E32.84808
G1 X56.217 Y131.431 E32.93255
G1 X56.901 Y129.047 E33.01504
G1 X57.591 Y126.321 E33.10856
G1 X57.934 Y125.062 E33.15196
G1 X58.347 Y123.847 E33.19465
G1 X58.627 Y123.166 E33.21914
G1 X59.163 Y122.054 E33.26019
G1 X59.518 Y121.416 E33.28448
G1 X60.201 Y120.344 E33.32675
G1 X60.622 Y119.765 E33.35056
G1 X61.381 Y118.837 E33.39044
G1 X61.806 Y118.375 E33.41132
G1 X62.225 Y117.945 E33.43129
G1 X62.895 Y117.295 E33.46234
G1 X110.445 Y72.936 E35.6252
G0 F6000 X110.714 Y73.232
G1 F1200 X111.237 Y72.758 E35.64867
G1 X112.092 Y72.037 E35.68587
G1 X112.994 Y71.369 E35.7232
G1 X113.55 Y71.003 E35.74534
G1 X114.394 Y70.504 E35.77795
