; Generated by Kiri:Moto 4.0.31
; Mon Oct 21 2024 19:57:06 GMT-0700 (Pacific Daylight Time)
; Bed left:0 right:300 top:175 bottom:0
; Bed type: fixed
; Target: Any.Generic.Marlin
; --- process ---
; processName = default
; sliceHeight = 0.2
; sliceShells = 3
; sliceShellOrder = in-out
; sliceLayerStart = center
; sliceFillAngle = 45
; sliceFillOverlap = 0.35
; sliceFillSparse = 0.1
; sliceFillType = hex
; sliceAdaptive = false
; sliceMinHeight = 0
; sliceSupportDensity = 0.25
; sliceSupportOffset = 0.4
; sliceSupportGap = 0
; sliceSupportSize = 6
; sliceSupportArea = 0.25
; sliceSupportExtra = 0
; sliceSupportAngle = 1
; sliceSupportNozzle = 0
; sliceSolidMinArea = 5
; sliceSolidLayers = 2
; sliceBottomLayers = 2
; sliceTopLayers = 3
; firstLayerRate = 10
; firstLayerPrintMult = 1
; firstLayerYOffset = 0
; firstLayerBrim = 0
; firstLayerBeltLead = 200
; firstLayerFanSpeed = 0
; outputTemp = 200
; outputBedTemp = 70
; outputFanSpeed = 255
; outputFeedrate = 80
; outputFinishrate = 50
; outputSeekrate = 150
; outputShellMult = 1.35
; outputFillMult = 1.3
; outputSparseMult = 1.3
; outputRetractDist = 4
; outputRetractSpeed = 60
; outputRetractWipe = 2
; outputRetractDwell = 0
; outputShortPoly = 50
; outputMinSpeed = 1
; outputCoastDist = 0.05
; outputLayerRetract = false
; zHopDistance = 0.1
; antiBacklash = 0
; sliceFillWidth = 1
; sliceFillRate = 0
; sliceSupportEnable = false
; firstSliceHeight = 0.2
; firstLayerFillRate = 35
; firstLayerLineMult = 1
; firstLayerNozzleTemp = 0
; firstLayerBedTemp = 0
; firstLayerBrimTrig = 0
; firstLayerBrimGap = 0
; outputRaft = false
; outputRaftSpacing = 0.2
; outputBrimCount = 0
; outputBrimOffset = 2
; outputPurgeTower = 0
; outputInvertX = false
; outputInvertY = false
; arcTolerance = 0
; ranges = []
; outputLoops = 0
; firstLayerBrimIn = 0
; firstLayerBeltBump = 0
; outputBeltFirst = false
; sliceFillRepeat = 4
; sliceLineWidth = 0
; sliceSupportSpan = 5
; sliceSupportOutline = true
; firstLayerFlatten = 0
; outputDraftShield = false
; outputAvoidGaps = true
; sliceDetectThin = off
; --- startup ---
M104 S200 T0             ; set extruder temperature
M140 S70 T0              ; set bed temperature
G90                      ; set absolute positioning mode
M83                      ; set relative positioning for extruder
M107                     ; turn off filament cooling fan
G28                      ; home axes
G92 X0 Y0 Z0 E0          ; reset all axes positions
G1 X0 Y0 Z0.25 F180      ; move xy to 0,0 and z 0.25mm over bed
G92 E0                   ; zero the extruded
M190 S70 T0              ; wait for bed to reach target temp
M109 S200 T0             ; wait for extruder to reach target temp
G1 E15 F200              ; purge 15mm from extruder
G92 E0                   ; zero the extruded
G1 F225                  ; set feed speed
G1 E-4.0000 F3600 ; e-retract 4
;; --- layer 0 (0.200 @ 0.2) ---
G1 Z0.2000 F9000
; feature shells
G1 X162.0222 Y111.8494
G1 E4.0000 F3600 ; e-engage 4
G1 X163.4259 Y111.1356 E0.0555 F600
G1 X163.8478 Y110.9831 E0.0158
G1 X164.2696 Y110.9064 E0.0151
G1 X164.6053 Y110.9009 E0.0118
G1 X165.2132 Y110.9320 E0.0215
G1 X165.7189 Y110.9222 E0.0178
G1 X166.1496 Y110.8875 E0.0152
G1 X167.1089 Y110.7084 E0.0344
G1 X168.0721 Y110.3893 E0.0358
G1 X168.4617 Y110.2167 E0.0150
G1 X169.0066 Y109.9139 E0.0220
G1 X169.7106 Y109.4410 E0.0299
G1 X170.0728 Y109.1406 E0.0166
G1 X170.5824 Y108.6353 E0.0253
G1 X171.0491 Y108.0861 E0.0254
G1 X171.3005 Y107.7263 E0.0155
G1 X171.5791 Y107.2677 E0.0189
G1 X171.8025 Y106.8304 E0.0173
G1 X171.9780 Y106.4284 E0.0155
G1 X172.2913 Y105.4380 E0.0366
G1 X172.5569 Y104.2909 E0.0415
G1 X172.7745 Y103.7300 E0.0212
G1 X173.0508 Y103.1765 E0.0218
G1 X173.5673 Y102.4477 E0.0315
G1 X174.1579 Y101.8124 E0.0306
G1 X174.7730 Y101.3328 E0.0275
G1 X175.2464 Y101.0383 E0.0197
G1 X176.1368 Y100.5936 E0.0351
G1 X176.6809 Y100.2674 E0.0224
G1 X177.1469 Y99.9494 E0.0199
G1 X177.6001 Y99.5921 E0.0203
G1 X178.4817 Y98.7391 E0.0433
G1 X178.8723 Y98.2745 E0.0214
G1 X179.2317 Y97.7828 E0.0215
G1 X179.5309 Y97.3127 E0.0197
G1 X179.8140 Y96.7877 E0.0210
G1 X180.0634 Y96.2409 E0.0212
G1 X180.2771 Y95.6843 E0.0210
G1 X180.4591 Y95.0799 E0.0223
G1 X180.5826 Y94.5355 E0.0197
G1 X180.6830 Y93.9059 E0.0225
G1 X180.7351 Y93.3476 E0.0198
G1 X180.7490 Y92.7573 E0.0208
G1 X180.7202 Y92.1185 E0.0226
G1 X180.6571 Y91.5639 E0.0197
G1 X180.5435 Y90.9370 E0.0225
G1 X180.4064 Y90.3943 E0.0197
G1 X180.2227 Y89.8245 E0.0211
G1 X180.0042 Y89.2784 E0.0207
G1 X179.7248 Y88.7031 E0.0226
G1 X179.4486 Y88.2196 E0.0196
G1 X179.0970 Y87.6918 E0.0224
G1 X178.7259 Y87.2095 E0.0215
G1 X177.9493 Y86.2893 E0.0425
G1 X177.6650 Y85.8231 E0.0193
G1 X177.4367 Y85.3560 E0.0183
G1 X177.1654 Y84.4541 E0.0332
G1 X176.9472 Y82.9945 E0.0520
G1 X176.7125 Y81.7857 E0.0434
G1 X176.3041 Y79.9348 E0.0668
G1 X176.2444 Y79.2955 E0.0226
G1 X176.2353 Y78.1747 E0.0395
G1 X176.2017 Y77.6747 E0.0177
G1 X176.1336 Y77.1861 E0.0174
G1 X176.0301 Y76.7042 E0.0174
G1 X175.8813 Y76.1978 E0.0186
G1 X175.7058 Y75.7180 E0.0180
G1 X174.2426 Y72.4502 E0.1263
G1 X173.1466 Y69.5267 E0.1101
G1 X172.1031 Y66.1067 E0.1261
G1 X171.9339 Y65.6636 E0.0167
G1 X171.5171 Y64.8234 E0.0331
G1 X170.9688 Y64.0146 E0.0345
G1 X170.1715 Y63.1538 E0.0414
G1 X169.6244 Y62.6942 E0.0252
G1 X169.0487 Y62.3080 E0.0244
G1 X168.4081 Y61.9589 E0.0257
G1 X168.0203 Y61.7853 E0.0150
G1 X167.5156 Y61.6069 E0.0189
G1 X166.4430 Y61.2896 E0.0394
G1 X165.2664 Y60.8233 E0.0446
G1 X165.1356 Y60.7454 E0.0054
G1 X164.6412 Y60.4917 E0.0196
G1 X164.1107 Y60.1778 E0.0217
G1 X163.6042 Y59.8328 E0.0216
G1 X162.4492 Y58.9372 E0.0515
G1 X161.7889 Y58.4933 E0.0281
G1 X161.0541 Y58.0777 E0.0298
G1 X160.3322 Y57.7309 E0.0282
G1 X159.6358 Y57.4489 E0.0265
G1 X158.8764 Y57.2010 E0.0282
G1 X158.1041 Y57.0049 E0.0281
G1 X157.3164 Y56.8630 E0.0282
G1 X156.5242 Y56.7738 E0.0281
G1 X155.7290 Y56.7425 E0.0281
G1 X154.9285 Y56.7628 E0.0282
G1 X154.1381 Y56.8372 E0.0280
G1 X153.3000 Y56.9783 E0.0300
G1 X152.5722 Y57.1520 E0.0264
G1 X151.8076 Y57.3887 E0.0282
G1 X151.0613 Y57.6740 E0.0282
G1 X150.3426 Y58.0109 E0.0280
G1 X149.1485 Y58.6739 E0.0482
G1 X148.6142 Y58.9271 E0.0209
G1 X148.0533 Y59.1444 E0.0212
G1 X147.3063 Y59.3707 E0.0275
G1 X146.5426 Y59.5346 E0.0275
G1 X145.8991 Y59.6200 E0.0229
G1 X144.8086 Y59.6508 E0.0385
G1 X143.7093 Y59.5813 E0.0388
G1 X142.5703 Y59.6183 E0.0402
G1 X141.4458 Y59.7999 E0.0402
G1 X140.9580 Y59.9255 E0.0178
G1 X139.9666 Y60.2486 E0.0368
G1 X137.5889 Y60.5886 E0.0847
G1 X136.7642 Y60.7221 E0.0295
G1 X135.9233 Y60.9248 E0.0305
G1 X135.1934 Y61.1528 E0.0270
G1 X134.4320 Y61.4465 E0.0288
G1 X133.6985 Y61.7948 E0.0286
G1 X132.9880 Y62.1929 E0.0287
G1 X132.3067 Y62.6415 E0.0288
G1 X131.6580 Y63.1311 E0.0287
G1 X131.0469 Y63.6704 E0.0287
G1 X130.4740 Y64.2461 E0.0286
G1 X129.9126 Y64.9041 E0.0305
G1 X129.4556 Y65.5158 E0.0269
G1 X129.0174 Y66.1997 E0.0286
G1 X128.6246 Y66.9153 E0.0288
G1 X128.2847 Y67.6540 E0.0287
G1 X127.9956 Y68.4146 E0.0287
G1 X127.7629 Y69.1918 E0.0286
G1 X127.5171 Y70.2818 E0.0394
G1 X127.3282 Y70.8255 E0.0203
G1 X126.9022 Y71.5973 E0.0311
G1 X126.5358 Y72.0420 E0.0203
G1 X125.6254 Y72.9104 E0.0444
G1 X125.0324 Y73.5501 E0.0308
G1 X124.4834 Y74.2255 E0.0307
G1 X123.9831 Y74.9346 E0.0306
G1 X123.5281 Y75.6786 E0.0308
G1 X123.1207 Y76.4460 E0.0306
G1 X122.7504 Y77.2897 E0.0325
G1 X122.4694 Y78.0579 E0.0288
G1 X122.2248 Y78.8911 E0.0306
G1 X122.0350 Y79.7411 E0.0307
G1 X121.9013 Y80.5993 E0.0306
G1 X121.8260 Y81.4671 E0.0307
G1 X121.8056 Y82.3353 E0.0306
G1 X121.8523 Y83.2562 E0.0325
G1 X121.9424 Y84.0700 E0.0289
G1 X122.0938 Y84.9276 E0.0307
G1 X122.3033 Y85.7740 E0.0308
G1 X122.6412 Y86.8519 E0.0398
G1 X122.6753 Y87.4433 E0.0209
G1 X122.5661 Y87.9024 E0.0166
G1 X122.3274 Y88.4614 E0.0214
G1 X122.1870 Y88.9300 E0.0173
G1 X122.1099 Y89.4111 E0.0172
G1 X122.0949 Y89.7266 E0.0111
G1 X122.1480 Y90.3840 E0.0233
G1 X122.1269 Y90.8180 E0.0153
G1 X121.9768 Y91.3162 E0.0184
G1 X121.7571 Y91.6561 E0.0143
G1 X121.2327 Y92.2652 E0.0283
G1 X120.8598 Y92.7593 E0.0218
G1 X120.5151 Y93.2934 E0.0224
G1 X120.2358 Y93.7889 E0.0201
G1 X119.9621 Y94.3749 E0.0228
G1 X119.7539 Y94.9004 E0.0199
G1 X119.5643 Y95.5130 E0.0226
G1 X119.4243 Y96.1076 E0.0215
G1 X119.3301 Y96.6683 E0.0201
G1 X119.2692 Y97.3111 E0.0228
G1 X119.2506 Y97.8824 E0.0202
G1 X119.2734 Y98.4844 E0.0212
G1 X119.3443 Y99.1267 E0.0228
G1 X119.4444 Y99.6856 E0.0200
G1 X119.5905 Y100.2719 E0.0213
G1 X119.7842 Y100.8620 E0.0219
G1 X119.9986 Y101.4021 E0.0205
G1 X120.5772 Y102.4995 E0.0437
G1 X120.9290 Y103.0202 E0.0222
G1 X121.2772 Y103.4712 E0.0201
G1 X121.7076 Y103.9544 E0.0228
G1 X122.1128 Y104.3521 E0.0200
G1 X122.5737 Y104.7458 E0.0214
G1 X123.0941 Y105.1305 E0.0228
G1 X123.5685 Y105.4348 E0.0199
G1 X124.1332 Y105.7422 E0.0227
G1 X124.6878 Y105.9950 E0.0215
G1 X125.2197 Y106.1978 E0.0201
G1 X125.8336 Y106.3826 E0.0226
G1 X126.4609 Y106.5221 E0.0227
G1 X127.9051 Y106.8001 E0.0519
G1 X128.0942 Y106.8692 E0.0071
G1 X129.2177 Y107.3715 E0.0434
G1 X129.7370 Y107.7276 E0.0222
G1 X130.3239 Y108.2415 E0.0275
G1 X130.8439 Y108.8401 E0.0280
G1 X131.2728 Y109.5063 E0.0279
G1 X131.7321 Y110.4691 E0.0376
G1 X131.9645 Y110.8867 E0.0169
G1 X132.4067 Y111.5340 E0.0276
G1 X132.8493 Y112.0737 E0.0246
G1 X133.1956 Y112.4225 E0.0173
G1 X133.9601 Y113.0518 E0.0349
G1 X134.7910 Y113.5612 E0.0344
G1 X135.6757 Y113.9506 E0.0341
G1 X136.6012 Y114.2172 E0.0340
G1 X137.0954 Y114.3036 E0.0177
G1 X138.0868 Y114.3764 E0.0351
G1 X138.5237 Y114.3662 E0.0154
G1 X140.7804 Y114.1323 E0.0800
G1 X141.5832 Y114.1967 E0.0284
G1 X142.5498 Y114.4302 E0.0351
G1 X143.3210 Y114.7471 E0.0294
G1 X144.0651 Y115.1832 E0.0304
G1 X145.2994 Y116.2219 E0.0569
G1 X145.7679 Y116.5859 E0.0209
G1 X146.2293 Y116.9000 E0.0197
G1 X146.7421 Y117.1998 E0.0209
G1 X147.3004 Y117.4751 E0.0220
G1 X147.8576 Y117.7045 E0.0212
G1 X148.3889 Y117.8844 E0.0198
G1 X148.9606 Y118.0372 E0.0209
G1 X150.1518 Y118.2242 E0.0425
G1 X150.7684 Y118.2574 E0.0218
G1 X151.3286 Y118.2524 E0.0198
G1 X151.9041 Y118.2088 E0.0204
G1 X153.1075 Y117.9890 E0.0431
G1 X153.6559 Y117.8326 E0.0201
G1 X154.2303 Y117.6253 E0.0215
G1 X154.7504 Y117.3967 E0.0200
G1 X155.8381 Y116.7752 E0.0442
G1 X156.3038 Y116.4447 E0.0201
G1 X156.7347 Y116.0927 E0.0196
G1 X157.2071 Y115.6463 E0.0229
G1 X157.6183 Y115.2062 E0.0212
G1 X158.4786 Y114.1716 E0.0475
G1 X159.0644 Y113.5955 E0.0290
G1 X160.4619 Y112.6045 E0.0604
G1 X162.0222 Y111.8494 E0.0611
G1 X162.1997 Y112.2078 F9000
G1 X163.5851 Y111.5033 E0.0548 F600
G1 X163.9523 Y111.3707 E0.0138
G1 X164.3089 Y111.3058 E0.0128
G1 X164.5984 Y111.3011 E0.0102
G1 X165.2067 Y111.3322 E0.0215
G1 X165.7389 Y111.3219 E0.0188
G1 X166.2025 Y111.2845 E0.0164
G1 X167.2090 Y111.0966 E0.0361
G1 X168.2165 Y110.7628 E0.0374
G1 X168.6402 Y110.5751 E0.0163
G1 X169.2156 Y110.2554 E0.0232
G1 X169.9504 Y109.7617 E0.0312
G1 X170.3418 Y109.4372 E0.0179
G1 X170.8762 Y108.9073 E0.0265
G1 X171.3662 Y108.3307 E0.0267
G1 X171.6357 Y107.9449 E0.0166
G1 X171.9286 Y107.4628 E0.0199
G1 X172.1643 Y107.0015 E0.0183
G1 X172.3530 Y106.5692 E0.0166
G1 X172.6774 Y105.5436 E0.0379
G1 X172.9401 Y104.4089 E0.0411
G1 X173.1407 Y103.8920 E0.0196
G1 X173.3949 Y103.3826 E0.0201
G1 X173.8783 Y102.7006 E0.0295
G1 X174.4291 Y102.1082 E0.0285
G1 X175.0023 Y101.6613 E0.0256
G1 X175.4418 Y101.3877 E0.0183
G1 X176.3293 Y100.9445 E0.0350
G1 X176.8967 Y100.6044 E0.0233
G1 X177.3837 Y100.2720 E0.0208
G1 X177.8636 Y99.8937 E0.0216
G1 X178.7746 Y99.0123 E0.0447
G1 X179.1873 Y98.5215 E0.0226
G1 X179.5622 Y98.0086 E0.0224
G1 X179.8761 Y97.5152 E0.0206
G1 X180.1724 Y96.9657 E0.0220
G1 X180.4325 Y96.3958 E0.0221
G1 X180.6559 Y95.8138 E0.0220
G1 X180.8461 Y95.1820 E0.0233
G1 X180.9755 Y94.6114 E0.0206
G1 X181.0800 Y93.9560 E0.0234
G1 X181.1347 Y93.3710 E0.0207
G1 X181.1492 Y92.7531 E0.0218
G1 X181.1191 Y92.0868 E0.0235
G1 X181.0531 Y91.5055 E0.0206
G1 X180.9347 Y90.8523 E0.0234
G1 X180.7910 Y90.2838 E0.0207
G1 X180.5992 Y89.6887 E0.0221
G1 X180.3702 Y89.1165 E0.0217
G1 X180.0787 Y88.5163 E0.0235
G1 X179.7892 Y88.0094 E0.0206
G1 X179.4223 Y87.4586 E0.0233
G1 X179.0373 Y86.9583 E0.0223
G1 X178.2748 Y86.0548 E0.0417
G1 X178.0162 Y85.6308 E0.0175
G1 X177.8104 Y85.2096 E0.0165
G1 X177.5568 Y84.3665 E0.0310
G1 X177.3415 Y82.9266 E0.0513
G1 X177.1043 Y81.7045 E0.0439
G1 X176.7001 Y79.8729 E0.0661
G1 X176.6442 Y79.2752 E0.0212
G1 X176.6352 Y78.1596 E0.0393
G1 X176.5998 Y77.6337 E0.0186
G1 X176.5278 Y77.1165 E0.0184
G1 X176.4180 Y76.6058 E0.0184
G1 X176.2614 Y76.0726 E0.0196
G1 X176.0766 Y75.5674 E0.0190
G1 X174.6127 Y72.2981 E0.1263
G1 X173.5256 Y69.3980 E0.1092
G1 X172.4817 Y65.9768 E0.1261
G1 X172.3008 Y65.5030 E0.0179
G1 X171.8634 Y64.6214 E0.0347
G1 X171.2829 Y63.7651 E0.0365
G1 X170.4480 Y62.8636 E0.0433
G1 X169.8652 Y62.3740 E0.0268
G1 X169.2562 Y61.9656 E0.0259
G1 X168.5857 Y61.6002 E0.0269
G1 X168.1690 Y61.4136 E0.0161
G1 X167.6392 Y61.2263 E0.0198
G1 X166.5736 Y60.9111 E0.0392
G1 X165.4435 Y60.4632 E0.0429
G1 X165.3293 Y60.3953 E0.0047
G1 X164.8346 Y60.1413 E0.0196
G1 X164.3254 Y59.8400 E0.0209
G1 X163.8396 Y59.5091 E0.0207
G1 X162.6835 Y58.6127 E0.0516
G1 X161.9994 Y58.1528 E0.0291
G1 X161.2394 Y57.7230 E0.0308
G1 X160.4940 Y57.3649 E0.0292
G1 X159.7731 Y57.0729 E0.0274
G1 X158.9878 Y56.8166 E0.0291
G1 X158.1888 Y56.6137 E0.0291
G1 X157.3743 Y56.4670 E0.0292
G1 X156.5546 Y56.3747 E0.0291
G1 X155.7318 Y56.3423 E0.0290
G1 X154.9047 Y56.3633 E0.0292
G1 X154.0861 Y56.4403 E0.0290
G1 X153.2202 Y56.5861 E0.0310
G1 X152.4666 Y56.7660 E0.0273
G1 X151.6770 Y57.0104 E0.0291
G1 X150.9047 Y57.3056 E0.0292
G1 X150.1603 Y57.6545 E0.0290
G1 X148.9656 Y58.3179 E0.0482
G1 X148.4560 Y58.5594 E0.0199
G1 X147.9228 Y58.7660 E0.0202
G1 X147.2062 Y58.9831 E0.0264
G1 X146.4742 Y59.1402 E0.0264
G1 X145.8671 Y59.2207 E0.0216
G1 X144.8156 Y59.2505 E0.0371
G1 X143.7154 Y59.1809 E0.0389
G1 X142.5318 Y59.2193 E0.0418
G1 X141.3639 Y59.4079 E0.0417
G1 X140.8460 Y59.5413 E0.0189
G1 X139.8756 Y59.8576 E0.0360
G1 X137.5284 Y60.1932 E0.0836
G1 X136.6853 Y60.3297 E0.0301
G1 X135.8166 Y60.5391 E0.0315
G1 X135.0617 Y60.7749 E0.0279
G1 X134.2740 Y61.0787 E0.0298
G1 X133.5147 Y61.4393 E0.0296
G1 X132.7799 Y61.8510 E0.0297
G1 X132.0761 Y62.3145 E0.0297
G1 X131.4048 Y62.8211 E0.0297
G1 X130.7725 Y63.3790 E0.0297
G1 X130.1796 Y63.9749 E0.0296
G1 X129.6000 Y64.6542 E0.0315
G1 X129.1265 Y65.2879 E0.0279
G1 X128.6732 Y65.9955 E0.0296
G1 X128.2672 Y66.7351 E0.0298
G1 X127.9156 Y67.4992 E0.0297
G1 X127.6166 Y68.2859 E0.0297
G1 X127.3757 Y69.0903 E0.0296
G1 X127.1319 Y70.1718 E0.0391
G1 X126.9616 Y70.6620 E0.0183
G1 X126.5699 Y71.3715 E0.0286
G1 X126.2424 Y71.7691 E0.0182
G1 X125.3405 Y72.6294 E0.0440
G1 X124.7302 Y73.2877 E0.0317
G1 X124.1644 Y73.9838 E0.0316
G1 X123.6486 Y74.7148 E0.0315
G1 X123.1804 Y75.4804 E0.0316
G1 X122.7604 Y76.2716 E0.0316
G1 X122.3791 Y77.1404 E0.0335
G1 X122.0892 Y77.9328 E0.0298
G1 X121.8373 Y78.7910 E0.0315
G1 X121.6418 Y79.6667 E0.0316
G1 X121.5040 Y80.5512 E0.0316
G1 X121.4264 Y81.4451 E0.0316
G1 X121.4053 Y82.3408 E0.0316
G1 X121.4534 Y83.2883 E0.0335
G1 X121.5462 Y84.1268 E0.0297
G1 X121.7023 Y85.0105 E0.0316
G1 X121.9180 Y85.8820 E0.0317
G1 X122.2447 Y86.9244 E0.0385
G1 X122.2726 Y87.4078 E0.0171
G1 X122.1849 Y87.7766 E0.0134
G1 X121.9506 Y88.3250 E0.0210
G1 X121.7962 Y88.8406 E0.0190
G1 X121.7114 Y89.3699 E0.0189
G1 X121.6942 Y89.7332 E0.0128
G1 X121.7472 Y90.3904 E0.0233
G1 X121.7297 Y90.7496 E0.0127
G1 X121.6101 Y91.1466 E0.0146
G1 X121.4361 Y91.4159 E0.0113
G1 X120.9213 Y92.0139 E0.0278
G1 X120.5317 Y92.5301 E0.0228
G1 X120.1725 Y93.0867 E0.0234
G1 X119.8799 Y93.6058 E0.0210
G1 X119.5947 Y94.2164 E0.0238
G1 X119.3764 Y94.7674 E0.0209
G1 X119.1781 Y95.4079 E0.0236
G1 X119.0319 Y96.0286 E0.0225
G1 X118.9333 Y96.6162 E0.0210
G1 X118.8698 Y97.2858 E0.0237
G1 X118.8504 Y97.8834 E0.0211
G1 X118.8742 Y98.5140 E0.0223
G1 X118.9481 Y99.1840 E0.0238
G1 X119.0530 Y99.7694 E0.0210
G1 X119.2059 Y100.3827 E0.0223
G1 X119.4079 Y100.9982 E0.0228
G1 X119.6348 Y101.5696 E0.0217
G1 X120.2335 Y102.7053 E0.0453
G1 X120.6047 Y103.2547 E0.0234
G1 X120.9691 Y103.7267 E0.0210
G1 X121.4178 Y104.2305 E0.0238
