;FLAVOR:Marlin
;TIME:1240
;Filament used: 0.838104m
;Layer height: 0.2
;MINX:85.124
;MINY:86.999
;MINZ:0.2
;MAXX:134.593
;MAXY:131.999
;MAXZ:11.4
;TARGET_MACHINE.NAME:Creality Ender-3 Pro
;Generated with Cura_SteamEngine 5.8.1
M82 ;absolute extrusion mode
; Ender 3 Custom Start G-code
G92 E0 ; Reset Extruder
G28 ; Home all axes
G1 Z5.0 F3000 ; Move Z Axis up a bit during heating to not damage bed
M104 S175 ; Start heating up the nozzle most of the way
M190 S60 ; Start heating the bed, wait until target temperature reached
M109 S205.0 ; Finish heating the nozzle
G1 Z2.0 F3000 ; Move Z Axis up little to prevent scratching of Heat Bed
G1 X0.1 Y20 Z0.3 F5000.0 ; Move to start position
G1 X0.1 Y200.0 Z0.3 F1500.0 E15 ; Draw the first line
G1 X0.4 Y200.0 Z0.3 F5000.0 ; Move to side a little
G1 X0.4 Y20 Z0.3 F1500.0 E30 ; Draw the second line
G92 E0 ; Reset Extruder
G1 Z2.0 F3000 ; Move Z Axis up little to prevent scratching of Heat Bed
G1 X5 Y20 Z0.3 F5000.0 ; Move over to prevent blob squish
G92 E0
G92 E0
G1 F1500 E-6.5
;LAYER_COUNT:57
;LAYER:0
M107
G0 F6000 X88.589 Y91.003 Z0.2
;TYPE:SKIRT
G1 F1500 E0
G1 F1200 X89.327 Y90.367 E0.0324
G1 X90.117 Y89.8 E0.06475
G1 X90.923 Y89.32 E0.09595
G1 X91.795 Y88.9 E0.12814
G1 X92.43 Y88.649 E0.15085
G1 X95.221 Y87.651 E0.24943
G1 X96.188 Y87.356 E0.28306
G1 X97.139 Y87.156 E0.31538
G1 X98.035 Y87.046 E0.34541
G1 X98.657 Y87.012 E0.36613
G1 X99.314 Y86.999 E0.38798
G1 X108.996 Y86.999 E0.71001
G1 X110.099 Y87.023 E0.7467
G1 X111.055 Y87.075 E0.77855
G1 X112.017 Y87.172 E0.8107
G1 X113.038 Y87.356 E0.84521
G1 X114.005 Y87.584 E0.87825
G1 X114.665 Y87.772 E0.90108
G1 X115.927 Y88.217 E0.94559
G1 X116.557 Y88.483 E0.96833
G1 X117.483 Y88.929 E1.00252
G1 X117.889 Y89.148 E1.01786
G1 X118.527 Y89.516 E1.04236
G1 X119.325 Y90.034 E1.074
G1 X119.764 Y90.363 E1.09225
G1 X120.447 Y90.907 E1.12129
G1 X120.894 Y91.282 E1.14069
G1 X121.581 Y91.913 E1.17172
G1 X122.009 Y92.366 E1.19245
G1 X122.736 Y93.19 E1.229
G1 X123.037 Y93.552 E1.24465
G1 X123.626 Y94.329 E1.27708
G1 X123.898 Y94.742 E1.29353
G1 X124.449 Y95.632 E1.32835
G1 X132.193 Y108.914 E1.83971
G1 X132.661 Y109.742 E1.87134
G1 X133.07 Y110.548 E1.90141
G1 X133.457 Y111.518 E1.93614
G1 X133.733 Y112.446 E1.96834
G1 X133.893 Y113.199 E1.99395
G1 X134.436 Y116.15 E2.09375
G1 X134.557 Y117.116 E2.12613
G1 X134.593 Y118.087 E2.15844
G1 X134.549 Y118.989 E2.18848
G1 X134.405 Y120.026 E2.2233
G1 X134.202 Y120.906 E2.25334
G1 X133.879 Y121.9 E2.2881
G1 X133.509 Y122.762 E2.3193
G1 X133.031 Y123.65 E2.35284
G1 X132.495 Y124.462 E2.3852
G1 X131.935 Y125.171 E2.41525
G1 X131.216 Y125.93 E2.45003
G1 X130.484 Y126.574 E2.48245
G1 X129.703 Y127.148 E2.51469
G1 X128.986 Y127.589 E2.54269
G1 X127.953 Y128.157 E2.5819
G1 X126.81 Y128.734 E2.62448
G1 X125.973 Y129.121 E2.65515
G1 X125.164 Y129.471 E2.68447
G1 X124.123 Y129.883 E2.72171
G1 X123.656 Y130.052 E2.73823
G1 X122.865 Y130.318 E2.76598
G1 X121.621 Y130.705 E2.80931
G1 X120.553 Y130.996 E2.84613
G1 X119.389 Y131.273 E2.88593
G1 X118.922 Y131.369 E2.90178
G1 X117.999 Y131.529 E2.93294
G1 X116.155 Y131.782 E2.99485
G1 X115.452 Y131.85 E3.01834
G1 X114.189 Y131.94 E3.06045
G1 X113.331 Y131.981 E3.08902
G1 X112.833 Y131.993 E3.10559
G1 X108.662 Y131.999 E3.24432
G1 X107.53 Y131.981 E3.28197
G1 X106.414 Y131.925 E3.31914
G1 X105.859 Y131.877 E3.33767
G1 X105.302 Y131.813 E3.35632
G1 X104.652 Y131.718 E3.37816
G1 X103.49 Y131.511 E3.41742
G1 X102.458 Y131.272 E3.45265
G1 X101.314 Y130.94 E3.49227
G1 X100.571 Y130.704 E3.5182
G1 X99.738 Y130.399 E3.54771
G1 X98.894 Y130.043 E3.57817
G1 X98.244 Y129.749 E3.6019
G1 X97.671 Y129.469 E3.62311
G1 X96.903 Y129.058 E3.65208
G1 X96.498 Y128.83 E3.66754
G1 X95.965 Y128.508 E3.68825
G1 X95.502 Y128.208 E3.7066
G1 X95.034 Y127.889 E3.72544
G1 X94.261 Y127.33 E3.75717
G1 X93.836 Y127.007 E3.77492
G1 X93.469 Y126.713 E3.79056
G1 X93.022 Y126.333 E3.81008
G1 X92.581 Y125.937 E3.82979
G1 X92.093 Y125.469 E3.85228
G1 X91.432 Y124.793 E3.88373
G1 X90.947 Y124.264 E3.9076
G1 X90.331 Y123.543 E3.93914
G1 X89.743 Y122.805 E3.97052
G1 X89.355 Y122.272 E3.99245
G1 X88.701 Y121.295 E4.03155
G1 X88.319 Y120.665 E4.05606
G1 X88.04 Y120.177 E4.07475
G1 X87.754 Y119.646 E4.09481
G1 X87.371 Y118.868 E4.12366
G1 X87.111 Y118.313 E4.14404
G1 X86.836 Y117.669 E4.16733
G1 X86.511 Y116.831 E4.19723
G1 X86.15 Y115.726 E4.23589
G1 X85.75 Y114.238 E4.28714
G1 X85.523 Y113.18 E4.32313
G1 X85.362 Y112.179 E4.35685
G1 X85.255 Y111.281 E4.38693
G1 X85.196 Y110.485 E4.41348
G1 X85.15 Y109.614 E4.44249
G1 X85.125 Y108.338 E4.48493
G1 X85.124 Y99.686 E4.7727
G1 X85.137 Y98.812 E4.80177
G1 X85.196 Y97.839 E4.8342
G1 X85.343 Y96.877 E4.86656
G1 X85.574 Y95.93 E4.89898
G1 X85.862 Y95.074 E4.92902
G1 X86.281 Y94.118 E4.96374
G1 X86.752 Y93.265 E4.99615
G1 X87.297 Y92.459 E5.02851
G1 X87.911 Y91.702 E5.06093
G1 X88.589 Y91.003 E5.09332
G0 F6000 X88.851 Y91.306
G1 F1200 X89.561 Y90.692 E5.12454
G1 X90.322 Y90.144 E5.15573
G1 X91.128 Y89.664 E5.18693
G1 X91.942 Y89.272 E5.21698
G1 X92.565 Y89.026 E5.23926
G1 X95.356 Y88.028 E5.33784
G1 X96.271 Y87.747 E5.36968
G1 X97.188 Y87.553 E5.40085
G1 X98.084 Y87.443 E5.43088
G1 X98.665 Y87.412 E5.45023
G1 X99.322 Y87.399 E5.47208
G1 X108.988 Y87.399 E5.79358
G1 X110.077 Y87.422 E5.8298
G1 X111.015 Y87.473 E5.86105
G1 X111.946 Y87.566 E5.89217
G1 X112.967 Y87.75 E5.92667
G1 X113.895 Y87.969 E5.95839
G1 X114.555 Y88.157 E5.98121
G1 X115.771 Y88.585 E6.02409
G1 X116.384 Y88.844 E6.04622
G1 X117.293 Y89.281 E6.07977
G1 X117.689 Y89.495 E6.09474
G1 X118.309 Y89.852 E6.11853
G1 X119.107 Y90.37 E6.15018
G1 X119.515 Y90.676 E6.16714
G1 X120.19 Y91.213 E6.19583
G1 X120.623 Y91.577 E6.21464
G1 X121.31 Y92.208 E6.24567
G1 X121.709 Y92.631 E6.26501
G1 X122.428 Y93.446 E6.30116
G1 X122.729 Y93.808 E6.31682
G1 X123.292 Y94.549 E6.34777
G1 X123.558 Y94.953 E6.36386
G1 X124.103 Y95.833 E6.39828
G1 X131.845 Y109.111 E6.9095
G1 X132.304 Y109.923 E6.94052
G1 X132.713 Y110.729 E6.97058
G1 X133.074 Y111.633 E7.00296
G1 X133.342 Y112.529 E7.03407
G1 X133.5 Y113.271 E7.0593
G1 X134.039 Y116.2 E7.15835
G1 X134.157 Y117.131 E7.18957
G1 X134.193 Y118.068 E7.22075
G1 X134.149 Y118.97 E7.25079
G1 X134.015 Y119.936 E7.28323
G1 X133.812 Y120.816 E7.31326
G1 X133.511 Y121.742 E7.34565
G1 X133.141 Y122.604 E7.37685
G1 X132.697 Y123.43 E7.40804
G1 X132.181 Y124.214 E7.43926
G1 X131.621 Y124.923 E7.46931
G1 X130.951 Y125.63 E7.5017
G1 X130.247 Y126.252 E7.53295
G1 X129.493 Y126.807 E7.56409
G1 X128.776 Y127.248 E7.59208
G1 X127.773 Y127.8 E7.63016
G1 X126.642 Y128.371 E7.6723
G1 X125.814 Y128.754 E7.70265
G1 X125.017 Y129.099 E7.73153
G1 X123.986 Y129.507 E7.76841
G1 X123.529 Y129.673 E7.78458
G1 X122.746 Y129.936 E7.81205
G1 X121.516 Y130.319 E7.8549
G1 X120.46 Y130.607 E7.89131
G1 X119.308 Y130.881 E7.93069
G1 X118.853 Y130.975 E7.94614
G1 X117.945 Y131.133 E7.9768
G1 X116.117 Y131.384 E8.03817
G1 X115.424 Y131.451 E8.06132
G1 X114.17 Y131.54 E8.10314
G1 X113.321 Y131.581 E8.13141
G1 X112.832 Y131.593 E8.14768
G1 X108.668 Y131.599 E8.28617
G1 X107.55 Y131.581 E8.32336
G1 X106.448 Y131.526 E8.36006
G1 X105.893 Y131.478 E8.37859
G1 X105.36 Y131.417 E8.39643
G1 X104.722 Y131.324 E8.41788
G1 X103.58 Y131.121 E8.45646
G1 X102.548 Y130.882 E8.49169
G1 X101.435 Y130.559 E8.53023
G1 X100.708 Y130.328 E8.55561
G1 X99.893 Y130.03 E8.58447
G1 X99.059 Y129.679 E8.61456
G1 X98.419 Y129.389 E8.63793
G1 X97.859 Y129.116 E8.65865
G1 X97.099 Y128.71 E8.68731
G1 X96.705 Y128.488 E8.70235
G1 X96.182 Y128.172 E8.72268
G1 X95.727 Y127.878 E8.7407
G1 X95.268 Y127.565 E8.75917
G1 X94.503 Y127.012 E8.79057
G1 X94.086 Y126.695 E8.80799
G1 X93.728 Y126.408 E8.82325
G1 X93.289 Y126.035 E8.84241
G1 X92.858 Y125.648 E8.86168
G1 X92.379 Y125.189 E8.88374
G1 X91.727 Y124.523 E8.91474
G1 X91.251 Y124.004 E8.93817
G1 X90.644 Y123.294 E8.96923
G1 X90.066 Y122.569 E9.00007
G1 X89.687 Y122.049 E9.02147
G1 X89.043 Y121.088 E9.05995
G1 X88.666 Y120.466 E9.08414
G1 X88.392 Y119.987 E9.1025
G1 X88.113 Y119.469 E9.12206
G1 X87.733 Y118.699 E9.15062
G1 X87.479 Y118.156 E9.17056
G1 X87.209 Y117.524 E9.19342
G1 X86.884 Y116.686 E9.22332
G1 X86.536 Y115.622 E9.26055
G1 X86.141 Y114.154 E9.31111
G1 X85.918 Y113.116 E9.34642
G1 X85.759 Y112.132 E9.37958
G1 X85.654 Y111.251 E9.40909
G1 X85.595 Y110.464 E9.43533
G1 X85.55 Y109.606 E9.46391
G1 X85.525 Y108.338 E9.50609
G1 X85.524 Y99.692 E9.79366
G1 X85.536 Y98.836 E9.82213
G1 X85.592 Y97.899 E9.85335
G1 X85.732 Y96.971 E9.88457
G1 X85.953 Y96.058 E9.91581
G1 X86.241 Y95.202 E9.94585
G1 X86.631 Y94.311 E9.9782
G1 X87.084 Y93.488 E10.00945
G1 X87.608 Y92.71 E10.04064
G1 X88.198 Y91.98 E10.07186
G1 X88.851 Y91.306 E10.10308
G0 F6000 X89.113 Y91.608
G1 F1200 X89.795 Y91.016 E10.13311
G1 X90.527 Y90.487 E10.16315
G1 X91.302 Y90.024 E10.19318
G1 X92.116 Y89.632 E10.22323
G1 X92.7 Y89.403 E10.24409
G1 X95.491 Y88.405 E10.34268
G1 X96.354 Y88.138 E10.37272
G1 X97.237 Y87.95 E10.40275
G1 X98.133 Y87.84 E10.43277
G1 X98.673 Y87.812 E10.45076
G1 X99.33 Y87.799 E10.47261
G1 X108.98 Y87.799 E10.79358
G1 X110.055 Y87.821 E10.82934
G1 X110.976 Y87.871 E10.86002
G1 X111.875 Y87.96 E10.89006
G1 X112.896 Y88.144 E10.92457
G1 X113.785 Y88.354 E10.95495
G1 X114.445 Y88.542 E10.97777
G1 X115.616 Y88.954 E11.01906
G1 X116.211 Y89.205 E11.04054
G1 X117.103 Y89.633 E11.07345
G1 X117.489 Y89.842 E11.08805
G1 X118.109 Y90.199 E11.11184
G1 X118.867 Y90.69 E11.14188
G1 X119.266 Y90.989 E11.15846
G1 X119.933 Y91.52 E11.18682
G1 X120.353 Y91.872 E11.20505
G1 X121.019 Y92.483 E11.23511
G1 X121.409 Y92.896 E11.254
G1 X122.121 Y93.702 E11.28977
G1 X122.411 Y94.05 E11.30484
G1 X122.958 Y94.769 E11.33489
G1 X123.218 Y95.164 E11.35061
G1 X123.757 Y96.034 E11.38465
G1 X131.497 Y109.308 E11.89572
G1 X131.947 Y110.104 E11.92613
G1 X132.356 Y110.91 E11.9562
G1 X132.691 Y111.748 E11.98621
G1 X132.951 Y112.613 E12.01625
G1 X133.107 Y113.343 E12.04108
G1 X133.642 Y116.251 E12.13942
G1 X133.757 Y117.147 E12.16947
G1 X133.793 Y118.049 E12.1995
G1 X133.749 Y118.951 E12.22953
G1 X133.625 Y119.846 E12.25958
G1 X133.422 Y120.726 E12.28962
G1 X133.143 Y121.585 E12.31966
G1 X132.788 Y122.415 E12.34969
G1 X132.362 Y123.211 E12.37971
G1 X131.867 Y123.966 E12.40974
G1 X131.307 Y124.675 E12.43979
G1 X130.686 Y125.331 E12.46984
G1 X130.01 Y125.93 E12.49988
G1 X129.283 Y126.466 E12.52992
G1 X128.566 Y126.907 E12.55791
G1 X127.593 Y127.443 E12.59486
G1 X126.474 Y128.008 E12.63656
G1 X125.655 Y128.387 E12.66657
G1 X124.87 Y128.727 E12.69502
G1 X123.849 Y129.131 E12.73154
G1 X123.402 Y129.294 E12.74737
G1 X122.627 Y129.554 E12.77456
G1 X121.41 Y129.933 E12.81695
G1 X120.368 Y130.218 E12.85288
G1 X119.226 Y130.489 E12.89192
G1 X118.784 Y130.581 E12.90694
G1 X117.891 Y130.737 E12.93709
G1 X116.079 Y130.986 E12.99792
G1 X115.396 Y131.052 E13.02074
G1 X114.15 Y131.14 E13.06229
G1 X113.311 Y131.181 E13.09023
G1 X112.831 Y131.193 E13.1062
G1 X108.674 Y131.199 E13.24446
G1 X107.57 Y131.182 E13.28118
G1 X106.482 Y131.127 E13.31742
G1 X105.927 Y131.079 E13.33595
G1 X105.418 Y131.021 E13.35298
G1 X104.792 Y130.93 E13.37402
G1 X103.67 Y130.731 E13.41192
G1 X102.638 Y130.492 E13.44716
G1 X101.556 Y130.178 E13.48463
G1 X100.845 Y129.952 E13.50944
G1 X100.048 Y129.661 E13.53766
G1 X99.224 Y129.315 E13.56739
G1 X98.594 Y129.03 E13.59039
G1 X98.047 Y128.763 E13.61063
G1 X97.295 Y128.362 E13.63898
G1 X96.912 Y128.146 E13.6536
G1 X96.399 Y127.836 E13.67354
G1 X95.952 Y127.548 E13.69122
G1 X95.502 Y127.241 E13.70934
G1 X94.745 Y126.694 E13.7404
G1 X94.336 Y126.383 E13.75749
G1 X93.987 Y126.103 E13.77238
G1 X93.556 Y125.737 E13.79118
G1 X93.135 Y125.359 E13.81
G1 X92.665 Y124.909 E13.83164
G1 X92.022 Y124.253 E13.86219
G1 X91.555 Y123.744 E13.88517
G1 X90.957 Y123.045 E13.91577
G1 X90.389 Y122.333 E13.94606
G1 X90.017 Y121.823 E13.96706
G1 X89.643 Y121.276 E13.98909
G1 X89.385 Y120.88 E14.00481
G1 X89.013 Y120.267 E14.02866
G1 X88.744 Y119.798 E14.04665
G1 X88.472 Y119.292 E14.06575
G1 X88.095 Y118.53 E14.09403
G1 X87.847 Y117.999 E14.11352
G1 X87.582 Y117.379 E14.13595
G1 X87.264 Y116.561 E14.16514
G1 X86.922 Y115.518 E14.20165
G1 X86.532 Y114.07 E14.25152
G1 X86.313 Y113.052 E14.28616
G1 X86.156 Y112.085 E14.31874
G1 X86.053 Y111.221 E14.34768
G1 X85.994 Y110.443 E14.37363
G1 X85.95 Y109.598 E14.40177
G1 X85.925 Y108.338 E14.44369
G1 X85.924 Y99.697 E14.73109
G1 X85.935 Y98.859 E14.75897
G1 X85.988 Y97.958 E14.78898
G1 X86.121 Y97.064 E14.81905
G1 X86.332 Y96.186 E14.84908
G1 X86.62 Y95.33 E14.87912
G1 X86.982 Y94.503 E14.90914
G1 X87.416 Y93.711 E14.93918
G1 X87.919 Y92.961 E14.96922
G1 X88.486 Y92.258 E14.99926
G1 X89.113 Y91.608 E15.0293
G1 F1500 E8.5293
G0 F6000 X99.124 Y98.199
G1 F1500 E15.0293
G1 F1200 X109.674 Y98.199 E15.38019
G1 X110.404 Y98.246 E15.40452
G1 X111.044 Y98.37 E15.4262
G1 X111.577 Y98.527 E15.44468
G1 X112.174 Y98.778 E15.46622
G1 X112.839 Y99.153 E15.49162
G1 X113.704 Y99.856 E15.52869
G1 X114.393 Y100.657 E15.56383
G1 X114.639 Y101.041 E15.579
G1 X122.795 Y115.031 E16.11761
G1 X121.36 Y115.815 E16.17199
G1 X120.331 Y116.321 E16.21013
G1 X118.925 Y116.887 E16.26054
G1 X117.495 Y117.337 E16.3104
G1 X116.375 Y117.601 E16.34868
G1 X115.29 Y117.794 E16.38533
G1 X114.263 Y117.919 E16.41974
G1 X112.525 Y118 E16.47761
G1 X108.155 Y118.001 E16.62296
G1 X106.922 Y117.91 E16.66408
G1 X105.915 Y117.721 E16.69816
G1 X103.959 Y116.975 E16.76778
G1 X103.1 Y116.456 E16.80116
G1 X102.247 Y115.815 E16.83665
G1 X101.766 Y115.368 E16.85849
G1 X101.122 Y114.648 E16.89062
G1 X100.67 Y114.039 E16.91585
G1 X100.3 Y113.444 E16.93915
G1 X99.981 Y112.83 E16.96216
G1 X99.72 Y112.218 E16.98429
G1 X99.426 Y111.29 E17.01667
G1 X99.258 Y110.534 E17.04243
G1 X99.152 Y109.694 E17.07059
G1 X99.125 Y109.025 E17.09286
G1 X99.124 Y98.199 E17.45293
G0 F6000 X99.524 Y98.599
G1 F1200 X109.665 Y98.599 E17.79022
G1 X110.348 Y98.643 E17.81299
G1 X110.951 Y98.76 E17.83342
G1 X111.443 Y98.905 E17.85048
G1 X111.997 Y99.138 E17.87047
G1 X112.613 Y99.485 E17.89398
G1 X113.425 Y100.145 E17.92878
G1 X114.067 Y100.892 E17.96154
G1 X114.307 Y101.265 E17.9763
G1 X122.243 Y114.877 E18.50036
G1 X121.183 Y115.456 E18.54053
G1 X120.162 Y115.958 E18.57837
G1 X118.786 Y116.512 E18.62771
G1 X117.39 Y116.952 E18.67639
G1 X116.306 Y117.207 E18.71343
G1 X115.227 Y117.399 E18.74988
G1 X114.224 Y117.52 E18.78348
G1 X112.527 Y117.6 E18.83999
G1 X108.171 Y117.601 E18.98487
G1 X106.972 Y117.513 E19.02486
G1 X106.027 Y117.335 E19.05684
G1 X104.136 Y116.614 E19.12415
G1 X103.324 Y116.124 E19.15569
G1 X102.503 Y115.506 E19.18987
G1 X102.05 Y115.084 E19.21046
G1 X101.433 Y114.395 E19.24123
G1 X101.002 Y113.816 E19.26523
G1 X100.647 Y113.245 E19.2876
G1 X100.342 Y112.657 E19.30963
G1 X100.094 Y112.076 E19.33064
G1 X99.816 Y111.197 E19.3613
G1 X99.652 Y110.46 E19.38641
G1 X99.551 Y109.663 E19.41313
G1 X99.525 Y109.001 E19.43517
G1 X99.524 Y98.599 E19.78114
G0 F6000 X99.924 Y98.999
G1 F1200 X109.654 Y98.999 E20.10476
G1 X110.299 Y99.04 E20.12626
G1 X110.858 Y99.149 E20.1452
G1 X111.301 Y99.279 E20.16056
G1 X111.824 Y99.499 E20.17943
G1 X112.386 Y99.816 E20.20089
G1 X113.143 Y100.431 E20.23333
G1 X113.751 Y101.139 E20.26437
G1 X113.956 Y101.457 E20.27695
G1 X121.689 Y114.723 E20.78767
G1 X121.001 Y115.1 E20.81376
G1 X120.003 Y115.59 E20.85074
G1 X118.654 Y116.134 E20.89912
G1 X117.275 Y116.568 E20.94721
G1 X116.233 Y116.813 E20.98281
G1 X115.162 Y117.004 E21.01899
G1 X114.198 Y117.121 E21.05129
G1 X112.508 Y117.2 E21.10756
G1 X108.186 Y117.201 E21.25131
G1 X107.023 Y117.116 E21.2901
G1 X106.132 Y116.948 E21.32025
G1 X104.315 Y116.255 E21.38493
G1 X103.544 Y115.789 E21.4149
G1 X102.765 Y115.203 E21.44732
G1 X102.338 Y114.806 E21.46671
G1 X101.744 Y114.143 E21.49632
G1 X101.327 Y113.582 E21.51957
G1 X100.998 Y113.053 E21.54029
G1 X100.705 Y112.489 E21.56143
G1 X100.469 Y111.933 E21.58152
G1 X100.202 Y111.091 E21.61089
G1 X100.047 Y110.398 E21.63451
G1 X99.949 Y109.621 E21.66056
G1 X99.925 Y109.01 E21.6809
G1 X99.924 Y98.999 E22.01387
G0 F6000 X100.324 Y99.399
G1 F1200 X109.645 Y99.399 E22.32388
G1 X110.244 Y99.437 E22.34385
G1 X110.763 Y99.538 E22.36143
G1 X111.175 Y99.66 E22.37572
