; Generated by Kiri:Moto 4.0.32
; Tue Nov 26 2024 08:54:33 GMT-0800 (Pacific Standard Time)
; Bed left:0 right:220 top:220 bottom:0
; Bed type: fixed
; Target: Roger's Ender 3
; --- process ---
; processName = Downstairs Brave PC
; sliceHeight = 0.2
; sliceShells = 4
; sliceShellOrder = in-out
; sliceLayerStart = center
; sliceFillAngle = 45
; sliceFillOverlap = 0.5
; sliceFillSparse = 0.65
; sliceFillType = hex
; sliceAdaptive = false
; sliceMinHeight = 0.1
; sliceSupportDensity = 0.15
; sliceSupportOffset = 0.5
; sliceSupportGap = 0
; sliceSupportSize = 2
; sliceSupportArea = 0.25
; sliceSupportExtra = 0
; sliceSupportAngle = 50
; sliceSupportNozzle = 0
; sliceSolidMinArea = 5
; sliceBottomLayers = 5
; sliceTopLayers = 5
; firstLayerRate = 35
; firstLayerPrintMult = 1.25
; firstLayerYOffset = 0
; firstLayerBrim = 0
; firstLayerBeltLead = 200
; firstLayerFanSpeed = 0
; outputTemp = 215
; outputBedTemp = 60
; outputFanSpeed = 215
; outputFeedrate = 50
; outputFinishrate = 35
; outputSeekrate = 50
; outputShellMult = 1.5
; outputFillMult = 1.25
; outputSparseMult = 1.25
; outputRetractDist = 6
; outputRetractSpeed = 80
; outputRetractWipe = 0.5
; outputRetractDwell = 0
; outputShortPoly = 50
; outputMinSpeed = 1
; outputCoastDist = 0.25
; outputLayerRetract = true
; zHopDistance = 0.1
; antiBacklash = 0
; sliceFillWidth = 1
; sliceFillRate = 0
; sliceSupportEnable = false
; firstSliceHeight = 0.2
; firstLayerFillRate = 40
; firstLayerLineMult = 1.15
; firstLayerNozzleTemp = 0
; firstLayerBedTemp = 0
; firstLayerBrimTrig = 0
; firstLayerBrimGap = 0
; outputRaft = false
; outputRaftSpacing = 0.2
; outputBrimCount = 2
; outputBrimOffset = 2
; outputPurgeTower = 0
; outputInvertX = false
; outputInvertY = false
; arcTolerance = 0
; ranges = []
; outputLoops = 0
; firstLayerBrimIn = 0
; firstLayerBeltBump = 0
; outputBeltFirst = false
; sliceFillRepeat = 4
; sliceLineWidth = 0
; sliceSupportSpan = 5
; sliceSupportOutline = true
; firstLayerFlatten = 0
; outputDraftShield = false
; outputAvoidGaps = false
; sliceDetectThin = type 2
; sliceAngle = 45
; sliceLayerStartX = 0
; sliceLayerStartY = 0
; sliceFillGrow = 0.45
; sliceSolidRate = 0
; sliceSupportGrow = 0
; outputFanLayer = 1
; outputAlternating = false
; outputNozzle = 0
; --- startup ---
M104 S215 T0             ; set extruder temperature
M140 S60 T0              ; set bed temperature
G90                      ; set absolute positioning mode
M83                      ; set relative positioning for extruder
M107                     ; turn off filament cooling fan
G28                      ; home axes
G92 X0 Y0 Z0 E0          ; reset all axes positions
G1 X0 Y0 Z0.25 F180      ; move xy to 0,0 and z 0.25mm over bed
G92 E0                   ; zero the extruded
M190 S60 T0              ; wait for bed to reach target temp
M109 S215 T0             ; wait for extruder to reach target temp
G1 E15 F200              ; purge 15mm from extruder
G92 E0                   ; zero the extruded
G1 F225                  ; set feed speed
G1 Z1.0 F3000            ; move z up little to prevent scratching
G1 X0.1 Y20 Z0.3 F5000.0 ; move to start-line position
G1 X0.1 Y200.0 Z0.3 F1500.0 E15 ; draw 1st line
G1 X0.4 Y200.0 Z0.3 F5000.0     ; move to side a little
G1 X0.4 Y20 Z0.3 F1500.0 E30    ; draw 2nd line
G92 E0 ; reset extruder
G1 Z1.0 F3000 ; move z up little to prevent scratching of surface
G1 E-6.0000 F4800 ; e-retract 6
;; --- layer 0 (0.200 @ 0.2) ---
G1 Z0.2000 F3000
; feature brim
G1 X101.9545 Y95.3653
G1 E6.0000 F4800 ; e-engage 6
G1 X101.0525 Y95.8980 E0.0410 F2100
G1 X100.1832 Y96.4883 E0.0412
G1 X99.3537 Y97.1323 E0.0411
G1 X98.5673 Y97.8254 E0.0411
G1 X97.8254 Y98.5673 E0.0411
G1 X97.1323 Y99.3537 E0.0411
G1 X96.4883 Y100.1832 E0.0411
G1 X95.8980 Y101.0525 E0.0412
G1 X95.3653 Y101.9545 E0.0410
G1 X94.8888 Y102.8878 E0.0411
G1 X94.4713 Y103.8521 E0.0412
G1 X94.1164 Y104.8397 E0.0411
G1 X93.8241 Y105.8465 E0.0411
G1 X93.5951 Y106.8697 E0.0411
G1 X93.4302 Y107.9075 E0.0412
G1 X93.3323 Y108.9522 E0.0411
G1 X93.2989 Y110.0000 E0.0411
G1 X93.3323 Y111.0478 E0.0411
G1 X93.4302 Y112.0925 E0.0411
G1 X93.5951 Y113.1303 E0.0412
G1 X93.8241 Y114.1535 E0.0411
G1 X94.1164 Y115.1603 E0.0411
G1 X94.4713 Y116.1479 E0.0411
G1 X94.8888 Y117.1122 E0.0412
G1 X95.3653 Y118.0455 E0.0411
G1 X95.8980 Y118.9475 E0.0410
G1 X96.4883 Y119.8168 E0.0412
G1 X97.1323 Y120.6463 E0.0411
G1 X97.8254 Y121.4327 E0.0411
G1 X98.5673 Y122.1746 E0.0411
G1 X99.3537 Y122.8677 E0.0411
G1 X100.1832 Y123.5117 E0.0411
G1 X101.0525 Y124.1020 E0.0412
G1 X101.9545 Y124.6347 E0.0410
G1 X102.8878 Y125.1112 E0.0411
G1 X103.8521 Y125.5287 E0.0412
G1 X104.8397 Y125.8836 E0.0411
G1 X105.8465 Y126.1759 E0.0411
G1 X106.8697 Y126.4049 E0.0411
G1 X107.9075 Y126.5698 E0.0412
G1 X108.9522 Y126.6677 E0.0411
G1 X110.0000 Y126.7011 E0.0411
G1 X111.0478 Y126.6677 E0.0411
G1 X112.0925 Y126.5698 E0.0411
G1 X113.1303 Y126.4049 E0.0412
G1 X114.1535 Y126.1759 E0.0411
G1 X115.1603 Y125.8836 E0.0411
G1 X116.1479 Y125.5287 E0.0411
G1 X117.1122 Y125.1112 E0.0412
G1 X118.0455 Y124.6347 E0.0411
G1 X118.9475 Y124.1020 E0.0410
G1 X119.8168 Y123.5117 E0.0412
G1 X120.6463 Y122.8677 E0.0411
G1 X121.4327 Y122.1746 E0.0411
G1 X122.1746 Y121.4327 E0.0411
G1 X122.8677 Y120.6463 E0.0411
G1 X123.5117 Y119.8168 E0.0411
G1 X124.1020 Y118.9475 E0.0412
G1 X124.6347 Y118.0455 E0.0410
G1 X125.1112 Y117.1122 E0.0411
G1 X125.5287 Y116.1479 E0.0412
G1 X125.8836 Y115.1603 E0.0411
G1 X126.1759 Y114.1535 E0.0411
G1 X126.4049 Y113.1303 E0.0411
G1 X126.5698 Y112.0925 E0.0412
G1 X126.6677 Y111.0478 E0.0411
G1 X126.7011 Y110.0000 E0.0411
G1 X126.6677 Y108.9522 E0.0411
G1 X126.5698 Y107.9075 E0.0411
G1 X126.4049 Y106.8697 E0.0412
G1 X126.1759 Y105.8465 E0.0411
G1 X125.8836 Y104.8397 E0.0411
G1 X125.5287 Y103.8521 E0.0411
G1 X125.1112 Y102.8878 E0.0412
G1 X124.6347 Y101.9545 E0.0411
G1 X124.1020 Y101.0525 E0.0410
G1 X123.5117 Y100.1832 E0.0412
G1 X122.8677 Y99.3537 E0.0411
G1 X122.1746 Y98.5673 E0.0411
G1 X121.4327 Y97.8254 E0.0411
G1 X120.6463 Y97.1323 E0.0411
G1 X119.8168 Y96.4883 E0.0411
G1 X118.9475 Y95.8980 E0.0412
G1 X118.0455 Y95.3653 E0.0410
G1 X117.1122 Y94.8888 E0.0411
G1 X116.1479 Y94.4713 E0.0412
G1 X115.1603 Y94.1164 E0.0411
G1 X114.1535 Y93.8241 E0.0411
G1 X113.1303 Y93.5951 E0.0411
G1 X112.0925 Y93.4302 E0.0412
G1 X111.0478 Y93.3323 E0.0411
G1 X110.0000 Y93.2989 E0.0411
G1 X108.9522 Y93.3323 E0.0411
G1 X107.9075 Y93.4302 E0.0411
G1 X106.8697 Y93.5951 E0.0412
G1 X105.8465 Y93.8241 E0.0411
G1 X104.8397 Y94.1164 E0.0411
G1 X103.8521 Y94.4713 E0.0411
G1 X102.8878 Y94.8888 E0.0412
G1 X101.9545 Y95.3653 E0.0411
G1 X101.7617 Y95.0146 F3000
G1 X100.8383 Y95.5600 E0.0420 F2100
G1 X99.9479 Y96.1646 E0.0422
G1 X99.0986 Y96.8240 E0.0421
G1 X98.2934 Y97.5336 E0.0421
G1 X97.5336 Y98.2934 E0.0421
G1 X96.8240 Y99.0986 E0.0421
G1 X96.1646 Y99.9479 E0.0421
G1 X95.5600 Y100.8383 E0.0422
G1 X95.0146 Y101.7617 E0.0420
G1 X94.5268 Y102.7173 E0.0420
G1 X94.0992 Y103.7048 E0.0422
G1 X93.7357 Y104.7161 E0.0421
G1 X93.4365 Y105.7470 E0.0421
G1 X93.2020 Y106.7945 E0.0421
G1 X93.0331 Y107.8574 E0.0422
G1 X92.9329 Y108.9271 E0.0421
G1 X92.8987 Y110.0000 E0.0421
G1 X92.9329 Y111.0729 E0.0421
G1 X93.0331 Y112.1426 E0.0421
G1 X93.2020 Y113.2055 E0.0422
G1 X93.4365 Y114.2530 E0.0421
G1 X93.7357 Y115.2839 E0.0421
G1 X94.0992 Y116.2952 E0.0421
G1 X94.5268 Y117.2827 E0.0422
G1 X95.0146 Y118.2383 E0.0420
G1 X95.5600 Y119.1617 E0.0420
G1 X96.1646 Y120.0521 E0.0422
G1 X96.8240 Y120.9014 E0.0421
G1 X97.5336 Y121.7066 E0.0421
G1 X98.2934 Y122.4664 E0.0421
G1 X99.0986 Y123.1760 E0.0421
G1 X99.9479 Y123.8354 E0.0421
G1 X100.8383 Y124.4400 E0.0422
G1 X101.7617 Y124.9854 E0.0420
G1 X102.7173 Y125.4732 E0.0420
G1 X103.7048 Y125.9008 E0.0422
G1 X104.7161 Y126.2643 E0.0421
G1 X105.7470 Y126.5635 E0.0421
G1 X106.7945 Y126.7980 E0.0421
G1 X107.8574 Y126.9669 E0.0422
G1 X108.9271 Y127.0671 E0.0421
G1 X110.0000 Y127.1013 E0.0421
G1 X111.0729 Y127.0671 E0.0421
G1 X112.1426 Y126.9669 E0.0421
G1 X113.2055 Y126.7980 E0.0422
G1 X114.2530 Y126.5635 E0.0421
G1 X115.2839 Y126.2643 E0.0421
G1 X116.2952 Y125.9008 E0.0421
G1 X117.2827 Y125.4732 E0.0422
G1 X118.2383 Y124.9854 E0.0420
G1 X119.1617 Y124.4400 E0.0420
G1 X120.0521 Y123.8354 E0.0422
G1 X120.9014 Y123.1760 E0.0421
G1 X121.7066 Y122.4664 E0.0421
G1 X122.4664 Y121.7066 E0.0421
G1 X123.1760 Y120.9014 E0.0421
G1 X123.8354 Y120.0521 E0.0421
G1 X124.4400 Y119.1617 E0.0422
G1 X124.9854 Y118.2383 E0.0420
G1 X125.4732 Y117.2827 E0.0420
G1 X125.9008 Y116.2952 E0.0422
G1 X126.2643 Y115.2839 E0.0421
G1 X126.5635 Y114.2530 E0.0421
G1 X126.7980 Y113.2055 E0.0421
G1 X126.9669 Y112.1426 E0.0422
G1 X127.0671 Y111.0729 E0.0421
G1 X127.1013 Y110.0000 E0.0421
G1 X127.0671 Y108.9271 E0.0421
G1 X126.9669 Y107.8574 E0.0421
G1 X126.7980 Y106.7945 E0.0422
G1 X126.5635 Y105.7470 E0.0421
G1 X126.2643 Y104.7161 E0.0421
G1 X125.9008 Y103.7048 E0.0421
G1 X125.4732 Y102.7173 E0.0422
G1 X124.9854 Y101.7617 E0.0420
G1 X124.4400 Y100.8383 E0.0420
G1 X123.8354 Y99.9479 E0.0422
G1 X123.1760 Y99.0986 E0.0421
G1 X122.4664 Y98.2934 E0.0421
G1 X121.7066 Y97.5336 E0.0421
G1 X120.9014 Y96.8240 E0.0421
G1 X120.0521 Y96.1646 E0.0421
G1 X119.1617 Y95.5600 E0.0422
G1 X118.2383 Y95.0146 E0.0420
G1 X117.2827 Y94.5268 E0.0420
G1 X116.2952 Y94.0992 E0.0422
G1 X115.2839 Y93.7357 E0.0421
G1 X114.2530 Y93.4365 E0.0421
G1 X113.2055 Y93.2020 E0.0421
G1 X112.1426 Y93.0331 E0.0422
G1 X111.0729 Y92.9329 E0.0421
G1 X110.0000 Y92.8987 E0.0421
G1 X108.9271 Y92.9329 E0.0421
G1 X107.8574 Y93.0331 E0.0421
G1 X106.7945 Y93.2020 E0.0422
G1 X105.7470 Y93.4365 E0.0421
G1 X104.7161 Y93.7357 E0.0421
G1 X103.7048 Y94.0992 E0.0421
G1 X102.7173 Y94.5268 E0.0422
G1 X101.7617 Y95.0146 E0.0420
G1 E-6.0000 F4800 ; e-retract 6
G1 Z0.3000 F3000 ; z-hop start
; feature shells
G1 X100.1590 Y104.5908
G1 Z0.2000 ; z-hop end
G1 E6.0000 F4800 ; e-engage 6
G1 X99.8388 Y105.2179 E0.0345 F2100
G1 X99.5581 Y105.8663 E0.0346
G1 X99.3191 Y106.5300 E0.0346
G1 X99.1229 Y107.2076 E0.0346
G1 X98.9690 Y107.8959 E0.0345
G1 X98.8587 Y108.5922 E0.0345
G1 X98.7923 Y109.2945 E0.0346
G1 X98.7699 Y110.0000 E0.0346
G1 X98.7923 Y110.7055 E0.0346
G1 X98.8587 Y111.4078 E0.0346
G1 X98.9690 Y112.1041 E0.0345
G1 X99.1229 Y112.7924 E0.0345
G1 X99.3191 Y113.4700 E0.0346
G1 X99.5581 Y114.1337 E0.0346
G1 X99.8388 Y114.7821 E0.0346
G1 X100.1590 Y115.4092 E0.0345
G1 X100.5176 Y116.0172 E0.0346
G1 X100.9148 Y116.6012 E0.0346
G1 X101.3462 Y117.1581 E0.0345
G1 X101.8133 Y117.6876 E0.0346
G1 X102.3124 Y118.1867 E0.0346
G1 X102.8408 Y118.6528 E0.0345
G1 X103.3988 Y119.0852 E0.0346
G1 X103.9822 Y119.4819 E0.0346
G1 X104.5902 Y119.8407 E0.0346
G1 X105.2179 Y120.1612 E0.0345
G1 X105.8663 Y120.4419 E0.0346
G1 X106.5300 Y120.6809 E0.0346
G1 X107.2069 Y120.8769 E0.0345
G1 X107.8959 Y121.0310 E0.0346
G1 X108.5922 Y121.1413 E0.0345
G1 X109.2945 Y121.2077 E0.0346
G1 X110.0008 Y121.2301 E0.0346
G1 X110.7062 Y121.2076 E0.0346
G1 X111.4078 Y121.1413 E0.0345
G1 X112.1041 Y121.0310 E0.0345
G1 X112.7932 Y120.8769 E0.0346
G1 X113.4707 Y120.6806 E0.0346
G1 X114.1344 Y120.4416 E0.0346
G1 X114.7821 Y120.1612 E0.0346
G1 X115.4098 Y119.8407 E0.0345
G1 X116.0172 Y119.4823 E0.0345
G1 X116.6012 Y119.0852 E0.0346
G1 X117.1592 Y118.6528 E0.0346
G1 X117.6876 Y118.1867 E0.0345
G1 X118.1867 Y117.6876 E0.0346
G1 X118.6538 Y117.1581 E0.0346
G1 X119.0852 Y116.6012 E0.0345
G1 X119.4824 Y116.0172 E0.0346
G1 X119.8410 Y115.4092 E0.0346
G1 X120.1612 Y114.7821 E0.0345
G1 X120.4419 Y114.1337 E0.0346
G1 X120.6809 Y113.4700 E0.0346
G1 X120.8771 Y112.7924 E0.0346
G1 X121.0310 Y112.1041 E0.0345
G1 X121.1413 Y111.4078 E0.0345
G1 X121.2077 Y110.7055 E0.0346
G1 X121.2301 Y110.0000 E0.0346
G1 X121.2077 Y109.2945 E0.0346
G1 X121.1413 Y108.5922 E0.0346
G1 X121.0310 Y107.8959 E0.0345
G1 X120.8771 Y107.2076 E0.0345
G1 X120.6809 Y106.5300 E0.0346
G1 X120.4419 Y105.8663 E0.0346
G1 X120.1612 Y105.2179 E0.0346
G1 X119.8410 Y104.5908 E0.0345
G1 X119.4824 Y103.9828 E0.0346
G1 X119.0852 Y103.3988 E0.0346
G1 X118.6538 Y102.8419 E0.0345
G1 X118.1867 Y102.3124 E0.0346
G1 X117.6876 Y101.8133 E0.0346
G1 X117.1592 Y101.3472 E0.0345
G1 X116.6012 Y100.9148 E0.0346
G1 X116.0178 Y100.5181 E0.0346
G1 X115.4098 Y100.1593 E0.0346
G1 X114.7821 Y99.8388 E0.0345
G1 X114.1337 Y99.5581 E0.0346
G1 X113.4700 Y99.3191 E0.0346
G1 X112.7931 Y99.1231 E0.0345
G1 X112.1041 Y98.9690 E0.0346
G1 X111.4078 Y98.8587 E0.0345
G1 X110.7055 Y98.7923 E0.0346
G1 X110.0007 Y98.7699 E0.0345
G1 X109.2938 Y98.7924 E0.0346
G1 X108.5922 Y98.8587 E0.0345
G1 X107.8959 Y98.9690 E0.0345
G1 X107.2068 Y99.1231 E0.0346
G1 X106.5293 Y99.3194 E0.0346
G1 X105.8656 Y99.5584 E0.0346
G1 X105.2179 Y99.8388 E0.0346
G1 X104.5902 Y100.1593 E0.0345
G1 X103.9828 Y100.5177 E0.0345
G1 X103.3988 Y100.9148 E0.0346
G1 X102.8408 Y101.3472 E0.0346
G1 X102.3124 Y101.8133 E0.0345
G1 X101.8133 Y102.3124 E0.0346
G1 X101.3462 Y102.8419 E0.0346
G1 X100.9148 Y103.3988 E0.0345
G1 X100.5176 Y103.9828 E0.0346
G1 X100.1590 Y104.5908 E0.0346
G1 X99.7557 Y104.3692 F3000
G1 X99.4225 Y105.0217 E0.0359 F2100
G1 X99.1302 Y105.6968 E0.0360
G1 X98.8813 Y106.3880 E0.0360
G1 X98.6771 Y107.0933 E0.0360
G1 X98.5169 Y107.8096 E0.0360
G1 X98.4021 Y108.5345 E0.0359
G1 X98.3330 Y109.2655 E0.0360
G1 X98.3097 Y110.0000 E0.0360
G1 X98.3330 Y110.7345 E0.0360
G1 X98.4021 Y111.4655 E0.0360
G1 X98.5169 Y112.1904 E0.0359
G1 X98.6771 Y112.9067 E0.0360
G1 X98.8813 Y113.6120 E0.0360
G1 X99.1302 Y114.3032 E0.0360
G1 X99.4225 Y114.9783 E0.0360
G1 X99.7557 Y115.6308 E0.0359
G1 X100.1290 Y116.2637 E0.0360
G1 X100.5425 Y116.8717 E0.0360
G1 X100.9916 Y117.4514 E0.0359
G1 X101.4778 Y118.0026 E0.0360
G1 X101.9973 Y118.5222 E0.0360
G1 X102.5475 Y119.0075 E0.0359
G1 X103.1283 Y119.4575 E0.0360
G1 X103.7357 Y119.8706 E0.0360
G1 X104.3685 Y120.2440 E0.0360
G1 X105.0217 Y120.5775 E0.0359
G1 X105.6968 Y120.8698 E0.0360
G1 X106.3880 Y121.1187 E0.0360
G1 X107.0926 Y121.3227 E0.0359
G1 X107.8096 Y121.4831 E0.0360
G1 X108.5345 Y121.5979 E0.0359
G1 X109.2656 Y121.6670 E0.0360
G1 X110.0008 Y121.6903 E0.0360
G1 X110.7352 Y121.6669 E0.0360
G1 X111.4655 Y121.5979 E0.0359
G1 X112.1904 Y121.4831 E0.0359
G1 X112.9075 Y121.3227 E0.0360
G1 X113.6128 Y121.1184 E0.0360
G1 X114.3039 Y120.8695 E0.0360
G1 X114.9783 Y120.5775 E0.0360
G1 X115.6315 Y120.2440 E0.0359
G1 X116.2637 Y119.8710 E0.0360
G1 X116.8717 Y119.4575 E0.0360
G1 X117.4525 Y119.0075 E0.0360
G1 X118.0027 Y118.5222 E0.0359
G1 X118.5222 Y118.0026 E0.0360
G1 X119.0084 Y117.4514 E0.0360
G1 X119.4575 Y116.8717 E0.0359
G1 X119.8710 Y116.2637 E0.0360
G1 X120.2443 Y115.6308 E0.0360
G1 X120.5775 Y114.9783 E0.0359
G1 X120.8698 Y114.3032 E0.0360
G1 X121.1187 Y113.6120 E0.0360
G1 X121.3229 Y112.9067 E0.0360
G1 X121.4831 Y112.1904 E0.0360
G1 X121.5979 Y111.4655 E0.0359
G1 X121.6670 Y110.7345 E0.0360
G1 X121.6903 Y110.0000 E0.0360
G1 X121.6670 Y109.2655 E0.0360
G1 X121.5979 Y108.5345 E0.0360
G1 X121.4831 Y107.8096 E0.0359
G1 X121.3229 Y107.0933 E0.0360
G1 X121.1187 Y106.3880 E0.0360
G1 X120.8698 Y105.6968 E0.0360
G1 X120.5775 Y105.0217 E0.0360
G1 X120.2443 Y104.3692 E0.0359
G1 X119.8710 Y103.7363 E0.0360
G1 X119.4575 Y103.1283 E0.0360
G1 X119.0084 Y102.5486 E0.0359
G1 X118.5222 Y101.9974 E0.0360
G1 X118.0027 Y101.4778 E0.0360
G1 X117.4525 Y100.9925 E0.0359
G1 X116.8717 Y100.5425 E0.0360
G1 X116.2643 Y100.1294 E0.0360
G1 X115.6315 Y99.7560 E0.0360
G1 X114.9783 Y99.4225 E0.0359
G1 X114.3032 Y99.1302 E0.0360
G1 X113.6120 Y98.8813 E0.0360
G1 X112.9074 Y98.6773 E0.0359
G1 X112.1904 Y98.5169 E0.0360
G1 X111.4655 Y98.4021 E0.0359
G1 X110.7345 Y98.3330 E0.0360
G1 X110.0007 Y98.3097 E0.0360
G1 X109.2648 Y98.3331 E0.0361
G1 X108.5345 Y98.4021 E0.0359
G1 X107.8096 Y98.5169 E0.0359
G1 X107.0925 Y98.6773 E0.0360
G1 X106.3872 Y98.8816 E0.0360
G1 X105.6961 Y99.1305 E0.0360
G1 X105.0217 Y99.4225 E0.0360
G1 X104.3685 Y99.7560 E0.0359
G1 X103.7363 Y100.1290 E0.0360
G1 X103.1283 Y100.5425 E0.0360
G1 X102.5475 Y100.9925 E0.0360
G1 X101.9973 Y101.4778 E0.0359
G1 X101.4778 Y101.9974 E0.0360
G1 X100.9916 Y102.5486 E0.0360
G1 X100.5425 Y103.1283 E0.0359
G1 X100.1290 Y103.7363 E0.0360
G1 X99.7557 Y104.3692 E0.0360
