; Generated by Kiri:Moto 4.0.32
; Tue Nov 26 2024 08:07:47 GMT-0800 (Pacific Standard Time)
; Bed left:0 right:220 top:220 bottom:0
; Bed type: fixed
; Target: Roger's Ender 3
; --- process ---
; processName = Downstairs Brave PC
; sliceHeight = 0.2
; sliceShells = 4
; sliceShellOrder = in-out
; sliceLayerStart = center
; sliceFillAngle = 45
; sliceFillOverlap = 0.5
; sliceFillSparse = 0.65
; sliceFillType = hex
; sliceAdaptive = false
; sliceMinHeight = 0.1
; sliceSupportDensity = 0.15
; sliceSupportOffset = 0.5
; sliceSupportGap = 0
; sliceSupportSize = 2
; sliceSupportArea = 0.25
; sliceSupportExtra = 0
; sliceSupportAngle = 50
; sliceSupportNozzle = 0
; sliceSolidMinArea = 5
; sliceBottomLayers = 5
; sliceTopLayers = 5
; firstLayerRate = 35
; firstLayerPrintMult = 1.1
; firstLayerYOffset = 0
; firstLayerBrim = 0
; firstLayerBeltLead = 200
; firstLayerFanSpeed = 0
; outputTemp = 215
; outputBedTemp = 60
; outputFanSpeed = 215
; outputFeedrate = 50
; outputFinishrate = 35
; outputSeekrate = 50
; outputShellMult = 1.5
; outputFillMult = 1.25
; outputSparseMult = 1.25
; outputRetractDist = 6
; outputRetractSpeed = 80
; outputRetractWipe = 0.5
; outputRetractDwell = 0
; outputShortPoly = 50
; outputMinSpeed = 1
; outputCoastDist = 0.25
; outputLayerRetract = true
; zHopDistance = 0.1
; antiBacklash = 0
; sliceFillWidth = 1
; sliceFillRate = 0
; sliceSupportEnable = false
; firstSliceHeight = 0.2
; firstLayerFillRate = 40
; firstLayerLineMult = 1.2
; firstLayerNozzleTemp = 0
; firstLayerBedTemp = 0
; firstLayerBrimTrig = 0
; firstLayerBrimGap = 0
; outputRaft = false
; outputRaftSpacing = 0.2
; outputBrimCount = 2
; outputBrimOffset = 2
; outputPurgeTower = 0
; outputInvertX = false
; outputInvertY = false
; arcTolerance = 0
; ranges = []
; outputLoops = 0
; firstLayerBrimIn = 0
; firstLayerBeltBump = 0
; outputBeltFirst = false
; sliceFillRepeat = 4
; sliceLineWidth = 0
; sliceSupportSpan = 5
; sliceSupportOutline = true
; firstLayerFlatten = 0
; outputDraftShield = false
; outputAvoidGaps = false
; sliceDetectThin = type 2
; sliceAngle = 45
; sliceLayerStartX = 0
; sliceLayerStartY = 0
; sliceFillGrow = 0.45
; sliceSolidRate = 0
; sliceSupportGrow = 0
; outputFanLayer = 1
; outputAlternating = false
; outputNozzle = 0
; --- startup ---
M104 S215 T0             ; set extruder temperature
M140 S60 T0              ; set bed temperature
G90                      ; set absolute positioning mode
M83                      ; set relative positioning for extruder
M107                     ; turn off filament cooling fan
G28                      ; home axes
G92 X0 Y0 Z0 E0          ; reset all axes positions
G1 X0 Y0 Z0.25 F180      ; move xy to 0,0 and z 0.25mm over bed
G92 E0                   ; zero the extruded
M190 S60 T0              ; wait for bed to reach target temp
M109 S215 T0             ; wait for extruder to reach target temp
G1 E15 F200              ; purge 15mm from extruder
G92 E0                   ; zero the extruded
G1 F225                  ; set feed speed
G1 Z1.0 F3000            ; move z up little to prevent scratching
G1 X0.1 Y20 Z0.3 F5000.0 ; move to start-line position
G1 X0.1 Y200.0 Z0.3 F1500.0 E15 ; draw 1st line
G1 X0.4 Y200.0 Z0.3 F5000.0     ; move to side a little
G1 X0.4 Y20 Z0.3 F1500.0 E30    ; draw 2nd line
G92 E0 ; reset extruder
G1 Z1.0 F3000 ; move z up little to prevent scratching of surface
G1 E-6.0000 F4800 ; e-retract 6
;; --- layer 0 (0.200 @ 0.2) ---
G1 Z0.2000 F3000
; feature brim
G1 X143.5087 Y103.5500
G1 E6.0000 F4800 ; e-engage 6
G1 X76.4898 E2.6260 F2100
G1 X75.9190 Y103.5958 E0.0224
G1 X75.2790 Y103.7490 E0.0258
G1 X74.6671 Y104.0024 E0.0260
G1 X74.1061 Y104.3471 E0.0258
G1 X73.6704 Y104.7183 E0.0224
G1 X70.7188 Y107.6700 E0.1636
G1 X70.3472 Y108.1056 E0.0224
G1 X70.0020 Y108.6674 E0.0258
G1 X69.7487 Y109.2797 E0.0260
G1 X69.5956 Y109.9206 E0.0258
G1 X69.5500 Y110.4900 E0.0224
G1 Y113.8509 E0.1317
G1 X69.5838 Y114.2190 E0.0145
G1 X69.7026 Y114.6725 E0.0184
G1 X69.9068 Y115.1085 E0.0189
G1 X70.1774 Y115.4926 E0.0184
G1 X70.5074 Y115.8226 E0.0183
G1 X70.8916 Y116.0932 E0.0184
G1 X71.3275 Y116.2974 E0.0189
G1 X71.7810 Y116.4162 E0.0184
G1 X72.1491 Y116.4500 E0.0145
G1 X147.8557 E2.9665
G1 X148.2313 Y116.4138 E0.0148
G1 X148.6846 Y116.2927 E0.0184
G1 X149.1193 Y116.0866 E0.0189
G1 X149.5021 Y115.8143 E0.0184
G1 X149.8306 Y115.4828 E0.0183
G1 X150.0995 Y115.0971 E0.0184
G1 X150.3014 Y114.6605 E0.0188
G1 X150.4168 Y114.2117 E0.0182
G1 X150.4500 Y113.8509 E0.0142
G1 Y110.4900 E0.1317
G1 X150.4044 Y109.9207 E0.0224
G1 X150.2514 Y109.2797 E0.0258
G1 X149.9982 Y108.6680 E0.0259
G1 X149.6550 Y108.1085 E0.0257
G1 X149.2823 Y107.6711 E0.0225
G1 X146.3300 Y104.7187 E0.1636
G1 X145.8938 Y104.3467 E0.0225
G1 X145.3270 Y103.9990 E0.0261
G1 X144.7110 Y103.7456 E0.0261
G1 X144.0698 Y103.5943 E0.0258
G1 X143.5087 Y103.5500 E0.0221
G1 X143.5245 Y103.1500 F3000
G1 X76.4738 E2.6273 F2100
G1 X75.8561 Y103.1996 E0.0243
G1 X75.1552 Y103.3673 E0.0282
G1 X74.4847 Y103.6449 E0.0284
G1 X73.8703 Y104.0225 E0.0283
G1 X73.3989 Y104.4242 E0.0243
G1 X70.4247 Y107.3983 E0.1648
G1 X70.0226 Y107.8697 E0.0243
G1 X69.6446 Y108.4851 E0.0283
G1 X69.3670 Y109.1560 E0.0285
G1 X69.1994 Y109.8578 E0.0283
G1 X69.1500 Y110.4740 E0.0242
G1 Y113.8693 E0.1330
G1 X69.1885 Y114.2884 E0.0165
G1 X69.3249 Y114.8091 E0.0211
G1 X69.5595 Y115.3100 E0.0217
G1 X69.8702 Y115.7511 E0.0211
G1 X70.2489 Y116.1298 E0.0210
G1 X70.6900 Y116.4405 E0.0211
G1 X71.1909 Y116.6751 E0.0217
G1 X71.7115 Y116.8114 E0.0211
G1 X72.1307 Y116.8500 E0.0165
G1 X147.8749 E2.9679
G1 X148.3026 Y116.8088 E0.0168
G1 X148.8230 Y116.6698 E0.0211
G1 X149.3224 Y116.4330 E0.0217
G1 X149.7620 Y116.1203 E0.0211
G1 X150.1390 Y115.7399 E0.0210
G1 X150.4478 Y115.2969 E0.0212
G1 X150.6798 Y114.7953 E0.0217
G1 X150.8122 Y114.2803 E0.0208
G1 X150.8500 Y113.8693 E0.0162
G1 Y110.4740 E0.1330
G1 X150.8006 Y109.8579 E0.0242
G1 X150.6331 Y109.1560 E0.0283
G1 X150.3557 Y108.4858 E0.0284
G1 X149.9797 Y107.8728 E0.0282
G1 X149.5765 Y107.3995 E0.0244
G1 X146.6016 Y104.4247 E0.1648
G1 X146.1296 Y104.0221 E0.0243
G1 X145.5088 Y103.6413 E0.0285
G1 X144.8338 Y103.3636 E0.0286
G1 X144.1319 Y103.1980 E0.0283
G1 X143.5245 Y103.1500 E0.0239
G1 E-6.0000 F4800 ; e-retract 6
G1 Z0.3000 F3000 ; z-hop start
; feature shells
G1 X78.8410 Y109.2500
G1 Z0.2000 ; z-hop end
G1 E6.0000 F4800 ; e-engage 6
G1 X78.8162 Y108.9744 E0.0119 F467
G1 X78.7455 Y108.7058 E0.0120
G1 X78.6275 Y108.4543 E0.0120
G1 X78.4686 Y108.2272 E0.0119
G1 X78.2728 Y108.0314 E0.0119
G1 X78.0457 Y107.8725 E0.0119
G1 X77.7942 Y107.7545 E0.0120
G1 X77.5256 Y107.6838 E0.0120
G1 X77.2500 Y107.6590 E0.0119
G1 X76.9744 Y107.6838 E0.0119
G1 X76.7058 Y107.7545 E0.0120
G1 X76.4543 Y107.8725 E0.0120
G1 X76.2272 Y108.0314 E0.0119
G1 X76.0314 Y108.2272 E0.0119
G1 X75.8725 Y108.4543 E0.0119
G1 X75.7545 Y108.7058 E0.0120
G1 X75.6838 Y108.9744 E0.0120
G1 X75.6590 Y109.2500 E0.0119
G1 X75.6838 Y109.5256 E0.0119
G1 X75.7545 Y109.7942 E0.0120
G1 X75.8725 Y110.0457 E0.0120
G1 X76.0314 Y110.2728 E0.0119
G1 X76.2272 Y110.4686 E0.0119
G1 X76.4543 Y110.6275 E0.0119
G1 X76.7058 Y110.7455 E0.0120
G1 X76.9744 Y110.8162 E0.0120
G1 X77.2500 Y110.8410 E0.0119
G1 X77.5256 Y110.8162 E0.0119
G1 X77.7942 Y110.7455 E0.0120
G1 X78.0457 Y110.6275 E0.0120
G1 X78.2728 Y110.4686 E0.0119
G1 X78.4686 Y110.2728 E0.0119
G1 X78.6275 Y110.0457 E0.0119
G1 X78.7455 Y109.7942 E0.0120
G1 X78.8162 Y109.5256 E0.0120
G1 X78.8410 Y109.2500 E0.0119
G1 X79.3229 F3000
G1 X79.2907 Y108.8913 E0.0155 F591
G1 X79.1986 Y108.5414 E0.0156
G1 X79.0445 Y108.2130 E0.0156
G1 X78.8378 Y107.9176 E0.0155
G1 X78.5825 Y107.6622 E0.0156
G1 X78.2870 Y107.4555 E0.0155
G1 X77.9586 Y107.3014 E0.0156
G1 X77.6087 Y107.2093 E0.0156
G1 X77.2500 Y107.1771 E0.0155
G1 X76.8913 Y107.2093 E0.0155
G1 X76.5414 Y107.3014 E0.0156
G1 X76.2130 Y107.4555 E0.0156
G1 X75.9175 Y107.6622 E0.0155
G1 X75.6622 Y107.9176 E0.0156
G1 X75.4556 Y108.2130 E0.0155
G1 X75.3014 Y108.5414 E0.0156
G1 X75.2093 Y108.8913 E0.0156
G1 X75.1771 Y109.2500 E0.0155
G1 X75.2093 Y109.6087 E0.0155
G1 X75.3014 Y109.9586 E0.0156
G1 X75.4556 Y110.2870 E0.0156
G1 X75.6622 Y110.5824 E0.0155
G1 X75.9175 Y110.8378 E0.0156
G1 X76.2130 Y111.0445 E0.0155
G1 X76.5414 Y111.1986 E0.0156
G1 X76.8913 Y111.2907 E0.0156
G1 X77.2500 Y111.3229 E0.0155
G1 X77.6087 Y111.2907 E0.0155
G1 X77.9586 Y111.1986 E0.0156
G1 X78.2870 Y111.0445 E0.0156
G1 X78.5825 Y110.8378 E0.0155
G1 X78.8378 Y110.5824 E0.0156
G1 X79.0445 Y110.2870 E0.0155
G1 X79.1986 Y109.9586 E0.0156
G1 X79.2907 Y109.6087 E0.0156
G1 X79.3229 Y109.2500 E0.0155
G1 E-6.0000 F4800 ; e-retract 6
G1 Z0.3000 F3000 ; z-hop start
G1 X78.8229
G1 X115.6590
G1 Z0.2000 ; z-hop end
G1 E6.0000 F4800 ; e-engage 6
G1 X115.6838 Y109.5256 E0.0119 F467
G1 X115.7545 Y109.7942 E0.0120
G1 X115.8725 Y110.0457 E0.0120
G1 X116.0314 Y110.2728 E0.0119
G1 X116.2272 Y110.4686 E0.0119
G1 X116.4543 Y110.6275 E0.0119
G1 X116.7058 Y110.7455 E0.0120
G1 X116.9744 Y110.8162 E0.0120
G1 X117.2500 Y110.8410 E0.0119
G1 X117.5256 Y110.8162 E0.0119
G1 X117.7942 Y110.7455 E0.0120
G1 X118.0457 Y110.6275 E0.0120
G1 X118.2728 Y110.4686 E0.0119
G1 X118.4686 Y110.2728 E0.0119
G1 X118.6275 Y110.0457 E0.0119
G1 X118.7455 Y109.7942 E0.0120
G1 X118.8162 Y109.5256 E0.0120
G1 X118.8410 Y109.2500 E0.0119
G1 X118.8162 Y108.9744 E0.0119
G1 X118.7455 Y108.7058 E0.0120
G1 X118.6275 Y108.4543 E0.0120
G1 X118.4686 Y108.2272 E0.0119
G1 X118.2728 Y108.0314 E0.0119
G1 X118.0457 Y107.8725 E0.0119
G1 X117.7942 Y107.7545 E0.0120
G1 X117.5256 Y107.6838 E0.0120
G1 X117.2500 Y107.6590 E0.0119
G1 X116.9744 Y107.6838 E0.0119
G1 X116.7058 Y107.7545 E0.0120
G1 X116.4543 Y107.8725 E0.0120
G1 X116.2272 Y108.0314 E0.0119
G1 X116.0314 Y108.2272 E0.0119
G1 X115.8725 Y108.4543 E0.0119
G1 X115.7545 Y108.7058 E0.0120
G1 X115.6838 Y108.9744 E0.0120
G1 X115.6590 Y109.2500 E0.0119
G1 X115.1771 F3000
G1 X115.2093 Y109.6087 E0.0155 F591
G1 X115.3014 Y109.9586 E0.0156
G1 X115.4556 Y110.2870 E0.0156
G1 X115.6622 Y110.5824 E0.0155
G1 X115.9176 Y110.8378 E0.0156
G1 X116.2130 Y111.0445 E0.0155
G1 X116.5414 Y111.1986 E0.0156
G1 X116.8913 Y111.2907 E0.0156
G1 X117.2500 Y111.3229 E0.0155
G1 X117.6087 Y111.2907 E0.0155
G1 X117.9586 Y111.1986 E0.0156
G1 X118.2870 Y111.0445 E0.0156
G1 X118.5824 Y110.8378 E0.0155
G1 X118.8378 Y110.5824 E0.0156
G1 X119.0444 Y110.2870 E0.0155
G1 X119.1986 Y109.9586 E0.0156
G1 X119.2907 Y109.6087 E0.0156
G1 X119.3229 Y109.2500 E0.0155
G1 X119.2907 Y108.8913 E0.0155
G1 X119.1986 Y108.5414 E0.0156
G1 X119.0444 Y108.2130 E0.0156
G1 X118.8378 Y107.9176 E0.0155
G1 X118.5824 Y107.6622 E0.0156
G1 X118.2870 Y107.4555 E0.0155
G1 X117.9586 Y107.3014 E0.0156
G1 X117.6087 Y107.2093 E0.0156
G1 X117.2500 Y107.1771 E0.0155
G1 X116.8913 Y107.2093 E0.0155
G1 X116.5414 Y107.3014 E0.0156
G1 X116.2130 Y107.4555 E0.0156
G1 X115.9176 Y107.6622 E0.0155
G1 X115.6622 Y107.9176 E0.0156
G1 X115.4556 Y108.2130 E0.0155
G1 X115.3014 Y108.5414 E0.0156
G1 X115.2093 Y108.8913 E0.0156
G1 X115.1771 Y109.2500 E0.0155
G1 X85.5408 Y109.2545 F3000
G1 X85.5091 Y108.8872 E0.0159 F595
G1 X85.4141 Y108.5346 E0.0157
G1 X85.2605 Y108.2046 E0.0157
G1 X85.0514 Y107.9063 E0.0157
G1 X84.7939 Y107.6486 E0.0157
G1 X84.4954 Y107.4394 E0.0157
G1 X84.1653 Y107.2857 E0.0157
G1 X83.8095 Y107.1902 E0.0159
G1 X83.4560 Y107.1593 E0.0153
G1 X83.0944 Y107.1897 E0.0156
G1 X82.7425 Y107.2831 E0.0157
G1 X82.4123 Y107.4353 E0.0157
G1 X82.1205 Y107.6384 E0.0153
G1 X81.8547 Y107.8991 E0.0160
G1 X81.6437 Y108.1976 E0.0158
G1 X81.4883 Y108.5278 E0.0157
G1 X81.3920 Y108.8811 E0.0158
G1 X81.3592 Y109.2451 E0.0158
G1 X81.3902 Y109.6092 E0.0157
G1 X81.4847 Y109.9627 E0.0158
G1 X81.6366 Y110.2901 E0.0156
G1 X81.8482 Y110.5936 E0.0160
G1 X82.1046 Y110.8502 E0.0156
G1 X82.4044 Y111.0606 E0.0158
G1 X82.7328 Y111.2137 E0.0156
G1 X83.0838 Y111.3086 E0.0157
G1 X83.4499 Y111.3408 E0.0158
G1 X83.8129 Y111.3091 E0.0157
G1 X84.1654 Y111.2144 E0.0157
G1 X84.4951 Y111.0609 E0.0157
G1 X84.7939 Y110.8515 E0.0157
G1 X85.0515 Y110.5938 E0.0157
G1 X85.2607 Y110.2954 E0.0157
G1 X85.4141 Y109.9655 E0.0157
G1 X85.5082 Y109.6179 E0.0155
G1 X85.5408 Y109.2545 E0.0157
G1 X86.0226 Y109.2553 F3000
G1 X85.9836 Y108.8035 E0.0195 F719
G1 X85.8668 Y108.3697 E0.0194
G1 X85.6778 Y107.9637 E0.0193
G1 X85.4205 Y107.5966 E0.0193
G1 X85.1037 Y107.2796 E0.0193
G1 X84.7363 Y107.0221 E0.0193
G1 X84.3301 Y106.8329 E0.0193
G1 X83.8932 Y106.7157 E0.0195
G1 X83.4568 Y106.6775 E0.0189
G1 X83.0121 Y106.7150 E0.0192
G1 X82.5793 Y106.8297 E0.0193
G1 X82.1729 Y107.0171 E0.0193
G1 X81.8131 Y107.2675 E0.0189
G1 X81.4877 Y107.5868 E0.0196
G1 X81.2274 Y107.9550 E0.0194
G1 X81.0362 Y108.3613 E0.0193
G1 X80.9177 Y108.7958 E0.0194
G1 X80.8774 Y109.2439 E0.0194
G1 X80.9155 Y109.6921 E0.0194
G1 X81.0317 Y110.1269 E0.0194
G1 X81.2188 Y110.5302 E0.0192
G1 X81.4788 Y110.9030 E0.0196
G1 X81.7946 Y111.2191 E0.0193
G1 X82.1633 Y111.4778 E0.0194
G1 X82.5675 Y111.6662 E0.0192
G1 X82.9995 Y111.7830 E0.0193
G1 X83.4497 Y111.8227 E0.0195
G1 X83.8967 Y111.7837 E0.0193
G1 X84.3303 Y111.6671 E0.0193
G1 X84.7359 Y111.4782 E0.0193
G1 X85.1037 Y111.2205 E0.0194
G1 X85.4205 Y110.9036 E0.0193
G1 X85.6781 Y110.5362 E0.0193
G1 X85.8666 Y110.1306 E0.0193
G1 X85.9825 Y109.7027 E0.0191
G1 X86.0226 Y109.2553 E0.0194
G1 E-6.0000 F4800 ; e-retract 6
G1 Z0.3000 F3000 ; z-hop start
G1 X85.5226 Y109.2543
G1 X80.4229 Y107.4300
G1 Z0.2000 ; z-hop end
G1 E6.0000 F4800 ; e-engage 6
G1 X79.6683 E0.0325 F160
G1 X79.8784 Y107.7304 E0.0158
G1 X80.0902 Y108.1815 E0.0215
G1 X80.1321 Y108.0281 E0.0069
G1 X80.3947 Y107.4699 E0.0266
G1 X80.4229 Y107.4300 E0.0021
G1 X76.6068 Y106.4700 F3000
G1 X76.3784 Y106.4883 E0.0099 F2100
G1 X76.1829 Y106.5351 E0.0087
G1 X75.9983 Y106.6116 E0.0086
G1 X75.8277 Y106.7164 E0.0086
G1 X75.6528 Y106.8654 E0.0099
G1 X72.8653 Y109.6530 E0.1699
G1 X72.7162 Y109.8277 E0.0099
G1 X72.6115 Y109.9982 E0.0086
G1 X72.5351 Y110.1827 E0.0086
G1 X72.4883 Y110.3790 E0.0087
G1 X72.4700 Y110.6068 E0.0098
G1 Y113.5300 E0.1260
G1 X147.5254 E3.2350
G1 X147.5300 Y110.6064 E0.1260
G1 X147.5117 Y110.3790 E0.0098
G1 X147.4649 Y110.1827 E0.0087
G1 X147.3884 Y109.9979 E0.0086
G1 X147.2849 Y109.8291 E0.0085
G1 X147.1352 Y109.6534 E0.0099
G1 X144.3470 Y106.8653 E0.1700
G1 X144.1726 Y106.7165 E0.0099
G1 X143.9997 Y106.6104 E0.0087
G1 X143.8147 Y106.5343 E0.0086
G1 X143.6168 Y106.4876 E0.0088
G1 X143.3937 Y106.4700 E0.0096
G1 X76.6068 E2.8786
G1 X76.5876 Y105.9900 F3000
G1 X76.3029 Y106.0129 E0.0123 F2100
G1 X76.0344 Y106.0771 E0.0119
G1 X75.7795 Y106.1826 E0.0119
G1 X75.5447 Y106.3270 E0.0119
G1 X75.3270 Y106.5125 E0.0123
G1 X72.5124 Y109.3270 E0.1716
G1 X72.3268 Y109.5446 E0.0123
G1 X72.1825 Y109.7794 E0.0119
G1 X72.0771 Y110.0343 E0.0119
G1 X72.0127 Y110.3037 E0.0119
G1 X71.9900 Y110.5876 E0.0123
G1 Y113.7390 E0.1358
G1 X71.9952 Y113.7953 E0.0024
G1 X72.0066 Y113.8391 E0.0019
G1 X72.0254 Y113.8790 E0.0019
G1 X72.0513 Y113.9159 E0.0019
G1 X72.0841 Y113.9487 E0.0020
G1 X72.1210 Y113.9746 E0.0019
G1 X72.1609 Y113.9934 E0.0019
G1 X72.2047 Y114.0048 E0.0019
G1 X72.2610 Y114.0100 E0.0024
G1 X147.7384 E3.2532
G1 X147.7965 Y114.0044 E0.0025
G1 X147.8401 Y113.9928 E0.0019
G1 X147.8800 Y113.9739 E0.0019
G1 X147.9168 Y113.9477 E0.0019
G1 X147.9493 Y113.9148 E0.0020
G1 X147.9750 Y113.8780 E0.0019
G1 X147.9936 Y113.8378 E0.0019
G1 X148.0050 Y113.7936 E0.0020
G1 X148.0100 Y113.7390 E0.0024
G1 Y110.5876 E0.1358
G1 X147.9873 Y110.3037 E0.0123
G1 X147.9230 Y110.0343 E0.0119
G1 X147.8174 Y109.7793 E0.0119
G1 X147.6745 Y109.5462 E0.0118
G1 X147.4882 Y109.3276 E0.0124
G1 X144.6730 Y106.5124 E0.1716
G1 X144.4555 Y106.3269 E0.0123
G1 X144.2179 Y106.1812 E0.0120
G1 X143.9620 Y106.0759 E0.0119
G1 X143.6913 Y106.0120 E0.0120
G1 X143.4126 Y105.9900 E0.0121
G1 X76.5876 E2.8803
G1 X74.2472 Y109.6287 F3000
G1 X73.5710 Y110.3049 E0.0412 F1012
G1 X73.4951 Y110.3938 E0.0050
G1 X73.4694 Y110.4357 E0.0021
G1 X73.4512 Y110.4796 E0.0020
G1 X73.4393 Y110.5297 E0.0022
G1 X73.4300 Y110.6453 E0.0050
G1 Y112.5700 E0.0830
G1 X82.2341 E0.3795
G1 X81.6811 Y112.3122 E0.0263
G1 X81.1747 Y111.9568 E0.0267
G1 X80.7398 Y111.5216 E0.0265
G1 X80.3833 Y111.0104 E0.0269
