; Generated by Kiri:Moto 4.0.32
; Tue Nov 26 2024 08:09:29 GMT-0800 (Pacific Standard Time)
; Bed left:0 right:220 top:220 bottom:0
; Bed type: fixed
; Target: Roger's Ender 3
; --- process ---
; processName = Downstairs Brave PC
; sliceHeight = 0.2
; sliceShells = 4
; sliceShellOrder = in-out
; sliceLayerStart = center
; sliceFillAngle = 45
; sliceFillOverlap = 0.5
; sliceFillSparse = 0.65
; sliceFillType = hex
; sliceAdaptive = false
; sliceMinHeight = 0.1
; sliceSupportDensity = 0.15
; sliceSupportOffset = 0.5
; sliceSupportGap = 0
; sliceSupportSize = 2
; sliceSupportArea = 0.25
; sliceSupportExtra = 0
; sliceSupportAngle = 50
; sliceSupportNozzle = 0
; sliceSolidMinArea = 5
; sliceBottomLayers = 5
; sliceTopLayers = 5
; firstLayerRate = 35
; firstLayerPrintMult = 1.1
; firstLayerYOffset = 0
; firstLayerBrim = 0
; firstLayerBeltLead = 200
; firstLayerFanSpeed = 0
; outputTemp = 215
; outputBedTemp = 60
; outputFanSpeed = 215
; outputFeedrate = 50
; outputFinishrate = 35
; outputSeekrate = 50
; outputShellMult = 1.5
; outputFillMult = 1.25
; outputSparseMult = 1.25
; outputRetractDist = 6
; outputRetractSpeed = 80
; outputRetractWipe = 0.5
; outputRetractDwell = 0
; outputShortPoly = 50
; outputMinSpeed = 1
; outputCoastDist = 0.25
; outputLayerRetract = true
; zHopDistance = 0.1
; antiBacklash = 0
; sliceFillWidth = 1
; sliceFillRate = 0
; sliceSupportEnable = false
; firstSliceHeight = 0.2
; firstLayerFillRate = 40
; firstLayerLineMult = 1.2
; firstLayerNozzleTemp = 0
; firstLayerBedTemp = 0
; firstLayerBrimTrig = 0
; firstLayerBrimGap = 0
; outputRaft = false
; outputRaftSpacing = 0.2
; outputBrimCount = 2
; outputBrimOffset = 2
; outputPurgeTower = 0
; outputInvertX = false
; outputInvertY = false
; arcTolerance = 0
; ranges = []
; outputLoops = 0
; firstLayerBrimIn = 0
; firstLayerBeltBump = 0
; outputBeltFirst = false
; sliceFillRepeat = 4
; sliceLineWidth = 0
; sliceSupportSpan = 5
; sliceSupportOutline = true
; firstLayerFlatten = 0
; outputDraftShield = false
; outputAvoidGaps = false
; sliceDetectThin = type 2
; sliceAngle = 45
; sliceLayerStartX = 0
; sliceLayerStartY = 0
; sliceFillGrow = 0.45
; sliceSolidRate = 0
; sliceSupportGrow = 0
; outputFanLayer = 1
; outputAlternating = false
; outputNozzle = 0
; --- startup ---
M104 S215 T0             ; set extruder temperature
M140 S60 T0              ; set bed temperature
G90                      ; set absolute positioning mode
M83                      ; set relative positioning for extruder
M107                     ; turn off filament cooling fan
G28                      ; home axes
G92 X0 Y0 Z0 E0          ; reset all axes positions
G1 X0 Y0 Z0.25 F180      ; move xy to 0,0 and z 0.25mm over bed
G92 E0                   ; zero the extruded
M190 S60 T0              ; wait for bed to reach target temp
M109 S215 T0             ; wait for extruder to reach target temp
G1 E15 F200              ; purge 15mm from extruder
G92 E0                   ; zero the extruded
G1 F225                  ; set feed speed
G1 Z1.0 F3000            ; move z up little to prevent scratching
G1 X0.1 Y20 Z0.3 F5000.0 ; move to start-line position
G1 X0.1 Y200.0 Z0.3 F1500.0 E15 ; draw 1st line
G1 X0.4 Y200.0 Z0.3 F5000.0     ; move to side a little
G1 X0.4 Y20 Z0.3 F1500.0 E30    ; draw 2nd line
G92 E0 ; reset extruder
G1 Z1.0 F3000 ; move z up little to prevent scratching of surface
G1 E-6.0000 F4800 ; e-retract 6
;; --- layer 0 (0.200 @ 0.2) ---
G1 Z0.2000 F3000
; feature brim
G1 X143.5102 Y103.5500
G1 E6.0000 F4800 ; e-engage 6
G1 X76.4889 E2.6261 F2100
G1 X75.9200 Y103.5961 E0.0224
G1 X75.2804 Y103.7486 E0.0258
G1 X74.6600 Y104.0052 E0.0263
G1 X74.0858 Y104.3639 E0.0265
G1 X73.6697 Y104.7190 E0.0214
G1 X70.7186 Y107.6702 E0.1635
G1 X70.3473 Y108.1056 E0.0224
G1 X70.0022 Y108.6670 E0.0258
G1 X69.7486 Y109.2797 E0.0260
G1 X69.5956 Y109.9207 E0.0258
G1 X69.5500 Y110.4900 E0.0224
G1 Y113.8509 E0.1317
G1 X69.5838 Y114.2190 E0.0145
G1 X69.7026 Y114.6725 E0.0184
G1 X69.9068 Y115.1085 E0.0189
G1 X70.1774 Y115.4926 E0.0184
G1 X70.5074 Y115.8226 E0.0183
G1 X70.8916 Y116.0932 E0.0184
G1 X71.3275 Y116.2974 E0.0189
G1 X71.7810 Y116.4162 E0.0184
G1 X72.1491 Y116.4500 E0.0145
G1 X147.8557 E2.9665
G1 X148.2313 Y116.4138 E0.0148
G1 X148.6846 Y116.2927 E0.0184
G1 X149.1193 Y116.0866 E0.0189
G1 X149.5021 Y115.8143 E0.0184
G1 X149.8306 Y115.4828 E0.0183
G1 X150.0995 Y115.0971 E0.0184
G1 X150.3014 Y114.6605 E0.0188
G1 X150.4168 Y114.2117 E0.0182
G1 X150.4500 Y113.8509 E0.0142
G1 Y110.4900 E0.1317
G1 X150.4044 Y109.9206 E0.0224
G1 X150.2515 Y109.2805 E0.0258
G1 X150.0003 Y108.6720 E0.0258
G1 X149.6547 Y108.1078 E0.0259
G1 X149.2813 Y107.6700 E0.0225
G1 X146.3251 Y104.7138 E0.1638
G1 X145.8755 Y104.3352 E0.0230
G1 X145.3364 Y104.0041 E0.0248
G1 X144.7241 Y103.7498 E0.0260
G1 X144.0812 Y103.5958 E0.0259
G1 X143.5102 Y103.5500 E0.0224
G1 X143.5262 Y103.1500 F3000
G1 X76.4727 E2.6274 F2100
G1 X75.8571 Y103.1999 E0.0242
G1 X75.1568 Y103.3669 E0.0282
G1 X74.4764 Y103.6483 E0.0289
G1 X73.8487 Y104.0404 E0.0290
G1 X73.3980 Y104.4250 E0.0232
G1 X70.4245 Y107.3985 E0.1648
G1 X70.0228 Y107.8697 E0.0243
G1 X69.6448 Y108.4847 E0.0283
G1 X69.3669 Y109.1560 E0.0285
G1 X69.1994 Y109.8579 E0.0283
G1 X69.1500 Y110.4740 E0.0242
G1 Y113.8693 E0.1330
G1 X69.1885 Y114.2884 E0.0165
G1 X69.3249 Y114.8091 E0.0211
G1 X69.5595 Y115.3100 E0.0217
G1 X69.8702 Y115.7511 E0.0211
G1 X70.2489 Y116.1298 E0.0210
G1 X70.6900 Y116.4405 E0.0211
G1 X71.1909 Y116.6751 E0.0217
G1 X71.7115 Y116.8114 E0.0211
G1 X72.1307 Y116.8500 E0.0165
G1 X147.8749 E2.9679
G1 X148.3026 Y116.8088 E0.0168
G1 X148.8230 Y116.6698 E0.0211
G1 X149.3224 Y116.4330 E0.0217
G1 X149.7620 Y116.1203 E0.0211
G1 X150.1390 Y115.7399 E0.0210
G1 X150.4478 Y115.2969 E0.0212
G1 X150.6798 Y114.7953 E0.0217
G1 X150.8122 Y114.2803 E0.0208
G1 X150.8500 Y113.8693 E0.0162
G1 Y110.4740 E0.1330
G1 X150.8006 Y109.8578 E0.0242
G1 X150.6333 Y109.1570 E0.0282
G1 X150.3579 Y108.4901 E0.0283
G1 X149.9794 Y107.8721 E0.0284
G1 X149.5753 Y107.3984 E0.0244
G1 X146.5958 Y104.4189 E0.1651
G1 X146.1103 Y104.0100 E0.0249
G1 X145.5189 Y103.6468 E0.0272
G1 X144.8481 Y103.3682 E0.0285
G1 X144.1441 Y103.1996 E0.0284
G1 X143.5262 Y103.1500 E0.0243
G1 E-6.0000 F4800 ; e-retract 6
G1 Z0.3000 F3000 ; z-hop start
; feature shells
G1 X141.1590 Y109.2500
G1 Z0.2000 ; z-hop end
G1 E6.0000 F4800 ; e-engage 6
G1 X141.1838 Y109.5256 E0.0119 F467
G1 X141.2545 Y109.7942 E0.0120
G1 X141.3725 Y110.0457 E0.0120
G1 X141.5314 Y110.2728 E0.0119
G1 X141.7272 Y110.4686 E0.0119
G1 X141.9543 Y110.6275 E0.0119
G1 X142.2058 Y110.7455 E0.0120
G1 X142.4744 Y110.8162 E0.0120
G1 X142.7500 Y110.8410 E0.0119
G1 X143.0256 Y110.8162 E0.0119
G1 X143.2942 Y110.7455 E0.0120
G1 X143.5457 Y110.6275 E0.0120
G1 X143.7728 Y110.4686 E0.0119
G1 X143.9686 Y110.2728 E0.0119
G1 X144.1275 Y110.0457 E0.0119
G1 X144.2455 Y109.7942 E0.0120
G1 X144.3162 Y109.5256 E0.0120
G1 X144.3410 Y109.2500 E0.0119
G1 X144.3162 Y108.9744 E0.0119
G1 X144.2455 Y108.7058 E0.0120
G1 X144.1275 Y108.4543 E0.0120
G1 X143.9686 Y108.2272 E0.0119
G1 X143.7728 Y108.0314 E0.0119
G1 X143.5457 Y107.8725 E0.0119
G1 X143.2942 Y107.7545 E0.0120
G1 X143.0256 Y107.6838 E0.0120
G1 X142.7500 Y107.6590 E0.0119
G1 X142.4744 Y107.6838 E0.0119
G1 X142.2058 Y107.7545 E0.0120
G1 X141.9543 Y107.8725 E0.0120
G1 X141.7272 Y108.0314 E0.0119
G1 X141.5314 Y108.2272 E0.0119
G1 X141.3725 Y108.4543 E0.0119
G1 X141.2545 Y108.7058 E0.0120
G1 X141.1838 Y108.9744 E0.0120
G1 X141.1590 Y109.2500 E0.0119
G1 X140.6771 F3000
G1 X140.7093 Y109.6087 E0.0155 F591
G1 X140.8014 Y109.9586 E0.0156
G1 X140.9555 Y110.2870 E0.0156
G1 X141.1622 Y110.5824 E0.0155
G1 X141.4175 Y110.8378 E0.0156
G1 X141.7130 Y111.0445 E0.0155
G1 X142.0414 Y111.1986 E0.0156
G1 X142.3913 Y111.2907 E0.0156
G1 X142.7500 Y111.3229 E0.0155
G1 X143.1087 Y111.2907 E0.0155
G1 X143.4586 Y111.1986 E0.0156
G1 X143.7870 Y111.0445 E0.0156
G1 X144.0825 Y110.8378 E0.0155
G1 X144.3378 Y110.5824 E0.0156
G1 X144.5444 Y110.2870 E0.0155
G1 X144.6986 Y109.9586 E0.0156
G1 X144.7907 Y109.6087 E0.0156
G1 X144.8229 Y109.2500 E0.0155
G1 X144.7907 Y108.8913 E0.0155
G1 X144.6986 Y108.5414 E0.0156
G1 X144.5444 Y108.2130 E0.0156
G1 X144.3378 Y107.9176 E0.0155
G1 X144.0825 Y107.6622 E0.0156
G1 X143.7870 Y107.4555 E0.0155
G1 X143.4586 Y107.3014 E0.0156
G1 X143.1087 Y107.2093 E0.0156
G1 X142.7500 Y107.1771 E0.0155
G1 X142.3913 Y107.2093 E0.0155
G1 X142.0414 Y107.3014 E0.0156
G1 X141.7130 Y107.4555 E0.0156
G1 X141.4175 Y107.6622 E0.0155
G1 X141.1622 Y107.9176 E0.0156
G1 X140.9555 Y108.2130 E0.0155
G1 X140.8014 Y108.5414 E0.0156
G1 X140.7093 Y108.8913 E0.0156
G1 X140.6771 Y109.2500 E0.0155
G1 E-6.0000 F4800 ; e-retract 6
G1 Z0.3000 F3000 ; z-hop start
G1 X141.1771
G1 X104.3410
G1 Z0.2000 ; z-hop end
G1 E6.0000 F4800 ; e-engage 6
G1 X104.3162 Y108.9744 E0.0119 F467
G1 X104.2455 Y108.7058 E0.0120
G1 X104.1275 Y108.4543 E0.0120
G1 X103.9686 Y108.2272 E0.0119
G1 X103.7728 Y108.0314 E0.0119
G1 X103.5457 Y107.8725 E0.0119
G1 X103.2942 Y107.7545 E0.0120
G1 X103.0256 Y107.6838 E0.0120
G1 X102.7500 Y107.6590 E0.0119
G1 X102.4744 Y107.6838 E0.0119
G1 X102.2058 Y107.7545 E0.0120
G1 X101.9543 Y107.8725 E0.0120
G1 X101.7272 Y108.0314 E0.0119
G1 X101.5314 Y108.2272 E0.0119
G1 X101.3725 Y108.4543 E0.0119
G1 X101.2545 Y108.7058 E0.0120
G1 X101.1838 Y108.9744 E0.0120
G1 X101.1590 Y109.2500 E0.0119
G1 X101.1838 Y109.5256 E0.0119
G1 X101.2545 Y109.7942 E0.0120
G1 X101.3725 Y110.0457 E0.0120
G1 X101.5314 Y110.2728 E0.0119
G1 X101.7272 Y110.4686 E0.0119
G1 X101.9543 Y110.6275 E0.0119
G1 X102.2058 Y110.7455 E0.0120
G1 X102.4744 Y110.8162 E0.0120
G1 X102.7500 Y110.8410 E0.0119
G1 X103.0256 Y110.8162 E0.0119
G1 X103.2942 Y110.7455 E0.0120
G1 X103.5457 Y110.6275 E0.0120
G1 X103.7728 Y110.4686 E0.0119
G1 X103.9686 Y110.2728 E0.0119
G1 X104.1275 Y110.0457 E0.0119
G1 X104.2455 Y109.7942 E0.0120
G1 X104.3162 Y109.5256 E0.0120
G1 X104.3410 Y109.2500 E0.0119
G1 X104.8229 F3000
G1 X104.7907 Y108.8913 E0.0155 F591
G1 X104.6986 Y108.5414 E0.0156
G1 X104.5444 Y108.2130 E0.0156
G1 X104.3378 Y107.9176 E0.0155
G1 X104.0824 Y107.6622 E0.0156
G1 X103.7870 Y107.4555 E0.0155
G1 X103.4586 Y107.3014 E0.0156
G1 X103.1087 Y107.2093 E0.0156
G1 X102.7500 Y107.1771 E0.0155
G1 X102.3913 Y107.2093 E0.0155
G1 X102.0414 Y107.3014 E0.0156
G1 X101.7130 Y107.4555 E0.0156
G1 X101.4176 Y107.6622 E0.0155
G1 X101.1622 Y107.9176 E0.0156
G1 X100.9556 Y108.2130 E0.0155
G1 X100.8014 Y108.5414 E0.0156
G1 X100.7093 Y108.8913 E0.0156
G1 X100.6771 Y109.2500 E0.0155
G1 X100.7093 Y109.6087 E0.0155
G1 X100.8014 Y109.9586 E0.0156
G1 X100.9556 Y110.2870 E0.0156
G1 X101.1622 Y110.5824 E0.0155
G1 X101.4176 Y110.8378 E0.0156
G1 X101.7130 Y111.0445 E0.0155
G1 X102.0414 Y111.1986 E0.0156
G1 X102.3913 Y111.2907 E0.0156
G1 X102.7500 Y111.3229 E0.0155
G1 X103.1087 Y111.2907 E0.0155
G1 X103.4586 Y111.1986 E0.0156
G1 X103.7870 Y111.0445 E0.0156
G1 X104.0824 Y110.8378 E0.0155
G1 X104.3378 Y110.5824 E0.0156
G1 X104.5444 Y110.2870 E0.0155
G1 X104.6986 Y109.9586 E0.0156
G1 X104.7907 Y109.6087 E0.0156
G1 X104.8229 Y109.2500 E0.0155
G1 X134.4596 Y109.2404 F3000
G1 X134.4916 Y109.6172 E0.0163 F595
G1 X134.5837 Y109.9591 E0.0153
G1 X134.7392 Y110.2953 E0.0160
G1 X134.9485 Y110.5938 E0.0157
G1 X135.2065 Y110.8519 E0.0157
G1 X135.5049 Y111.0609 E0.0157
G1 X135.8347 Y111.2144 E0.0157
G1 X136.1871 Y111.3091 E0.0157
G1 X136.5501 Y111.3408 E0.0157
G1 X136.9162 Y111.3086 E0.0158
G1 X137.2672 Y111.2137 E0.0157
G1 X137.5956 Y111.0606 E0.0156
G1 X137.8954 Y110.8502 E0.0158
G1 X138.1516 Y110.5938 E0.0156
G1 X138.3606 Y110.2953 E0.0157
G1 X138.5152 Y109.9630 E0.0158
G1 X138.6071 Y109.6215 E0.0152
G1 X138.6404 Y109.2588 E0.0157
G1 X138.6090 Y108.8874 E0.0161
G1 X138.5141 Y108.5346 E0.0157
G1 X138.3604 Y108.2047 E0.0157
G1 X138.1513 Y107.9063 E0.0157
G1 X137.8938 Y107.6488 E0.0157
G1 X137.5956 Y107.4394 E0.0157
G1 X137.2655 Y107.2857 E0.0157
G1 X136.9130 Y107.1908 E0.0157
G1 X136.5527 Y107.1591 E0.0156
G1 X136.1909 Y107.1902 E0.0157
G1 X135.8473 Y107.2819 E0.0153
G1 X135.5051 Y107.4390 E0.0162
G1 X135.2062 Y107.6485 E0.0157
G1 X134.9581 Y107.8962 E0.0151
G1 X134.7470 Y108.1931 E0.0157
G1 X134.5907 Y108.5229 E0.0157
G1 X134.4934 Y108.8760 E0.0158
G1 X134.4596 Y109.2404 E0.0158
G1 X133.9777 Y109.2386 F3000
G1 X134.0170 Y109.7006 E0.0200 F719
G1 X134.1308 Y110.1234 E0.0189
G1 X134.3216 Y110.5357 E0.0196
G1 X134.5795 Y110.9036 E0.0194
G1 X134.8967 Y111.2209 E0.0193
G1 X135.2641 Y111.4782 E0.0193
G1 X135.6698 Y111.6671 E0.0193
G1 X136.1033 Y111.7837 E0.0193
G1 X136.5503 Y111.8227 E0.0193
G1 X137.0005 Y111.7830 E0.0195
G1 X137.4325 Y111.6662 E0.0193
G1 X137.8367 Y111.4778 E0.0192
G1 X138.2054 Y111.2191 E0.0194
G1 X138.5207 Y110.9035 E0.0192
G1 X138.7780 Y110.5360 E0.0193
G1 X138.9679 Y110.1278 E0.0194
G1 X139.0814 Y109.7064 E0.0188
G1 X139.1223 Y109.2606 E0.0193
G1 X139.0837 Y108.8041 E0.0197
G1 X138.9667 Y108.3697 E0.0194
G1 X138.7777 Y107.9638 E0.0193
G1 X138.5203 Y107.5965 E0.0193
G1 X138.2037 Y107.2799 E0.0193
G1 X137.8367 Y107.0222 E0.0193
G1 X137.4304 Y106.8330 E0.0193
G1 X136.9970 Y106.7164 E0.0193
G1 X136.5532 Y106.6774 E0.0192
G1 X136.1078 Y106.7155 E0.0193
G1 X135.6840 Y106.8286 E0.0189
G1 X135.2653 Y107.0210 E0.0199
G1 X134.8966 Y107.2793 E0.0194
G1 X134.5904 Y107.5850 E0.0187
G1 X134.3313 Y107.9493 E0.0193
G1 X134.1391 Y108.3551 E0.0194
G1 X134.0193 Y108.7894 E0.0194
G1 X133.9777 Y109.2386 E0.0194
G1 E-6.0000 F4800 ; e-retract 6
G1 Z0.3000 F3000 ; z-hop start
G1 X134.4777 Y109.2408
G1 X139.5759 Y107.4300
G1 Z0.2000 ; z-hop end
G1 E6.0000 F4800 ; e-engage 6
G1 X139.6123 Y107.4821 E0.0027 F160
G1 X139.8721 Y108.0398 E0.0265
G1 X139.9101 Y108.1809 E0.0063
G1 X140.1216 Y107.7304 E0.0215
G1 X140.3317 Y107.4300 E0.0158
G1 X139.5759 E0.0326
G1 X143.3932 Y106.4700 F3000
G1 X76.6071 E2.8786 F2100
G1 X76.3793 Y106.4885 E0.0099
G1 X76.1826 Y106.5354 E0.0087
G1 X76.0007 Y106.6106 E0.0085
G1 X75.8166 Y106.7256 E0.0094
G1 X75.6531 Y106.8651 E0.0093
G1 X72.8653 Y109.6530 E0.1699
G1 X72.7163 Y109.8277 E0.0099
G1 X72.6115 Y109.9982 E0.0086
G1 X72.5351 Y110.1827 E0.0086
G1 X72.4883 Y110.3790 E0.0087
G1 X72.4700 Y110.6068 E0.0099
G1 Y113.5300 E0.1260
G1 X147.5254 E3.2350
G1 X147.5300 Y110.6064 E0.1260
G1 X147.5117 Y110.3790 E0.0098
G1 X147.4648 Y110.1824 E0.0087
G1 X147.3895 Y110.0001 E0.0085
G1 X147.2844 Y109.8284 E0.0087
G1 X147.1347 Y109.6529 E0.0099
G1 X144.3486 Y106.8668 E0.1698
G1 X144.1614 Y106.7092 E0.0105
G1 X144.0041 Y106.6126 E0.0080
G1 X143.8185 Y106.5355 E0.0087
G1 X143.6216 Y106.4883 E0.0087
G1 X143.3932 Y106.4700 E0.0099
G1 X143.4124 Y105.9900 F3000
G1 X76.5877 E2.8803 F2100
G1 X76.3038 Y106.0130 E0.0123
G1 X76.0342 Y106.0773 E0.0119
G1 X75.7803 Y106.1823 E0.0118
G1 X75.5321 Y106.3373 E0.0126
G1 X75.3271 Y106.5123 E0.0116
G1 X72.5124 Y109.3270 E0.1716
G1 X72.3268 Y109.5447 E0.0123
G1 X72.1825 Y109.7795 E0.0119
G1 X72.0770 Y110.0343 E0.0119
G1 X72.0127 Y110.3037 E0.0119
G1 X71.9900 Y110.5876 E0.0123
G1 Y113.7390 E0.1358
G1 X71.9952 Y113.7953 E0.0024
G1 X72.0066 Y113.8391 E0.0019
G1 X72.0254 Y113.8790 E0.0019
G1 X72.0513 Y113.9159 E0.0019
G1 X72.0841 Y113.9487 E0.0020
G1 X72.1210 Y113.9746 E0.0019
G1 X72.1609 Y113.9934 E0.0019
G1 X72.2047 Y114.0048 E0.0019
G1 X72.2610 Y114.0100 E0.0024
G1 X147.7384 E3.2532
G1 X147.7965 Y114.0044 E0.0025
G1 X147.8401 Y113.9928 E0.0019
G1 X147.8800 Y113.9739 E0.0019
G1 X147.9168 Y113.9477 E0.0019
G1 X147.9493 Y113.9148 E0.0020
G1 X147.9750 Y113.8780 E0.0019
G1 X147.9936 Y113.8378 E0.0019
G1 X148.0050 Y113.7936 E0.0020
G1 X148.0100 Y113.7390 E0.0024
G1 Y110.5876 E0.1358
G1 X147.9873 Y110.3037 E0.0123
G1 X147.9229 Y110.0342 E0.0119
G1 X147.8187 Y109.7818 E0.0118
G1 X147.6740 Y109.5455 E0.0119
G1 X147.4876 Y109.3270 E0.0124
G1 X144.6735 Y106.5129 E0.1715
G1 X144.4432 Y106.3189 E0.0130
G1 X144.2231 Y106.1838 E0.0111
G1 X143.9673 Y106.0776 E0.0119
G1 X143.6971 Y106.0129 E0.0120
G1 X143.4124 Y105.9900 E0.0123
G1 X145.7528 Y109.6287 F3000
G1 X145.7397 Y109.7749 E0.0063 F1012
G1 X145.6048 Y110.2875 E0.0228
G1 X145.3784 Y110.7696 E0.0230
G1 X145.0762 Y111.2017 E0.0227
G1 X144.7017 Y111.5762 E0.0228
G1 X144.2696 Y111.8784 E0.0227
