; Generated by Kiri:Moto 4.0.33
; Sun Dec 29 2024 23:42:27 GMT-0800 (Pacific Standard Time)
; Bed left:0 right:220 top:220 bottom:0
; Bed type: fixed
; Target: My Any Generic Marlin
; --- process ---
; processName = Ender 3 PLA
; sliceHeight = 0.2
; sliceShells = 3
; sliceShellOrder = in-out
; sliceLayerStart = center
; sliceFillAngle = 45
; sliceFillOverlap = 0.35
; sliceFillSparse = 0.15
; sliceFillType = hex
; sliceAdaptive = false
; sliceMinHeight = 0.1
; sliceSupportDensity = 0.15
; sliceSupportOffset = 0.4
; sliceSupportGap = 0
; sliceSupportSize = 1
; sliceSupportArea = 2
; sliceSupportExtra = 0
; sliceSupportAngle = 1
; sliceSupportNozzle = 0
; sliceSolidMinArea = 5
; sliceBottomLayers = 3
; sliceTopLayers = 3
; firstLayerRate = 50
; firstLayerPrintMult = 1
; firstLayerYOffset = 0
; firstLayerBrim = 0
; firstLayerBeltLead = 200
; firstLayerFanSpeed = 0
; outputTemp = 210
; outputBedTemp = 60
; outputFanSpeed = 200
; outputFeedrate = 60
; outputFinishrate = 45
; outputSeekrate = 110
; outputShellMult = 1
; outputFillMult = 1
; outputSparseMult = 1
; outputRetractDist = 5
; outputRetractSpeed = 80
; outputRetractWipe = 2
; outputRetractDwell = 0
; outputShortPoly = 50
; outputMinSpeed = 1
; outputCoastDist = 0.05
; outputLayerRetract = true
; zHopDistance = 0.1
; antiBacklash = 0
; sliceFillWidth = 1
; sliceFillRate = 0
; sliceSupportEnable = false
; firstSliceHeight = 0.2
; firstLayerFillRate = 35
; firstLayerLineMult = 1
; firstLayerNozzleTemp = 0
; firstLayerBedTemp = 0
; firstLayerBrimTrig = 0
; firstLayerBrimGap = 0
; outputRaft = false
; outputRaftSpacing = 0.2
; outputBrimCount = 1
; outputBrimOffset = 3
; outputPurgeTower = 0
; outputInvertX = false
; outputInvertY = false
; arcTolerance = 0
; ranges = []
; outputLoops = 0
; firstLayerBrimIn = 0
; firstLayerBeltBump = 0
; outputBeltFirst = false
; sliceFillRepeat = 4
; sliceLineWidth = 0
; sliceSupportSpan = 5
; sliceSupportOutline = false
; firstLayerFlatten = 0
; outputDraftShield = false
; outputAvoidGaps = false
; sliceDetectThin = off
; sliceAngle = 45
; sliceLayerStartX = 0
; sliceLayerStartY = 0
; sliceFillGrow = 0
; sliceSolidRate = 0
; sliceSupportGrow = 0
; outputFanLayer = 1
; outputAlternating = false
; outputNozzle = 0
; --- startup ---
M104 S210 T0             ; set extruder temperature
M140 S60 T0              ; set bed temperature
G90                      ; set absolute positioning mode
M83                      ; set relative positioning for extruder
M107                     ; turn off filament cooling fan
G28                      ; home axes
G92 X0 Y0 Z0 E0          ; reset all axes positions
G1 X0 Y0 Z0.25 F180      ; move xy to 0,0 and z 0.25mm over bed
G92 E0                   ; zero the extruded
M190 S60 T0              ; wait for bed to reach target temp
M109 S210 T0             ; wait for extruder to reach target temp
G1 E15 F200              ; purge 15mm from extruder
G92 E0                   ; zero the extruded
G1 F225                  ; set feed speed
G1 Z1.0 F3000            ; move z up little to prevent scratching
G1 X0.1 Y20 Z0.3 F5000.0 ; move to start-line position
G1 X0.1 Y100.0 Z0.3 F1500.0 E15 ; draw 1st line
G1 X0.4 Y100.0 Z0.3 F5000.0     ; move to side a little
G1 X0.4 Y20 Z0.3 F1500.0 E30    ; draw 2nd line
G92 E0 ; reset extruder
G1 Z1.0 F3000 ; move z up little to prevent scratching of surface
G1 E-5.0000 F4800 ; e-retract 5
;; --- layer 0 (0.200 @ 0.2) ---
G1 Z0.2000 F6600
; feature brim
G1 X143.2000 Y101.8000
G1 E5.0000 F4800 ; e-engage 5
G1 X76.8000 E1.7345 F3000
G1 Y118.2000 E0.4284
G1 X143.2000 E1.7345
G1 Y101.8000 E0.4284
G1 E-5.0000 F4800 ; e-retract 5
G1 Z0.3000 F6600 ; z-hop start
; feature shells
G1 X115.3580 Y109.5230
G1 Z0.2000 ; z-hop end
G1 E5.0000 F4800 ; e-engage 5
G1 X116.8770 E0.0397 F417
G1 Y108.0050 E0.0397
G1 X115.3580 E0.0397
G1 Y109.5230 E0.0397
G1 X114.9580 Y109.9230 F6600
G1 X117.2770 E0.0606 F605
G1 Y107.6050 E0.0606
G1 X114.9580 E0.0606
G1 Y109.9230 E0.0606
G1 X115.3580 Y112.6810 F6600
G1 Y114.2000 E0.0397 F417
G1 X116.8770 E0.0397
G1 Y112.6810 E0.0397
G1 X115.3580 E0.0397
G1 E-5.0000 F4800 ; e-retract 5
G1 Z0.3000 F6600 ; z-hop start
G1 X116.1175 Y113.4405
G1 X99.8130 Y109.1690
G1 Z0.2000 ; z-hop end
G1 E5.0000 F4800 ; e-engage 5
G1 Y108.0050 E0.0304 F1579
G1 X98.6841 E0.0295
G1 X98.6869 Y107.4924 E0.0134
G1 X98.7072 Y107.3354 E0.0041
G1 X98.7259 Y107.2745 E0.0017
G1 X98.7543 Y107.2092 E0.0019
G1 X98.8177 Y107.0967 E0.0034
G1 X98.9118 Y107.0366 E0.0029
G1 X98.9658 Y107.0089 E0.0016
G1 X99.0183 Y106.9900 E0.0015
G1 X99.0727 Y106.9787 E0.0015
G1 X99.3031 Y106.9643 E0.0060
G1 X99.5730 Y106.9783 E0.0071
G1 X100.0444 Y107.0438 E0.0124
G1 X100.2585 Y105.7956 E0.0331
G1 X99.5923 Y105.6919 E0.0176
G1 X99.1131 Y105.6638 E0.0125
G1 X98.8342 Y105.6744 E0.0073
G1 X98.6902 Y105.6888 E0.0038
G1 X98.5464 Y105.7148 E0.0038
G1 X98.4059 Y105.7537 E0.0038
G1 X98.2682 Y105.8056 E0.0038
G1 X98.0027 Y105.9299 E0.0077
G1 X97.8162 Y106.0789 E0.0062
G1 X97.6558 Y106.2405 E0.0059
G1 X97.5803 Y106.3458 E0.0034
G1 X97.4213 Y106.6493 E0.0089
G1 X97.3629 Y106.8943 E0.0066
G1 X97.3241 Y107.1271 E0.0062
G1 X97.3090 Y107.3612 E0.0061
G1 X97.3067 Y108.0050 E0.0168
G1 X96.4380 E0.0227
G1 Y109.1690 E0.0304
G1 X97.3060 E0.0227
G1 Y114.2000 E0.1314
G1 X98.6830 E0.0360
G1 Y109.1690 E0.1314
G1 X99.8130 E0.0295
G1 E-5.0000 F4800 ; e-retract 5
G1 Z0.3000 F6600 ; z-hop start
G1 X98.3482 Y109.9319
G1 X105.7069 Y108.0050
G1 Z0.2000 ; z-hop end
G1 E5.0000 F4800 ; e-engage 5
G1 X108.0641 Y114.2000 E0.1731 F1601
G1 X109.2572 E0.0312
G1 X111.6015 Y108.0050 E0.1730
G1 X110.1630 E0.0376
G1 X108.8264 Y111.6745 E0.1020
G1 X108.6567 Y112.1720 E0.0137
G1 X108.4669 Y111.6093 E0.0155
G1 X107.1748 Y108.0050 E0.1000
G1 X105.7069 E0.0383
G1 X104.8670 Y108.5557 F6600
G1 X104.6071 Y108.3220 E0.0091 F1813
G1 X104.4097 Y108.1973 E0.0061
G1 X104.1006 Y108.0591 E0.0088
G1 X103.7828 Y107.9722 E0.0086
G1 X103.4660 Y107.9097 E0.0084
G1 X103.1451 Y107.8822 E0.0084
G1 X102.8246 Y107.8739 E0.0084
G1 X102.3080 Y107.8996 E0.0135
G1 X102.1275 Y107.9215 E0.0047
G1 X101.7863 Y107.9926 E0.0091
G1 X101.4453 Y108.0890 E0.0093
G1 X101.1785 Y108.2029 E0.0076
G1 X100.9278 Y108.3402 E0.0075
G1 X100.8051 Y108.4313 E0.0040
G1 X100.6951 Y108.5280 E0.0038
G1 X100.4873 Y108.7359 E0.0077
G1 X100.3226 Y108.9929 E0.0080
G1 X100.1867 Y109.2560 E0.0077
G1 X100.0904 Y109.5341 E0.0077
G1 X99.9629 Y110.0257 E0.0133
G1 X101.3149 Y110.2102 E0.0356
G1 X101.4365 Y109.8093 E0.0109
G1 X101.4751 Y109.7068 E0.0029
G1 X101.5201 Y109.6134 E0.0027
G1 X101.5745 Y109.5276 E0.0027
G1 X101.6396 Y109.4448 E0.0028
G1 X101.7822 Y109.2940 E0.0054
G1 X101.9831 Y109.1964 E0.0058
G1 X102.0891 Y109.1550 E0.0030
G1 X102.1930 Y109.1264 E0.0028
G1 X102.4313 Y109.0946 E0.0063
G1 X102.6830 Y109.0871 E0.0066
G1 X102.9688 Y109.1014 E0.0075
G1 X103.0991 Y109.1173 E0.0034
G1 X103.2221 Y109.1447 E0.0033
G1 X103.3373 Y109.1851 E0.0032
G1 X103.4515 Y109.2400 E0.0033
G1 X103.6647 Y109.3694 E0.0065
G1 X103.7674 Y109.5146 E0.0046
G1 X103.8105 Y109.5922 E0.0023
G1 X103.8403 Y109.6688 E0.0021
G1 X103.8600 Y109.7545 E0.0023
G1 X103.8726 Y109.8504 E0.0025
G1 X103.8819 Y110.0668 E0.0057
G1 X103.8796 Y110.1663 E0.0026
G1 X103.3832 Y110.2950 E0.0134
G1 X103.1737 Y110.3371 E0.0056
G1 X102.7391 Y110.4061 E0.0115
G1 X101.8531 Y110.5226 E0.0233
G1 X101.4013 Y110.6142 E0.0120
G1 X101.1983 Y110.6797 E0.0056
G1 X101.0021 Y110.7577 E0.0055
G1 X100.8144 Y110.8543 E0.0055
G1 X100.6303 Y110.9656 E0.0056
G1 X100.4635 Y111.0991 E0.0056
G1 X100.3079 Y111.2467 E0.0056
G1 X100.1773 Y111.4168 E0.0056
G1 X100.0593 Y111.6006 E0.0057
G1 X99.9286 Y111.9119 E0.0088
G1 X99.8732 Y112.1359 E0.0060
G1 X99.8430 Y112.4743 E0.0089
G1 X99.8843 Y112.8408 E0.0096
G1 X99.9228 Y113.0243 E0.0049
G1 X99.9846 Y113.2039 E0.0050
G1 X100.0722 Y113.3732 E0.0050
G1 X100.1791 Y113.5279 E0.0049
G1 X100.4239 Y113.8163 E0.0099
G1 X100.7911 Y114.0515 E0.0114
G1 X100.9826 Y114.1501 E0.0056
G1 X101.1852 Y114.2266 E0.0057
G1 X101.3948 Y114.2768 E0.0056
G1 X101.6062 Y114.3062 E0.0056
G1 X102.0255 Y114.3314 E0.0110
G1 X102.4627 Y114.3029 E0.0114
G1 X102.7554 Y114.2521 E0.0078
G1 X103.1805 Y114.1272 E0.0116
G1 X103.6244 Y113.9111 E0.0129
G1 X103.9038 Y113.7350 E0.0086
G1 X104.0185 Y113.6462 E0.0038
G1 X104.0306 Y113.7044 E0.0016
G1 X104.0957 Y113.8985 E0.0053
G1 X104.2219 Y114.2000 E0.0085
G1 X105.7037 E0.0387
G1 X105.4800 Y113.7499 E0.0131
G1 X105.4156 Y113.5957 E0.0044
G1 X105.3674 Y113.4338 E0.0044
G1 X105.3302 Y113.2732 E0.0043
G1 X105.2966 Y112.8587 E0.0109
G1 X105.2750 Y112.4336 E0.0111
G1 X105.2630 Y109.7981 E0.0688
G1 X105.2175 Y109.3200 E0.0125
G1 X105.1618 Y109.1154 E0.0055
G1 X105.0906 Y108.9199 E0.0054
G1 X104.9897 Y108.7375 E0.0054
G1 X104.8670 Y108.5557 E0.0057
G1 E-5.0000 F4800 ; e-retract 5
G1 Z0.3000 F6600 ; z-hop start
G1 X117.9728 Y108.1999
G1 Z0.2000 ; z-hop end
G1 E5.0000 F4800 ; e-engage 5
G1 X119.3594 Y108.4470 E0.0368 F2346
G1 X119.4594 Y107.9646 E0.0129
G1 X119.4960 Y107.8350 E0.0035
G1 X119.5421 Y107.7141 E0.0034
G1 X119.5995 Y107.6011 E0.0033
G1 X119.6712 Y107.4909 E0.0034
G1 X119.8345 Y107.2802 E0.0070
G1 X120.0185 Y107.1469 E0.0059
G1 X120.1117 Y107.0907 E0.0028
G1 X120.2059 Y107.0488 E0.0027
G1 X120.3056 Y107.0185 E0.0027
G1 X120.4139 Y106.9982 E0.0029
G1 X120.6493 Y106.9759 E0.0062
G1 X120.8830 Y106.9974 E0.0061
G1 X120.9913 Y107.0170 E0.0029
G1 X121.0886 Y107.0451 E0.0026
G1 X121.1800 Y107.0865 E0.0026
G1 X121.2720 Y107.1416 E0.0028
G1 X121.4532 Y107.2754 E0.0059
G1 X121.5878 Y107.4434 E0.0056
G1 X121.6430 Y107.5283 E0.0026
G1 X121.6852 Y107.6134 E0.0025
G1 X121.7141 Y107.7033 E0.0025
G1 X121.7341 Y107.8043 E0.0027
G1 X121.7578 Y108.0247 E0.0058
G1 X121.7284 Y108.2909 E0.0070
G1 X121.7021 Y108.4077 E0.0031
G1 X121.6627 Y108.5096 E0.0029
G1 X121.6067 Y108.6025 E0.0028
G1 X121.5318 Y108.6919 E0.0030
G1 X121.3403 Y108.8694 E0.0068
G1 X121.1048 Y108.9939 E0.0070
G1 X120.9829 Y109.0476 E0.0035
G1 X120.8619 Y109.0894 E0.0033
G1 X120.7357 Y109.1184 E0.0034
G1 X120.6038 Y109.1382 E0.0035
G1 X120.3257 Y109.1614 E0.0073
G1 X119.9943 Y109.1384 E0.0087
G1 X119.8259 Y110.4697 E0.0351
G1 X120.4341 Y110.3350 E0.0163
G1 X120.7525 Y110.3049 E0.0084
G1 X121.0368 Y110.3332 E0.0075
G1 X121.1680 Y110.3575 E0.0035
G1 X121.2887 Y110.3950 E0.0033
G1 X121.4024 Y110.4481 E0.0033
G1 X121.5142 Y110.5178 E0.0034
G1 X121.7348 Y110.6861 E0.0072
G1 X121.9038 Y110.9046 E0.0072
G1 X121.9735 Y111.0156 E0.0034
G1 X122.0274 Y111.1285 E0.0033
G1 X122.0648 Y111.2472 E0.0033
G1 X122.0899 Y111.3770 E0.0035
G1 X122.1180 Y111.6584 E0.0074
G1 X122.0861 Y111.9598 E0.0079
G1 X122.0581 Y112.0998 E0.0037
G1 X122.0168 Y112.2287 E0.0035
G1 X121.9579 Y112.3506 E0.0035
G1 X121.8821 Y112.4700 E0.0037
G1 X121.6989 Y112.7071 E0.0078
G1 X121.4674 Y112.8893 E0.0077
G1 X121.3498 Y112.9659 E0.0037
G1 X121.2310 Y113.0245 E0.0035
G1 X121.1045 Y113.0664 E0.0035
G1 X120.9668 Y113.0942 E0.0037
G1 X120.6696 Y113.1279 E0.0078
G1 X120.4276 Y113.1039 E0.0064
G1 X120.3137 Y113.0823 E0.0030
G1 X120.2091 Y113.0518 E0.0028
G1 X120.1110 Y113.0080 E0.0028
G1 X120.0128 Y112.9500 E0.0030
G1 X119.8201 Y112.8135 E0.0062
G1 X119.6320 Y112.5754 E0.0079
G1 X119.5490 Y112.4505 E0.0039
G1 X119.4807 Y112.3218 E0.0038
G1 X119.4255 Y112.1837 E0.0039
G1 X119.3787 Y112.0352 E0.0041
G1 X119.2567 Y111.5350 E0.0134
G1 X117.8855 Y111.7179 E0.0361
G1 X118.0195 Y112.3954 E0.0180
G1 X118.0887 Y112.6335 E0.0065
G1 X118.1826 Y112.8664 E0.0066
G1 X118.3068 Y113.0837 E0.0065
G1 X118.4533 Y113.2856 E0.0065
G1 X118.7826 Y113.6642 E0.0131
G1 X119.2055 Y113.9565 E0.0134
G1 X119.4268 Y114.0823 E0.0066
G1 X119.6631 Y114.1840 E0.0067
G1 X119.9095 Y114.2532 E0.0067
G1 X120.1607 Y114.2974 E0.0067
G1 X120.6666 Y114.3429 E0.0133
G1 X121.2265 Y114.2893 E0.0147
G1 X121.5037 Y114.2388 E0.0074
G1 X121.7752 Y114.1578 E0.0074
G1 X122.0337 Y114.0405 E0.0074
G1 X122.2765 Y113.8960 E0.0074
G1 X122.7362 Y113.5597 E0.0149
G1 X123.0789 Y113.1455 E0.0140
G1 X123.2298 Y112.9251 E0.0070
G1 X123.3542 Y112.6862 E0.0070
G1 X123.4420 Y112.4319 E0.0070
G1 X123.4984 Y112.1703 E0.0070
G1 X123.5629 Y111.6419 E0.0139
G1 X123.5359 Y111.2701 E0.0097
G1 X123.5086 Y111.0853 E0.0049
G1 X123.4649 Y110.9005 E0.0050
G1 X123.3996 Y110.7215 E0.0050
G1 X123.3191 Y110.5527 E0.0049
G1 X123.1296 Y110.2253 E0.0099
G1 X122.8732 Y109.9622 E0.0096
G1 X122.7350 Y109.8429 E0.0048
G1 X122.5836 Y109.7371 E0.0048
G1 X122.4209 Y109.6506 E0.0048
G1 X122.3481 Y109.6209 E0.0021
G1 X122.4540 Y109.5418 E0.0035
G1 X122.5660 Y109.4411 E0.0039
G1 X122.6684 Y109.3320 E0.0039
G1 X122.8572 Y109.1015 E0.0078
G1 X122.9877 Y108.8570 E0.0072
G1 X123.0449 Y108.7293 E0.0037
G1 X123.0935 Y108.5917 E0.0038
G1 X123.1453 Y108.3249 E0.0071
G1 X123.1698 Y108.0459 E0.0073
G1 X123.1437 Y107.7514 E0.0077
G1 X123.1215 Y107.6030 E0.0039
G1 X123.0856 Y107.4523 E0.0040
G1 X122.9825 Y107.1788 E0.0076
G1 X122.8480 Y106.9099 E0.0079
G1 X122.6608 Y106.6577 E0.0082
G1 X122.5580 Y106.5361 E0.0042
G1 X122.4444 Y106.4236 E0.0042
G1 X122.3210 Y106.3215 E0.0042
G1 X122.1912 Y106.2313 E0.0041
G1 X121.9248 Y106.0691 E0.0081
G1 X121.6123 Y105.9398 E0.0088
G1 X121.2934 Y105.8396 E0.0087
G1 X120.9629 Y105.7890 E0.0087
G1 X120.6262 Y105.7664 E0.0088
G1 X120.1710 Y105.8054 E0.0119
G1 X119.9433 Y105.8434 E0.0060
G1 X119.7191 Y105.9041 E0.0061
G1 X119.5027 Y105.9918 E0.0061
G1 X119.2986 Y106.1020 E0.0061
G1 X118.9088 Y106.3568 E0.0122
G1 X118.5870 Y106.7141 E0.0126
G1 X118.4426 Y106.9030 E0.0062
G1 X118.3176 Y107.1087 E0.0063
G1 X118.2199 Y107.3261 E0.0062
G1 X118.1425 Y107.5499 E0.0062
G1 X117.9728 Y108.1999 E0.0175
G1 X120.1964 Y108.3505 F6600
G1 X120.3201 Y108.3591 E0.0032 F188
G1 X120.4959 Y108.3444 E0.0046
G1 X120.6560 Y108.3142 E0.0043
G1 X120.6817 Y108.3053 E0.0007
G1 X120.8771 Y108.2080 E0.0057
G1 X120.9382 Y108.1513 E0.0022
G1 X120.9395 Y108.1470 E0.0001
G1 X120.9525 Y108.0285 E0.0031
G1 X120.9378 Y107.9176 E0.0029
G1 X120.8929 Y107.8582 E0.0019
G1 X120.8082 Y107.7993 E0.0027
G1 X120.8066 Y107.7987 E0.0000
G1 X120.6506 Y107.7804 E0.0041
G1 X120.4953 Y107.7992 E0.0041
G1 X120.4823 Y107.8040 E0.0004
G1 X120.3934 Y107.8650 E0.0028
G1 X120.3299 Y107.9470 E0.0027
G1 X120.2753 Y108.0409 E0.0028
G1 X120.2353 Y108.1630 E0.0034
G1 X120.1964 Y108.3505 E0.0050
G1 X120.3229 Y108.7603 F6600
G1 X120.5498 Y108.7413 E0.0059 F350
G1 X120.7589 Y108.7018 E0.0056
G1 X120.8368 Y108.6749 E0.0022
G1 X120.9304 Y108.6336 E0.0027
G1 X121.1069 Y108.5404 E0.0052
G1 X121.2414 Y108.4157 E0.0048
G1 X121.2802 Y108.3693 E0.0016
G1 X121.3022 Y108.3329 E0.0011
G1 X121.3184 Y108.2910 E0.0012
G1 X121.3333 Y108.2249 E0.0018
G1 X121.3554 Y108.0241 E0.0053
G1 X121.3383 Y107.8647 E0.0042
G1 X121.3262 Y107.8037 E0.0016
G1 X121.3135 Y107.7643 E0.0011
G1 X121.2949 Y107.7267 E0.0011
G1 X121.2633 Y107.6781 E0.0015
G1 X121.1736 Y107.5662 E0.0037
G1 X121.0498 Y107.4748 E0.0040
G1 X120.9942 Y107.4414 E0.0017
G1 X120.9499 Y107.4214 E0.0013
G1 X120.8998 Y107.4069 E0.0014
G1 X120.8289 Y107.3941 E0.0019
G1 X120.6499 Y107.3776 E0.0047
G1 X120.4698 Y107.3947 E0.0047
G1 X120.4008 Y107.4077 E0.0018
G1 X120.3457 Y107.4244 E0.0015
G1 X120.2970 Y107.4460 E0.0014
G1 X120.2396 Y107.4807 E0.0017
G1 X120.1156 Y107.5705 E0.0040
G1 X119.9974 Y107.7230 E0.0050
G1 X119.9465 Y107.8013 E0.0024
G1 X119.9084 Y107.8763 E0.0022
G1 X119.8761 Y107.9610 E0.0024
G1 X119.8482 Y108.0597 E0.0027
G1 X119.7117 Y108.7177 E0.0176
G1 X120.3229 Y108.7603 E0.0160
G1 E-5.0000 F4800 ; e-retract 5
G1 Z0.3000 F6600 ; z-hop start
G1 X120.5336 Y108.0689
G1 X139.8000 Y105.2000
G1 Z0.2000 ; z-hop end
G1 E5.0000 F4800 ; e-engage 5
G1 X80.2000 E1.5569 F3000
G1 Y114.8000 E0.2508
G1 X139.8000 E1.5569
G1 Y105.2000 E0.2508
G1 E-5.0000 F4800 ; e-retract 5
G1 Z0.3000 F6600 ; z-hop start
G1 X137.8254 Y105.5180
G1 X103.4680 Y109.8598
G1 Z0.2000 ; z-hop end
G1 E5.0000 F4800 ; e-engage 5
G1 X103.4533 Y109.7773 E0.0022 F293
G1 X103.4476 Y109.7625 E0.0004
G1 X103.4283 Y109.7279 E0.0010
G1 X103.3862 Y109.6682 E0.0019
G1 X103.2606 Y109.5920 E0.0038
G1 X103.1840 Y109.5552 E0.0022
G1 X103.1122 Y109.5300 E0.0020
G1 X103.0313 Y109.5120 E0.0022
G1 X102.9344 Y109.5002 E0.0025
G1 X102.6789 Y109.4874 E0.0067
