;FLAVOR:Marlin
;TIME:1012
;Filament used: 0.542423m
;Layer height: 0.24
;MINX:91.906
;MINY:86.153
;MINZ:0.2
;MAXX:128.104
;MAXY:131.968
;MAXZ:19.88
;TARGET_MACHINE.NAME:Creality Ender-3 Pro
;Generated with Cura_SteamEngine 5.9.0
M82 ;absolute extrusion mode
; Ender 3 Custom Start G-code
G92 E0 ; Reset Extruder
G28 ; Home all axes
G1 Z5.0 F3000 ; Move Z Axis up a bit during heating to not damage bed
M190 S60.0 ; Start heating the bed, wait until target temperature reached
M109 S205.0 ; Finish heating the nozzle
G1 Z2.0 F3000 ; Move Z Axis up little to prevent scratching of Heat Bed
G1 X0.1 Y20 Z0.3 F5000.0 ; Move to start position
G1 X0.1 Y200.0 Z0.3 F1500.0 E15 ; Draw the first line
G1 X0.4 Y200.0 Z0.3 F5000.0 ; Move to side a little
G1 X0.4 Y20 Z0.3 F1500.0 E30 ; Draw the second line
G92 E0 ; Reset Extruder
G1 Z2.0 F3000 ; Move Z Axis up little to prevent scratching of Heat Bed
G1 X5 Y20 Z0.3 F5000.0 ; Move over to prevent blob squish
G92 E0
G92 E0
G1 F2100 E-5.5
;LAYER_COUNT:83
;LAYER:0
M107
M204 S500
M205 X20 Y20
G0 F9000 X117.371 Y131.886 Z0.2
M204 S800
;TYPE:SKIRT
G1 F2100 E0
G1 F3000 X116.004 Y131.964 E0.03643
G1 X114.905 Y131.955 E0.06568
G1 X113.678 Y131.909 E0.09835
G1 X111.075 Y131.838 E0.16763
G1 X108.55 Y131.84 E0.23482
G1 X104.884 Y131.959 E0.33242
G1 X104.21 Y131.968 E0.35035
G1 X103.281 Y131.938 E0.37508
G1 X102.386 Y131.831 E0.39907
G1 X101.833 Y131.725 E0.41405
G1 X101.405 Y131.631 E0.42571
G1 X100.494 Y131.387 E0.4508
G1 X99.62 Y131.068 E0.47556
G1 X98.804 Y130.685 E0.49954
G1 X97.947 Y130.185 E0.52594
G1 X97.63 Y129.979 E0.536
G1 X96.874 Y129.438 E0.56074
G1 X96.169 Y128.831 E0.58549
G1 X95.521 Y128.165 E0.61022
G1 X94.937 Y127.449 E0.6348
G1 X94.611 Y126.985 E0.64989
G1 X94.095 Y126.198 E0.67493
G1 X93.733 Y125.612 E0.69326
G1 X93.28 Y124.8 E0.718
G1 X92.911 Y123.978 E0.74197
G1 X92.598 Y123.072 E0.76748
G1 X92.38 Y122.197 E0.79147
G1 X92.225 Y121.184 E0.81874
G1 X91.96 Y118.619 E0.88735
G1 X91.906 Y117.69 E0.91212
G1 X91.935 Y116.761 E0.93685
G1 X92.042 Y115.866 E0.96083
G1 X92.231 Y114.96 E0.98546
G1 X92.913 Y112.288 E1.05883
G1 X93.471 Y109.83 E1.1259
G1 X93.962 Y107.345 E1.1933
G1 X94.583 Y103.49 E1.29719
G1 X94.687 Y102.783 E1.31621
G1 X94.969 Y100.578 E1.37536
G1 X95.095 Y99.496 E1.40434
G1 X95.244 Y98.578 E1.42909
G1 X95.476 Y97.674 E1.45392
G1 X95.887 Y96.551 E1.48574
G1 X96.157 Y95.929 E1.50378
G1 X96.552 Y95.119 E1.52776
G1 X97.047 Y94.298 E1.55327
G1 X97.601 Y93.543 E1.57819
G1 X98.512 Y92.547 E1.6141
G1 X100.562 Y90.558 E1.6901
G1 X101.204 Y89.917 E1.71424
G1 X101.876 Y89.303 E1.73846
G1 X102.435 Y88.85 E1.75761
G1 X102.715 Y88.638 E1.76695
G1 X103.465 Y88.117 E1.79125
G1 X103.859 Y87.87 E1.80363
G1 X104.673 Y87.408 E1.82853
G1 X105.978 Y86.845 E1.86635
G1 X106.954 Y86.542 E1.89354
G1 X107.868 Y86.345 E1.91842
G1 X108.135 Y86.299 E1.92563
G1 X109.029 Y86.187 E1.9496
G1 X109.984 Y86.153 E1.97503
G1 X110.958 Y86.196 E2.00097
G1 X111.901 Y86.292 E2.02619
G1 X112.814 Y86.466 E2.05092
G1 X113.713 Y86.724 E2.07581
G1 X114.926 Y87.216 E2.11064
G1 X115.316 Y87.404 E2.12216
G1 X116.109 Y87.832 E2.14613
G1 X117.087 Y88.492 E2.17753
G1 X117.716 Y88.971 E2.19856
G1 X118.409 Y89.548 E2.22256
G1 X118.789 Y89.911 E2.23654
G1 X119.133 Y90.257 E2.24952
G1 X121.533 Y92.589 E2.33856
G1 X122.169 Y93.266 E2.36328
G1 X122.743 Y93.997 E2.38801
G1 X123.251 Y94.778 E2.4128
G1 X123.733 Y95.699 E2.44046
G1 X123.996 Y96.268 E2.45714
G1 X124.348 Y97.129 E2.48189
G1 X124.621 Y98.017 E2.50661
G1 X124.814 Y98.92 E2.53118
G1 X124.88 Y99.373 E2.54336
G1 X125.104 Y101.203 E2.59242
G1 X125.145 Y101.465 E2.59947
G1 X125.268 Y102.495 E2.62707
G1 X125.559 Y104.502 E2.68103
G1 X125.981 Y107.045 E2.74962
G1 X126.471 Y109.564 E2.81791
G1 X127.016 Y111.998 E2.88427
G1 X127.529 Y114.031 E2.94006
G1 X127.758 Y114.894 E2.96382
G1 X127.95 Y115.775 E2.98781
G1 X128.07 Y116.725 E3.01329
G1 X128.104 Y117.655 E3.03805
G1 X128.057 Y118.555 E3.06203
G1 X127.853 Y119.842 E3.09671
G1 X127.51 Y121.381 E3.13866
G1 X127.306 Y122.238 E3.1621
G1 X127.143 Y122.983 E3.18239
G1 X126.902 Y123.885 E3.20723
G1 X126.468 Y125.03 E3.23982
G1 X126.296 Y125.413 E3.25099
G1 X125.877 Y126.243 E3.27573
G1 X125.402 Y127.009 E3.29971
G1 X124.827 Y127.775 E3.32519
G1 X124.224 Y128.445 E3.34918
G1 X123.545 Y129.08 E3.37392
G1 X122.863 Y129.624 E3.39713
G1 X122.103 Y130.161 E3.42189
G1 X121.324 Y130.614 E3.44587
G1 X120.403 Y131.043 E3.4729
G1 X120.037 Y131.192 E3.48342
G1 X119.161 Y131.504 E3.50816
G1 X118.26 Y131.737 E3.53292
G1 X117.371 Y131.886 E3.55691
M204 S500
G0 F9000 X117.318 Y131.57
M204 S800
G1 F3000 X116.007 Y131.644 E3.59184
G1 X114.917 Y131.635 E3.62085
G1 X113.69 Y131.589 E3.65352
G1 X111.084 Y131.518 E3.72289
G1 X108.54 Y131.52 E3.79058
G1 X104.88 Y131.639 E3.88801
G1 X104.22 Y131.648 E3.90558
G1 X103.319 Y131.62 E3.92956
G1 X102.424 Y131.513 E3.95355
G1 X101.902 Y131.412 E3.96769
G1 X101.474 Y131.318 E3.97935
G1 X100.603 Y131.086 E4.00334
G1 X99.756 Y130.778 E4.02732
G1 X98.94 Y130.395 E4.0513
G1 X98.121 Y129.917 E4.07653
G1 X97.816 Y129.719 E4.08621
G1 X97.082 Y129.195 E4.11021
G1 X96.398 Y128.608 E4.13419
G1 X95.769 Y127.963 E4.15816
G1 X95.199 Y127.265 E4.18214
G1 X94.879 Y126.81 E4.19694
G1 X94.367 Y126.029 E4.22179
G1 X94.012 Y125.456 E4.23972
G1 X93.572 Y124.669 E4.26372
G1 X93.203 Y123.847 E4.28769
G1 X92.909 Y122.995 E4.31167
G1 X92.691 Y122.12 E4.33567
G1 X92.543 Y121.151 E4.36175
G1 X92.279 Y118.6 E4.42999
G1 X92.226 Y117.7 E4.45398
G1 X92.253 Y116.799 E4.47796
G1 X92.36 Y115.904 E4.50195
G1 X92.541 Y115.039 E4.52546
G1 X93.223 Y112.367 E4.59884
G1 X93.783 Y109.901 E4.66612
G1 X94.276 Y107.407 E4.73377
G1 X94.899 Y103.541 E4.83796
G1 X95.003 Y102.829 E4.85711
G1 X95.287 Y100.615 E4.9165
G1 X95.411 Y99.547 E4.94511
G1 X95.554 Y98.657 E4.96909
G1 X95.776 Y97.784 E4.99306
G1 X96.181 Y96.678 E5.0244
G1 X96.445 Y96.069 E5.04206
G1 X96.84 Y95.259 E5.06604
G1 X97.305 Y94.487 E5.09002
G1 X97.837 Y93.759 E5.11401
G1 X98.734 Y92.778 E5.14938
G1 X99.499 Y92.044 E5.17759
G1 X100.786 Y90.786 E5.22548
G1 X101.42 Y90.153 E5.24932
G1 X102.078 Y89.552 E5.27303
G1 X102.629 Y89.105 E5.29191
G1 X102.897 Y88.901 E5.30087
G1 X103.636 Y88.388 E5.32481
G1 X104.017 Y88.148 E5.33679
G1 X104.8 Y87.702 E5.36076
G1 X106.073 Y87.151 E5.39767
G1 X107.049 Y86.848 E5.42487
G1 X107.922 Y86.66 E5.44863
G1 X108.175 Y86.617 E5.45546
G1 X109.069 Y86.505 E5.47943
G1 X109.97 Y86.473 E5.50342
G1 X110.944 Y86.516 E5.52936
G1 X111.841 Y86.606 E5.55335
G1 X112.726 Y86.774 E5.57732
G1 X113.593 Y87.021 E5.6013
G1 X114.806 Y87.513 E5.63613
G1 X115.164 Y87.686 E5.64671
G1 X115.957 Y88.114 E5.67069
G1 X116.893 Y88.747 E5.70076
G1 X117.511 Y89.217 E5.72141
G1 X118.204 Y89.794 E5.74541
G1 X118.562 Y90.137 E5.7586
G1 X118.91 Y90.487 E5.77173
G1 X121.3 Y92.808 E5.86038
G1 X121.918 Y93.464 E5.88436
G1 X122.475 Y94.172 E5.90833
G1 X122.968 Y94.927 E5.93232
G1 X123.443 Y95.833 E5.95954
G1 X123.7 Y96.389 E5.97584
G1 X124.042 Y97.223 E5.99982
G1 X124.308 Y98.084 E6.0238
G1 X124.497 Y98.966 E6.0478
G1 X124.562 Y99.412 E6.0598
G1 X124.787 Y101.242 E6.10886
G1 X124.827 Y101.503 E6.11588
G1 X124.951 Y102.541 E6.1437
G1 X125.243 Y104.554 E6.19782
G1 X125.665 Y107.097 E6.26641
G1 X126.159 Y109.634 E6.33518
G1 X126.706 Y112.076 E6.40177
G1 X127.22 Y114.113 E6.45767
G1 X127.445 Y114.962 E6.48104
G1 X127.637 Y115.843 E6.50503
G1 X127.75 Y116.737 E6.52901
G1 X127.784 Y117.638 E6.553
G1 X127.737 Y118.538 E6.57698
G1 X127.541 Y119.772 E6.61022
G1 X127.199 Y121.307 E6.65207
G1 X126.993 Y122.17 E6.67568
G1 X126.834 Y122.901 E6.69558
G1 X126.603 Y123.772 E6.71956
G1 X126.176 Y124.899 E6.75163
G1 X126.01 Y125.269 E6.76242
G1 X125.605 Y126.074 E6.78639
G1 X125.13 Y126.84 E6.81038
G1 X124.589 Y127.561 E6.83436
G1 X123.986 Y128.231 E6.85835
G1 X123.327 Y128.846 E6.88233
G1 X122.678 Y129.363 E6.90441
G1 X121.942 Y129.884 E6.9284
G1 X121.163 Y130.337 E6.95238
G1 X120.282 Y130.747 E6.97824
G1 X119.929 Y130.891 E6.98838
G1 X119.08 Y131.194 E7.01237
G1 X118.207 Y131.421 E7.03637
G1 X117.318 Y131.57 E7.06035
M204 S500
G1 F2100 E1.56035
G0 F9000 X113.06 Y106.923
G0 X110.524 Y101.003
M204 S800
G1 F2100 E7.06035
G1 F3000 X110.104 Y100.99 E7.07153
G1 X109.912 Y100.989 E7.07664
G1 X109.475 Y101.003 E7.08827
G1 X109.666 Y100.83 E7.09513
G1 X110 Y100.48 E7.108
G1 X110.029 Y100.513 E7.10917
G1 X110.146 Y100.639 E7.11375
G1 X110.357 Y100.854 E7.12176
G1 X110.524 Y101.003 E7.12772
M204 S500
G0 F9000 X111.571 Y101.452
M204 S800
G1 F3000 X111.466 Y101.436 E7.13055
G1 X111.255 Y101.441 E7.13616
G1 X110.847 Y101.349 E7.14729
G1 X110.562 Y101.324 E7.1549
G1 X110.094 Y101.309 E7.16736
G1 X109.922 Y101.309 E7.17194
G1 X109.442 Y101.324 E7.18472
G1 X108.979 Y101.379 E7.19712
G1 X108.733 Y101.452 E7.20395
G1 X108.395 Y101.476 E7.21297
G1 X108.843 Y101.129 E7.22804
G1 X108.998 Y100.985 E7.23367
G1 X109.132 Y100.882 E7.23817
G1 X109.435 Y100.609 E7.24902
G1 X109.81 Y100.216 E7.26348
G1 X109.959 Y100.046 E7.26949
G1 X110.001 Y99.994 E7.27127
G1 X110.27 Y100.302 E7.28215
G1 X110.375 Y100.415 E7.28626
G1 X110.586 Y100.63 E7.29427
G1 X110.847 Y100.864 E7.3036
G1 X111.027 Y101.005 E7.30968
G1 X111.151 Y101.126 E7.31429
G1 X111.571 Y101.452 E7.32844
M204 S500
G0 F9000 X112.217 Y101.933
M204 S800
G1 F3000 X111.802 Y101.804 E7.34
G1 X111.367 Y101.752 E7.35166
G1 X111.201 Y101.763 E7.35609
G1 X111.102 Y101.726 E7.3589
G1 X110.552 Y101.644 E7.37369
G1 X110.084 Y101.629 E7.38615
G1 X109.932 Y101.629 E7.3902
G1 X109.452 Y101.644 E7.40298
G1 X109.018 Y101.698 E7.41461
G1 X108.758 Y101.779 E7.42186
G1 X108.592 Y101.773 E7.42628
G1 X108.159 Y101.836 E7.43792
G1 X107.777 Y101.981 E7.44879
G1 X107.825 Y101.513 E7.46131
G1 X108.647 Y100.876 E7.48898
G1 X108.795 Y100.738 E7.49437
G1 X108.936 Y100.629 E7.49911
G1 X109.203 Y100.388 E7.50868
G1 X109.578 Y99.995 E7.52313
G1 X109.71 Y99.845 E7.52845
G1 X110.001 Y99.485 E7.54077
G1 X110.151 Y99.68 E7.54731
G1 X110.511 Y100.091 E7.56185
G1 X110.603 Y100.191 E7.56547
G1 X110.814 Y100.406 E7.57348
G1 X111.045 Y100.613 E7.58173
G1 X111.142 Y100.689 E7.58501
G1 X111.347 Y100.873 E7.59234
G1 X112.175 Y101.514 E7.6202
G1 X112.217 Y101.933 E7.63141
M204 S500
G0 F9000 X112.594 Y102.475
M204 S800
G1 F3000 X112.562 Y102.455 E7.63241
G1 X112.439 Y102.41 E7.6359
G1 X112.433 Y102.406 E7.63609
G1 X112.071 Y102.219 E7.64693
G1 X111.68 Y102.106 E7.65776
G1 X111.274 Y102.071 E7.6686
G1 X111.149 Y102.085 E7.67195
G1 X110.909 Y102.009 E7.67865
G1 X110.542 Y101.964 E7.68849
G1 X110.074 Y101.949 E7.70095
G1 X109.942 Y101.949 E7.70446
G1 X109.462 Y101.964 E7.71724
G1 X109.058 Y102.017 E7.72808
G1 X108.827 Y102.095 E7.73457
G1 X108.44 Y102.109 E7.74487
G1 X108.044 Y102.202 E7.75569
G1 X107.737 Y102.335 E7.7646
G1 X107.401 Y102.515 E7.77474
G1 X107.52 Y101.349 E7.80592
G1 X107.535 Y101.334 E7.80649
G1 X108.451 Y100.624 E7.83733
G1 X108.592 Y100.49 E7.8425
G1 X108.74 Y100.376 E7.84747
G1 X108.972 Y100.167 E7.85578
G1 X109.347 Y99.774 E7.87023
G1 X109.461 Y99.644 E7.87484
G1 X109.754 Y99.281 E7.88725
G1 X109.849 Y99.153 E7.89149
G1 X109.996 Y98.939 E7.8984
G1 X110.005 Y98.926 E7.89882
G1 X110.233 Y99.264 E7.90967
G1 X110.391 Y99.469 E7.91655
G1 X110.751 Y99.88 E7.93109
G1 X110.831 Y99.967 E7.93424
G1 X111.042 Y100.182 E7.94225
G1 X111.242 Y100.361 E7.94939
G1 X111.435 Y100.512 E7.95591
G1 X111.543 Y100.62 E7.95998
G1 X112.48 Y101.345 E7.9915
G1 X112.594 Y102.475 E8.02172
M204 S500
G0 F9000 X112.915 Y103.072
M204 S800
G1 F3000 X112.717 Y102.923 E8.02831
G1 X112.396 Y102.731 E8.03827
G1 X112.292 Y102.696 E8.04119
G1 X112.259 Y102.674 E8.04224
G1 X111.924 Y102.505 E8.05223
G1 X111.562 Y102.41 E8.06218
G1 X111.188 Y102.395 E8.07214
G1 X111.116 Y102.407 E8.07409
G1 X111.087 Y102.393 E8.07494
G1 X110.724 Y102.301 E8.08491
G1 X110.531 Y102.284 E8.09006
G1 X110.063 Y102.269 E8.10252
G1 X109.952 Y102.269 E8.10547
G1 X109.472 Y102.284 E8.11825
G1 X109.101 Y102.335 E8.12822
G1 X108.855 Y102.425 E8.13519
G1 X108.677 Y102.41 E8.13994
G1 X108.305 Y102.459 E8.14992
G1 X107.888 Y102.617 E8.16179
G1 X107.401 Y102.877 E8.17648
G1 X107.217 Y102.991 E8.18224
G1 X107.093 Y103.079 E8.18628
G1 X107.093 Y102.961 E8.18942
G1 X107.092 Y102.89 E8.19131
G1 X107.078 Y102.523 E8.20108
G1 X107.214 Y101.2 E8.23647
G1 X107.327 Y101.091 E8.24065
G1 X108.255 Y100.371 E8.2719
G1 X108.384 Y100.247 E8.27666
G1 X108.544 Y100.123 E8.28205
G1 X108.74 Y99.946 E8.28908
G1 X109.115 Y99.553 E8.30353
G1 X109.212 Y99.443 E8.30743
G1 X109.505 Y99.08 E8.31985
G1 X109.586 Y98.972 E8.32344
G1 X109.733 Y98.758 E8.33035
G1 X109.778 Y98.688 E8.33256
G1 X109.835 Y98.596 E8.33544
G1 X110.001 Y98.465 E8.34107
G1 X110.131 Y98.566 E8.34545
G1 X110.244 Y98.708 E8.35028
G1 X110.498 Y99.084 E8.36235
G1 X110.632 Y99.259 E8.36821
G1 X110.992 Y99.67 E8.38275
G1 X111.06 Y99.743 E8.38541
G1 X111.271 Y99.958 E8.39342
G1 X111.44 Y100.109 E8.39945
G1 X111.544 Y100.191 E8.40298
G1 X111.549 Y100.197 E8.40318
G1 X111.739 Y100.367 E8.40997
G1 X112.626 Y101.054 E8.43982
G1 X112.786 Y101.201 E8.4456
G1 X112.923 Y102.542 E8.48147
G1 X112.915 Y103.072 E8.49557
M204 S500
G0 F9000 X113.275 Y103.78
M204 S800
G1 F3000 X113.175 Y103.683 E8.49928
G1 X113.043 Y103.57 E8.5039
G1 X112.525 Y103.179 E8.52117
G1 X112.232 Y103.008 E8.5302
G1 X112.144 Y102.981 E8.53265
G1 X112.085 Y102.943 E8.53452
G1 X111.781 Y102.793 E8.54354
G1 X111.45 Y102.719 E8.55256
G1 X111.111 Y102.724 E8.56158
G1 X111.058 Y102.737 E8.56303
G1 X110.883 Y102.662 E8.5681
G1 X110.521 Y102.604 E8.57785
G1 X110.053 Y102.589 E8.59031
G1 X109.962 Y102.589 E8.59273
G1 X109.482 Y102.604 E8.60551
G1 X109.147 Y102.654 E8.61453
G1 X108.913 Y102.749 E8.62124
G1 X108.861 Y102.737 E8.62266
G1 X108.522 Y102.743 E8.63169
G1 X108.194 Y102.828 E8.6407
G1 X108.039 Y102.9 E8.64525
G1 X107.552 Y103.16 E8.65994
G1 X107.401 Y103.252 E8.66464
G1 X107.057 Y103.494 E8.67583
G1 X106.914 Y103.609 E8.68072
G1 X106.739 Y103.769 E8.68703
G1 X106.749 Y103.66 E8.68994
G1 X106.769 Y103.328 E8.69879
G1 X106.772 Y103.246 E8.70097
G1 X106.773 Y102.96 E8.70858
G1 X106.772 Y102.902 E8.71013
G1 X106.758 Y102.516 E8.7204
G1 X106.906 Y101.061 E8.75932
G1 X106.924 Y101.023 E8.76044
G1 X107.004 Y100.961 E8.76313
G1 X107.121 Y100.846 E8.7675
G1 X108.059 Y100.118 E8.79909
G1 X108.173 Y100.006 E8.80334
G1 X108.348 Y99.87 E8.80924
G1 X108.509 Y99.725 E8.815
G1 X108.884 Y99.332 E8.82946
G1 X108.963 Y99.242 E8.83264
G1 X109.256 Y98.879 E8.84506
G1 X109.322 Y98.79 E8.848
G1 X109.469 Y98.576 E8.85491
G1 X109.506 Y98.519 E8.85672
G1 X109.582 Y98.396 E8.86057
G1 X109.601 Y98.375 E8.86132
G1 X109.983 Y98.073 E8.87428
G1 X109.992 Y98.068 E8.87455
G1 X110.011 Y98.07 E8.87506
G1 X110.018 Y98.073 E8.87526
G1 X110.359 Y98.337 E8.88674
G1 X110.498 Y98.514 E8.89273
G1 X110.763 Y98.905 E8.90529
G1 X110.873 Y99.048 E8.91009
G1 X111.233 Y99.459 E8.92463
G1 X111.288 Y99.519 E8.9268
G1 X111.499 Y99.734 E8.93481
G1 X111.638 Y99.858 E8.93977
G1 X111.82 Y100.001 E8.94593
G1 X111.934 Y100.114 E8.9502
G1 X112.894 Y100.857 E8.9825
G1 X112.997 Y100.961 E8.9864
G1 X113.076 Y101.022 E8.98905
G1 X113.094 Y101.061 E8.99019
G1 X113.243 Y102.531 E9.02951
G1 X113.234 Y103.119 E9.04516
G1 X113.236 Y103.224 E9.04795
G1 X113.261 Y103.651 E9.05933
G1 X113.275 Y103.78 E9.06278
M204 S500
G0 F9000 X113.752 Y104.583
M204 S800
G1 F3000 X113.675 Y104.566 E9.06488
G1 X113.603 Y104.553 E9.06683
G1 X113.587 Y104.551 E9.06726
G1 X113.413 Y104.361 E9.07411
G1 X113.365 Y104.311 E9.07596
G1 X112.953 Y103.913 E9.0912
G1 X112.85 Y103.825 E9.0948
G1 X112.332 Y103.434 E9.11207
G1 X112.072 Y103.288 E9.12001
G1 X112.001 Y103.27 E9.12196
G1 X111.91 Y103.211 E9.12484
G1 X111.64 Y103.084 E9.13278
G1 X111.346 Y103.032 E9.14073
G1 X111.049 Y103.06 E9.14866
G1 X111.023 Y103.07 E9.1494
G1 X111.017 Y103.069 E9.14957
G1 X110.972 Y103.039 E9.151
G1 X110.689 Y102.944 E9.15895
G1 X110.511 Y102.924 E9.16371
G1 X110.043 Y102.909 E9.17617
G1 X109.972 Y102.909 E9.17806
G1 X109.492 Y102.924 E9.19084
G1 X109.197 Y102.973 E9.1988
G1 X108.992 Y103.067 E9.2048
G1 X108.936 Y103.061 E9.2063
G1 X108.876 Y103.07 E9.20791
G1 X108.688 Y103.05 E9.21294
G1 X108.393 Y103.098 E9.22089
G1 X108.19 Y103.182 E9.22674
G1 X107.703 Y103.442 E9.24143
