;FLAVOR:Marlin
;TIME:8866
;Filament used: 9.23085m
;Layer height: 0.25
;MINX:36.798
;MINY:36.798
;MINZ:0.2
;MAXX:183.202
;MAXY:183.202
;MAXZ:23.95
;TARGET_MACHINE.NAME:Creality Ender-3 Pro
;Generated with Cura_SteamEngine 5.8.1
M82 ;absolute extrusion mode
; Ender 3 Custom Start G-code
G92 E0 ; Reset Extruder
G28 ; Home all axes
G1 Z5.0 F3000 ; Move Z Axis up a bit during heating to not damage bed
M104 S210.0 ; Start heating up the nozzle most of the way
M190 S60.0 ; Start heating the bed, wait until target temperature reached
M109 S215.0 ; Finish heating the nozzle
G1 Z2.0 F3000 ; Move Z Axis up little to prevent scratching of Heat Bed
G1 X0.1 Y20 Z0.3 F5000.0 ; Move to start position
G1 X0.1 Y200.0 Z0.3 F1500.0 E15 ; Draw the first line
G1 X0.4 Y200.0 Z0.3 F5000.0 ; Move to side a little
G1 X0.4 Y20 Z0.3 F1500.0 E30 ; Draw the second line
G92 E0 ; Reset Extruder
G1 Z2.0 F3000 ; Move Z Axis up little to prevent scratching of Heat Bed
G1 X5 Y20 Z0.3 F5000.0 ; Move over to prevent blob squish
G92 E0
G92 E0
G1 F1200 E-5
;LAYER_COUNT:96
;LAYER:0
M107
G0 F6000 X58.31 Y58.168 Z0.2
;TYPE:SKIRT
G1 F1200 E0
G1 X58.922 Y57.61 E0.03271
G1 X59.458 Y57.159 E0.06038
G1 X67.961 Y50.181 E0.49483
G1 X68.623 Y49.652 E0.5283
G1 X69.354 Y49.119 E0.56403
G1 X70.1 Y48.666 E0.5985
G1 X70.812 Y48.277 E0.63054
G1 X71.354 Y47.997 E0.65464
G1 X74.474 Y46.316 E0.79462
G1 X80.538 Y43.076 E1.06616
G1 X81.191 Y42.74 E1.09517
G1 X82.05 Y42.346 E1.1325
G1 X82.817 Y42.067 E1.16473
G1 X83.635 Y41.806 E1.19864
G1 X94.019 Y38.657 E1.62722
G1 X94.875 Y38.41 E1.66241
G1 X95.793 Y38.19 E1.69969
G1 X96.604 Y38.067 E1.73209
G1 X97.406 Y37.976 E1.76397
G1 X108.389 Y36.896 E2.19985
G1 X109.119 Y36.834 E2.22879
G1 X110.063 Y36.798 E2.2661
G1 X110.885 Y36.834 E2.2986
G1 X111.748 Y36.908 E2.33281
G1 X122.526 Y37.97 E2.76056
G1 X123.422 Y38.071 E2.79617
G1 X124.353 Y38.221 E2.83342
G1 X125.14 Y38.414 E2.86542
G1 X125.967 Y38.651 E2.8994
G1 X136.471 Y41.839 E3.33296
G1 X137.19 Y42.069 E3.36277
G1 X138.039 Y42.382 E3.39851
G1 X138.827 Y42.749 E3.43285
G1 X139.588 Y43.142 E3.46667
G1 X145.638 Y46.375 E3.7376
G1 X146.269 Y46.724 E3.76609
G1 X148.591 Y47.967 E3.87011
G1 X149.408 Y48.395 E3.90654
G1 X149.95 Y48.696 E3.93102
G1 X150.721 Y49.17 E3.96677
G1 X151.417 Y49.682 E4.0009
G1 X152.033 Y50.176 E4.03208
G1 X160.617 Y57.222 E4.47071
G1 X161.141 Y57.667 E4.49786
G1 X161.832 Y58.31 E4.53514
G1 X162.39 Y58.922 E4.56785
G1 X162.841 Y59.458 E4.59552
G1 X169.904 Y68.066 E5.0353
G1 X170.338 Y68.609 E5.06276
G1 X170.893 Y69.373 E5.10006
G1 X171.329 Y70.092 E5.13327
G1 X171.723 Y70.812 E5.16568
G1 X172.003 Y71.354 E5.18978
G1 X173.684 Y74.474 E5.32976
G1 X176.924 Y80.538 E5.60131
G1 X177.259 Y81.189 E5.63022
G1 X177.653 Y82.048 E5.66755
G1 X177.928 Y82.805 E5.69936
G1 X178.194 Y83.634 E5.73375
G1 X181.343 Y94.018 E6.16232
G1 X181.585 Y94.852 E6.19662
G1 X181.798 Y95.732 E6.23238
G1 X181.932 Y96.593 E6.2668
G1 X182.024 Y97.405 E6.29907
G1 X183.091 Y108.249 E6.72944
G1 X183.165 Y109.114 E6.76373
G1 X183.202 Y110.058 E6.80104
G1 X183.166 Y110.882 E6.83362
G1 X183.092 Y111.748 E6.86795
G1 X182.03 Y122.525 E7.29566
G1 X181.929 Y123.417 E7.33112
G1 X181.78 Y124.35 E7.36843
G1 X181.585 Y125.146 E7.4008
G1 X181.349 Y125.967 E7.43454
G1 X178.161 Y136.471 E7.8681
G1 X177.931 Y137.19 E7.89791
G1 X177.618 Y138.039 E7.93365
G1 X177.251 Y138.827 E7.96799
G1 X176.858 Y139.588 E8.00181
G1 X173.625 Y145.638 E8.27275
G1 X173.276 Y146.269 E8.30123
G1 X171.608 Y149.401 E8.44138
G1 X171.308 Y149.942 E8.46581
G1 X170.813 Y150.747 E8.50314
G1 X170.318 Y151.418 E8.53607
G1 X169.908 Y151.93 E8.56198
G1 X162.779 Y160.615 E9.00576
G1 X162.335 Y161.138 E9.03286
G1 X161.692 Y161.83 E9.07017
G1 X161.08 Y162.388 E9.10288
G1 X160.443 Y162.922 E9.13571
G1 X152.039 Y169.819 E9.56511
G1 X151.377 Y170.348 E9.59858
G1 X150.646 Y170.881 E9.63431
G1 X149.9 Y171.334 E9.66878
G1 X149.188 Y171.723 E9.70083
G1 X148.646 Y172.003 E9.72492
G1 X145.526 Y173.684 E9.8649
G1 X139.462 Y176.924 E10.13645
G1 X138.809 Y177.26 E10.16545
G1 X137.95 Y177.654 E10.20278
G1 X137.183 Y177.933 E10.23501
G1 X136.365 Y178.194 E10.26893
G1 X125.988 Y181.342 E10.69722
G1 X125.121 Y181.591 E10.73285
G1 X124.242 Y181.802 E10.76856
G1 X123.396 Y181.933 E10.80237
G1 X122.594 Y182.024 E10.83425
G1 X111.611 Y183.104 E11.27013
G1 X110.881 Y183.166 E11.29906
G1 X109.937 Y183.202 E11.33638
G1 X109.113 Y183.165 E11.36895
G1 X108.253 Y183.092 E11.40304
G1 X97.475 Y182.03 E11.8308
G1 X96.579 Y181.929 E11.86641
G1 X95.648 Y181.779 E11.90366
G1 X94.865 Y181.588 E11.93549
G1 X94.07 Y181.36 E11.96815
G1 X83.616 Y178.19 E12.39961
G1 X82.824 Y177.938 E12.43244
G1 X81.938 Y177.611 E12.46974
G1 X81.187 Y177.26 E12.50248
G1 X80.439 Y176.874 E12.53573
G1 X74.333 Y173.609 E12.80921
G1 X73.706 Y173.263 E12.83749
G1 X70.609 Y171.613 E12.97609
G1 X70.054 Y171.305 E13.00116
G1 X69.249 Y170.809 E13.0385
G1 X68.583 Y170.318 E13.07118
G1 X67.967 Y169.824 E13.10237
G1 X59.382 Y162.777 E13.54105
G1 X58.857 Y162.331 E13.56826
G1 X58.166 Y161.688 E13.60554
G1 X57.608 Y161.075 E13.63828
G1 X57.158 Y160.54 E13.66589
G1 X50.086 Y151.923 E14.10618
G1 X49.651 Y151.376 E14.13378
G1 X49.119 Y150.645 E14.16949
G1 X48.676 Y149.917 E14.20315
G1 X48.413 Y149.443 E14.22456
G1 X47.976 Y148.607 E14.26181
G1 X46.317 Y145.528 E14.39995
G1 X43.072 Y139.454 E14.67194
G1 X42.735 Y138.8 E14.701
G1 X42.357 Y137.978 E14.73674
G1 X42.065 Y137.177 E14.77041
G1 X41.851 Y136.51 E14.79808
G1 X38.657 Y125.981 E15.23265
G1 X38.41 Y125.125 E15.26784
G1 X38.19 Y124.207 E15.30512
G1 X38.067 Y123.396 E15.33752
G1 X37.976 Y122.594 E15.3694
G1 X36.896 Y111.611 E15.80528
G1 X36.834 Y110.881 E15.83422
G1 X36.798 Y109.937 E15.87153
G1 X36.835 Y109.113 E15.90411
G1 X36.908 Y108.253 E15.93819
G1 X37.97 Y97.475 E16.36595
G1 X38.071 Y96.582 E16.40144
G1 X38.22 Y95.649 E16.43876
G1 X38.415 Y94.85 E16.47124
G1 X38.607 Y94.181 E16.49873
G1 X41.835 Y83.542 E16.93785
G1 X42.063 Y82.826 E16.96753
G1 X42.39 Y81.941 E17.00479
G1 X42.749 Y81.17 E17.03839
G1 X43.076 Y80.537 E17.06653
G1 X46.375 Y74.362 E17.34304
G1 X46.724 Y73.731 E17.37152
G1 X48.392 Y70.599 E17.51167
G1 X48.692 Y70.058 E17.53611
G1 X49.187 Y69.253 E17.57343
G1 X49.682 Y68.582 E17.60636
G1 X50.092 Y68.07 E17.63227
G1 X57.222 Y59.383 E18.07615
G1 X57.667 Y58.859 E18.1033
G1 X58.31 Y58.168 E18.14058
G0 F6000 X58.63 Y58.519
G1 F1200 X59.228 Y57.973 E18.17256
G1 X59.759 Y57.526 E18.19997
G1 X68.257 Y50.552 E18.63417
G1 X68.903 Y50.036 E18.66683
G1 X69.634 Y49.503 E18.70256
G1 X70.328 Y49.083 E18.7346
G1 X71.031 Y48.699 E18.76623
G1 X71.573 Y48.418 E18.79035
G1 X74.698 Y46.735 E18.93054
G1 X80.756 Y43.498 E19.20182
G1 X81.39 Y43.171 E19.23
G1 X82.212 Y42.792 E19.26575
G1 X82.961 Y42.52 E19.29722
G1 X83.773 Y42.261 E19.33088
G1 X94.151 Y39.113 E19.75922
G1 X94.986 Y38.872 E19.79354
G1 X95.865 Y38.66 E19.82926
G1 X96.657 Y38.539 E19.8609
G1 X97.453 Y38.449 E19.89254
G1 X108.429 Y37.369 E20.32815
G1 X109.138 Y37.309 E20.35625
G1 X110.042 Y37.273 E20.39198
G1 X110.864 Y37.309 E20.42448
G1 X111.701 Y37.381 E20.45766
G1 X122.473 Y38.442 E20.88518
G1 X123.347 Y38.54 E20.91991
G1 X124.24 Y38.682 E20.95562
G1 X125.009 Y38.87 E20.98689
G1 X125.829 Y39.106 E21.02059
G1 X136.327 Y42.292 E21.4539
G1 X137.026 Y42.515 E21.48288
G1 X137.875 Y42.828 E21.51862
G1 X138.609 Y43.171 E21.55062
G1 X139.364 Y43.561 E21.58418
G1 X145.408 Y46.791 E21.85485
G1 X146.039 Y47.14 E21.88333
G1 X148.371 Y48.388 E21.98779
G1 X149.177 Y48.81 E22.02373
G1 X149.701 Y49.101 E22.0474
G1 X150.472 Y49.575 E22.08315
G1 X151.12 Y50.053 E22.11495
G1 X151.732 Y50.543 E22.14592
G1 X160.31 Y57.584 E22.58423
G1 X160.818 Y58.015 E22.61055
G1 X161.481 Y58.63 E22.64626
G1 X162.027 Y59.228 E22.67825
G1 X162.474 Y59.759 E22.70566
G1 X169.533 Y68.362 E23.14519
G1 X169.954 Y68.889 E23.17183
G1 X170.487 Y69.62 E23.20756
G1 X170.912 Y70.32 E23.23991
G1 X171.301 Y71.031 E23.27192
G1 X171.582 Y71.573 E23.29603
G1 X173.265 Y74.698 E23.43622
G1 X176.502 Y80.756 E23.7075
G1 X176.828 Y81.388 E23.73559
G1 X177.207 Y82.21 E23.77134
G1 X177.476 Y82.95 E23.80244
G1 X177.739 Y83.772 E23.83653
G1 X180.887 Y94.15 E24.26486
G1 X181.123 Y94.964 E24.29834
G1 X181.336 Y95.844 E24.3341
G1 X181.46 Y96.646 E24.36615
G1 X181.551 Y97.452 E24.39819
G1 X182.618 Y108.289 E24.82828
G1 X182.69 Y109.133 E24.86174
G1 X182.727 Y110.037 E24.89747
G1 X182.691 Y110.861 E24.93005
G1 X182.619 Y111.701 E24.96335
G1 X181.558 Y122.472 E25.39082
G1 X181.46 Y123.343 E25.42544
G1 X181.319 Y124.237 E25.46118
G1 X181.129 Y125.014 E25.49278
G1 X180.894 Y125.829 E25.52628
G1 X177.708 Y136.327 E25.95959
G1 X177.485 Y137.026 E25.98856
G1 X177.172 Y137.875 E26.0243
G1 X176.829 Y138.609 E26.0563
G1 X176.439 Y139.364 E26.08987
G1 X173.209 Y145.408 E26.36053
G1 X172.86 Y146.039 E26.38901
G1 X171.603 Y148.387 E26.4942
G1 X171.193 Y149.171 E26.52915
G1 X170.903 Y149.694 E26.55277
G1 X170.43 Y150.465 E26.58849
G1 X169.947 Y151.121 E26.62067
G1 X169.541 Y151.629 E26.64635
G1 X162.417 Y160.308 E27.08983
G1 X161.987 Y160.815 E27.11609
G1 X161.372 Y161.479 E27.15184
G1 X160.774 Y162.024 E27.18379
G1 X160.142 Y162.555 E27.2164
G1 X151.743 Y169.448 E27.64554
G1 X151.097 Y169.964 E27.67819
G1 X150.366 Y170.497 E27.71393
G1 X149.672 Y170.917 E27.74597
G1 X148.969 Y171.301 E27.7776
G1 X148.427 Y171.582 E27.80172
G1 X145.302 Y173.265 E27.9419
G1 X139.244 Y176.502 E28.21319
G1 X138.61 Y176.829 E28.24136
G1 X137.788 Y177.208 E28.27712
G1 X137.039 Y177.48 E28.30859
G1 X136.227 Y177.739 E28.34225
G1 X125.85 Y180.887 E28.77055
G1 X125.01 Y181.129 E28.80508
G1 X124.131 Y181.34 E28.84078
G1 X123.343 Y181.461 E28.87227
G1 X122.547 Y181.551 E28.90391
G1 X111.571 Y182.631 E29.33951
G1 X110.862 Y182.691 E29.36762
G1 X109.958 Y182.727 E29.40335
G1 X109.134 Y182.69 E29.43593
G1 X108.3 Y182.619 E29.46899
G1 X97.528 Y181.558 E29.8965
G1 X96.654 Y181.46 E29.93124
G1 X95.761 Y181.318 E29.96695
G1 X94.996 Y181.131 E29.99805
G1 X94.208 Y180.905 E30.03043
G1 X83.76 Y177.737 E30.46164
G1 X82.988 Y177.492 E30.49363
G1 X82.139 Y177.18 E30.52936
G1 X81.405 Y176.838 E30.56134
G1 X80.663 Y176.455 E30.59432
G1 X74.562 Y173.193 E30.86757
G1 X73.935 Y172.847 E30.89585
G1 X70.839 Y171.198 E31.0344
G1 X70.302 Y170.9 E31.05865
G1 X69.531 Y170.427 E31.09438
G1 X68.88 Y169.947 E31.12633
G1 X68.268 Y169.457 E31.15729
G1 X59.689 Y162.415 E31.59566
G1 X59.18 Y161.983 E31.62203
G1 X58.517 Y161.368 E31.65775
G1 X57.971 Y160.769 E31.68976
G1 X57.525 Y160.239 E31.71712
G1 X50.458 Y151.627 E32.15713
G1 X50.035 Y151.096 E32.18394
G1 X49.503 Y150.365 E32.21965
G1 X49.091 Y149.686 E32.25102
G1 X48.834 Y149.223 E32.27193
G1 X48.397 Y148.387 E32.30919
G1 X46.736 Y145.304 E32.44751
G1 X43.494 Y139.237 E32.7192
G1 X43.167 Y138.602 E32.74741
G1 X42.789 Y137.78 E32.78314
G1 X42.517 Y137.032 E32.81458
G1 X42.306 Y136.372 E32.84195
G1 X39.113 Y125.849 E33.27628
G1 X38.872 Y125.014 E33.3106
G1 X38.66 Y124.135 E33.34632
G1 X38.539 Y123.343 E33.37796
G1 X38.449 Y122.547 E33.4096
G1 X37.369 Y111.571 E33.84521
G1 X37.309 Y110.862 E33.87331
G1 X37.273 Y109.958 E33.90904
G1 X37.31 Y109.134 E33.94162
G1 X37.381 Y108.3 E33.97468
G1 X38.442 Y97.528 E34.40219
G1 X38.54 Y96.656 E34.43685
G1 X38.681 Y95.762 E34.4726
G1 X38.872 Y94.981 E34.50435
G1 X39.062 Y94.319 E34.53156
G1 X42.288 Y83.686 E34.97042
G1 X42.509 Y82.99 E34.99927
G1 X42.821 Y82.141 E35.03499
G1 X43.171 Y81.388 E35.06779
G1 X43.495 Y80.761 E35.09566
G1 X46.791 Y74.592 E35.37191
G1 X47.14 Y73.961 E35.40039
G1 X48.397 Y71.613 E35.50558
G1 X48.807 Y70.829 E35.54053
G1 X49.097 Y70.306 E35.56415
G1 X49.57 Y69.535 E35.59987
G1 X50.053 Y68.879 E35.63205
G1 X50.459 Y68.371 E35.65773
G1 X57.584 Y59.69 E36.1013
G1 X58.015 Y59.182 E36.12761
G1 X58.63 Y58.519 E36.16333
G1 F1200 E31.16333
;MESH:Paracord_Spool_Female.stl
G0 F6000 X67.349 Y68.228
G0 X67.258 Y70
G0 X67.31 Y70.534
G0 X67.467 Y71.049
G0 X67.72 Y71.523
G0 X68.061 Y71.939
G0 X68.398 Y72.215
G0 X70.019 Y73.096
G0 X70.005 Y72.96
;TYPE:WALL-INNER
G1 F1200 E36.16333
G1 X69.427 Y72.912 E36.18624
G1 X68.863 Y72.734 E36.2096
G1 X68.354 Y72.463 E36.23237
G1 X67.907 Y72.1 E36.25511
G1 X67.531 Y71.646 E36.2784
G1 X67.26 Y71.141 E36.30103
G1 X67.086 Y70.572 E36.32453
G1 X67.033 Y70.001 E36.34718
G1 X67.084 Y69.427 E36.36994
G1 X67.258 Y68.865 E36.39318
G1 X67.527 Y68.355 E36.41595
G1 X67.904 Y67.904 E36.43917
G1 X68.353 Y67.529 E36.46228
G1 X68.864 Y67.258 E36.48512
G1 X69.427 Y67.084 E36.50839
G1 X70.007 Y67.032 E36.53139
G1 X70.573 Y67.086 E36.55385
G1 X71.141 Y67.26 E36.57731
G1 X71.645 Y67.53 E36.5999
G1 X72.095 Y67.901 E36.62293
G1 X72.464 Y68.349 E36.64586
G1 X72.737 Y68.858 E36.66867
G1 X72.908 Y69.428 E36.69217
G1 X72.964 Y69.994 E36.71464
G1 X72.911 Y70.548 E36.73662
G1 X72.733 Y71.139 E36.761
G1 X72.467 Y71.643 E36.7835
G1 X72.095 Y72.095 E36.80663
G1 X71.643 Y72.467 E36.82975
G1 X71.14 Y72.733 E36.85222
G1 X70.571 Y72.911 E36.87577
G1 X70.005 Y72.96 E36.89821
G1 F1200 E31.89821
G0 F6000 X70.019 Y73.096
G0 X68.773 Y72.939
G0 X65.158 Y83.857
G0 X62.104 Y86.78
G0 X59.162 Y90.275
G0 X56.757 Y94.516
G0 X54.974 Y99.34
G0 X53.879 Y104.568
G0 X53.859 Y104.938
G0 X53.881 Y105.558
G0 X53.799 Y105.327
G1 F1200 E36.89821
G1 X53.628 Y104.952 E36.91448
G1 X53.655 Y104.566 E36.92977
G1 X54.762 Y99.269 E37.1435
G1 X56.554 Y94.415 E37.34786
G1 X58.975 Y90.145 E37.54173
G1 X61.952 Y86.616 E37.72409
G1 X65.359 Y83.976 E37.89432
G1 X69.07 Y82.346 E38.05441
G1 X73 Y81.781 E38.21123
G1 X76.925 Y82.345 E38.36784
G1 X80.63 Y83.978 E38.52776
G1 X84.053 Y86.616 E38.69845
G1 X87.019 Y90.142 E38.88043
G1 X89.446 Y94.427 E39.07493
G1 X91.237 Y99.273 E39.27899
G1 X92.341 Y104.531 E39.49119
G1 X92.363 Y104.922 E39.50665
G1 X92.268 Y105.224 E39.51916
G1 X92.101 Y105.422 E39.52939
G1 X91.933 Y105.53 E39.53728
G1 X86.554 Y107.169 E39.75937
G1 X79.946 Y108.318 E40.02428
G1 X72.96 Y108.711 E40.30064
G1 X66.11 Y108.326 E40.57161
G1 X59.442 Y107.169 E40.83891
G1 X54.062 Y105.53 E41.06104
G1 X53.799 Y105.327 E41.07417
G1 F1200 E36.07417
G0 F6000 X53.881 Y105.558
G0 X59.492 Y106.955
G0 X65.454 Y107.988
G0 X72.946 Y108.928
G0 X73.054 Y111.072
G0 X79.883 Y111.897
G0 X86.508 Y113.045
G0 X92.156 Y114.78
G0 X92.472 Y114.983
G0 X92.33 Y114.92
G1 F1200 E41.07417
G1 X92.365 Y115.089 E41.08098
G1 X92.343 Y115.449 E41.09523
G1 X91.23 Y120.742 E41.30885
G1 X89.455 Y125.552 E41.51136
G1 X87.018 Y129.85 E41.7065
G1 X84.056 Y133.378 E41.88844
G1 X80.63 Y136.018 E42.05927
G1 X76.925 Y137.651 E42.21919
G1 X72.998 Y138.219 E42.3759
G1 X69.093 Y137.66 E42.53171
G1 X65.359 Y136.02 E42.69279
G1 X61.952 Y133.38 E42.86302
G1 X58.975 Y129.851 E43.04538
G1 X56.564 Y125.602 E43.23833
G1 X54.758 Y120.712 E43.44422
G1 X53.655 Y115.431 E43.6573
G1 X53.628 Y115.05 E43.67239
G1 X53.799 Y114.674 E43.6887
G1 X54.058 Y114.472 E43.70167
G1 X59.442 Y112.827 E43.92403
G1 X66.11 Y111.674 E44.1913
G1 X73.041 Y111.289 E44.46547
G1 X79.946 Y111.682 E44.73863
G1 X86.554 Y112.827 E45.00351
G1 X91.926 Y114.468 E45.22537
G1 X92.199 Y114.675 E45.2389
G1 X92.33 Y114.92 E45.24987
G1 F1200 E40.24987
G0 F6000 X92.472 Y114.983
G0 X91.436 Y120.81
G0 X94.737 Y121.906
G0 X95.668 Y123.774
G0 X96.04 Y124.346
G0 X96.491 Y124.867
G0 X97.014 Y125.32
G0 X97.586 Y125.692
G0 X98.193 Y125.965
G0 X98.753 Y126.114
G0 X100.708 Y126.197
G0 X100.676 Y126.076
G1 F1200 E45.24987
G1 X100.089 Y126.307 E45.27479
G1 X99.44 Y126.397 E45.30067
G1 X98.784 Y126.351 E45.32664
G1 X98.123 Y126.176 E45.35365
G1 X97.473 Y125.885 E45.38177
G1 X96.838 Y125.463 E45.41189
G1 X96.37 Y125.06 E45.43628
G1 X95.874 Y124.496 E45.46594
G1 X95.471 Y123.875 E45.49518
G1 X95.184 Y123.244 E45.52256
G1 X95.007 Y122.586 E45.54948
G1 X94.956 Y121.919 E45.5759
G1 X95.054 Y121.244 E45.60284
G1 X95.298 Y120.657 E45.62794
G1 X95.673 Y120.17 E45.65222
G1 X96.176 Y119.787 E45.67719
G1 X96.778 Y119.547 E45.70279
G1 X97.431 Y119.46 E45.72881
G1 X98.084 Y119.507 E45.75466
G1 X98.748 Y119.685 E45.78182
G1 X99.374 Y119.973 E45.80903
G1 X99.962 Y120.349 E45.8366
G1 X100.486 Y120.796 E45.8638
G1 X100.964 Y121.338 E45.89234
G1 X101.397 Y121.999 E45.92355
G1 X101.661 Y122.59 E45.94912
G1 X101.841 Y123.249 E45.9761
G1 X101.896 Y123.929 E46.00305
