;FLAVOR:Marlin
;TIME:820
;Filament used: 1.46101m
;Layer height: 0.32
;MINX:81.914
;MINY:81.914
;MINZ:0.2
;MAXX:138.086
;MAXY:138.086
;MAXZ:7.88
;TARGET_MACHINE.NAME:Creality Ender-3 Pro
;Generated with Cura_SteamEngine 5.9.0
M82 ;absolute extrusion mode
; Ender 3 Custom Start G-code
G92 E0 ; Reset Extruder
G28 ; Home all axes
G1 Z5.0 F3000 ; Move Z Axis up a bit during heating to not damage bed
M190 S60.0 ; Start heating the bed, wait until target temperature reached
M109 S205.0 ; Finish heating the nozzle
G1 Z2.0 F3000 ; Move Z Axis up little to prevent scratching of Heat Bed
G1 X0.1 Y20 Z0.3 F5000.0 ; Move to start position
G1 X0.1 Y200.0 Z0.3 F1500.0 E15 ; Draw the first line
G1 X0.4 Y200.0 Z0.3 F5000.0 ; Move to side a little
G1 X0.4 Y20 Z0.3 F1500.0 E30 ; Draw the second line
G92 E0 ; Reset Extruder
G1 Z2.0 F3000 ; Move Z Axis up little to prevent scratching of Heat Bed
G1 X5 Y20 Z0.3 F5000.0 ; Move over to prevent blob squish
G92 E0
G92 E0
G1 F2100 E-5.5
;LAYER_COUNT:25
;LAYER:0
M107
M204 S500
M205 X20 Y20
G0 F9000 X112.71 Y137.955 Z0.2
M204 S800
;TYPE:SKIRT
G1 F2100 E0
G1 F3000 X112.091 Y138.01 E0.02067
G1 X110.613 Y138.078 E0.06988
G1 X110.028 Y138.086 E0.08934
G1 X109.157 Y138.073 E0.11831
G1 X108.551 Y138.05 E0.13848
G1 X107.103 Y137.938 E0.18679
G1 X106.425 Y137.856 E0.2095
G1 X105.328 Y137.694 E0.24638
G1 X104.674 Y137.575 E0.26849
G1 X103.587 Y137.343 E0.30546
G1 X103.023 Y137.206 E0.32476
G1 X102.196 Y136.98 E0.35328
G1 X101.604 Y136.804 E0.37382
G1 X100.568 Y136.457 E0.41016
G1 X99.998 Y136.248 E0.43035
G1 X98.889 Y135.795 E0.4702
G1 X98.043 Y135.414 E0.50106
G1 X97.321 Y135.062 E0.52777
G1 X96.796 Y134.791 E0.54742
G1 X95.756 Y134.206 E0.58711
G1 X95.233 Y133.892 E0.6074
G1 X94.268 Y133.267 E0.64564
G1 X93.786 Y132.933 E0.66514
G1 X92.608 Y132.055 E0.71401
G1 X92.108 Y131.65 E0.73541
G1 X91.488 Y131.122 E0.7625
G1 X91.029 Y130.712 E0.78297
G1 X89.957 Y129.674 E0.8326
G1 X89.551 Y129.253 E0.85205
G1 X88.979 Y128.626 E0.88028
G1 X88.567 Y128.153 E0.90114
G1 X87.834 Y127.249 E0.93985
G1 X87.283 Y126.516 E0.97035
G1 X86.635 Y125.59 E1.00794
G1 X86.289 Y125.055 E1.02913
G1 X85.86 Y124.358 E1.05635
G1 X85.541 Y123.81 E1.07744
G1 X85.002 Y122.803 E1.11543
G1 X84.731 Y122.265 E1.13547
G1 X84.264 Y121.248 E1.17269
G1 X83.89 Y120.347 E1.20514
G1 X83.599 Y119.584 E1.2323
G1 X83.403 Y119.021 E1.25212
G1 X82.959 Y117.594 E1.30183
G1 X82.795 Y116.975 E1.32313
G1 X82.538 Y115.899 E1.35992
G1 X82.411 Y115.267 E1.38136
G1 X82.27 Y114.468 E1.40835
G1 X82.178 Y113.859 E1.42884
G1 X82.045 Y112.71 E1.46731
G1 X81.99 Y112.091 E1.48798
G1 X81.922 Y110.615 E1.53712
G1 X81.914 Y110.029 E1.55661
G1 X81.927 Y109.157 E1.58562
G1 X81.95 Y108.551 E1.60579
G1 X82.062 Y107.103 E1.65409
G1 X82.144 Y106.425 E1.67681
G1 X82.306 Y105.328 E1.71369
G1 X82.425 Y104.674 E1.7358
G1 X82.657 Y103.587 E1.77277
G1 X82.794 Y103.023 E1.79207
G1 X83.02 Y102.196 E1.82059
G1 X83.197 Y101.601 E1.84123
G1 X83.672 Y100.22 E1.88981
G1 X83.879 Y99.678 E1.9091
G1 X84.207 Y98.887 E1.93758
G1 X84.62 Y97.974 E1.97091
G1 X85.098 Y97.011 E2.00667
G1 X85.375 Y96.491 E2.02627
G1 X85.796 Y95.752 E2.05455
G1 X86.108 Y95.233 E2.0747
G1 X86.733 Y94.268 E2.11294
G1 X87.067 Y93.786 E2.13244
G1 X87.941 Y92.612 E2.18112
G1 X88.35 Y92.108 E2.20271
G1 X88.878 Y91.487 E2.22982
G1 X89.285 Y91.032 E2.25012
G1 X90.325 Y89.958 E2.29985
G1 X90.745 Y89.553 E2.31925
G1 X91.38 Y88.973 E2.34786
G1 X91.847 Y88.567 E2.36844
G1 X92.749 Y87.836 E2.40706
G1 X93.232 Y87.467 E2.42727
G1 X94.453 Y86.61 E2.47689
G1 X94.945 Y86.288 E2.49644
G1 X95.646 Y85.857 E2.52381
G1 X96.144 Y85.571 E2.54291
G1 X97.485 Y84.855 E2.59348
G1 X98.046 Y84.585 E2.61418
G1 X99.095 Y84.116 E2.6524
G1 X99.653 Y83.89 E2.67243
G1 X100.416 Y83.599 E2.69959
G1 X100.979 Y83.403 E2.71941
G1 X102.406 Y82.959 E2.76912
G1 X103.025 Y82.795 E2.79042
G1 X104.101 Y82.538 E2.82721
G1 X104.733 Y82.411 E2.84865
G1 X105.532 Y82.27 E2.87564
G1 X106.141 Y82.178 E2.89612
G1 X107.29 Y82.045 E2.9346
G1 X107.909 Y81.99 E2.95526
G1 X109.387 Y81.922 E3.00447
G1 X109.972 Y81.914 E3.02393
G1 X110.843 Y81.927 E3.05291
G1 X111.449 Y81.95 E3.07308
G1 X112.897 Y82.062 E3.12138
G1 X113.575 Y82.144 E3.1441
G1 X114.672 Y82.306 E3.18098
G1 X115.326 Y82.425 E3.20309
G1 X116.413 Y82.657 E3.24006
G1 X116.977 Y82.794 E3.25936
G1 X117.804 Y83.02 E3.28787
G1 X118.396 Y83.196 E3.30842
G1 X119.432 Y83.543 E3.34476
G1 X120.002 Y83.752 E3.36495
G1 X121.111 Y84.205 E3.40479
G1 X121.957 Y84.586 E3.43565
G1 X122.679 Y84.938 E3.46237
G1 X123.204 Y85.209 E3.48202
G1 X124.244 Y85.794 E3.52171
G1 X124.767 Y86.108 E3.54199
G1 X125.732 Y86.733 E3.58023
G1 X126.214 Y87.067 E3.59974
G1 X127.388 Y87.941 E3.64842
G1 X127.892 Y88.35 E3.67001
G1 X128.513 Y88.878 E3.69712
G1 X128.968 Y89.285 E3.71742
G1 X130.042 Y90.325 E3.76715
G1 X130.447 Y90.745 E3.78655
G1 X131.027 Y91.38 E3.81516
G1 X131.433 Y91.847 E3.83574
G1 X132.164 Y92.749 E3.87435
G1 X132.533 Y93.232 E3.89457
G1 X133.39 Y94.453 E3.94419
G1 X133.712 Y94.945 E3.96374
G1 X134.143 Y95.646 E3.99111
G1 X134.429 Y96.144 E4.01021
G1 X134.961 Y97.128 E4.04742
G1 X135.261 Y97.72 E4.06949
G1 X135.745 Y98.771 E4.10798
G1 X136.11 Y99.653 E4.13973
G1 X136.401 Y100.416 E4.16689
G1 X136.595 Y100.974 E4.18653
G1 X137.041 Y102.404 E4.23636
G1 X137.206 Y103.027 E4.25779
G1 X137.462 Y104.103 E4.29458
G1 X137.604 Y104.82 E4.31889
G1 X137.787 Y105.918 E4.35591
G1 X137.866 Y106.484 E4.37492
G1 X137.955 Y107.292 E4.40196
G1 X138.009 Y107.903 E4.42236
G1 X138.07 Y109.035 E4.46006
G1 X138.086 Y109.971 E4.4912
G1 X138.073 Y110.843 E4.52021
G1 X138.05 Y111.449 E4.54038
G1 X137.938 Y112.897 E4.58868
G1 X137.856 Y113.575 E4.6114
G1 X137.694 Y114.672 E4.64828
G1 X137.575 Y115.326 E4.67039
G1 X137.343 Y116.413 E4.70735
G1 X137.206 Y116.977 E4.72666
G1 X136.98 Y117.804 E4.75517
G1 X136.804 Y118.396 E4.77572
G1 X136.459 Y119.426 E4.81184
G1 X136.254 Y119.985 E4.83165
G1 X135.793 Y121.113 E4.87218
G1 X135.38 Y122.026 E4.90551
G1 X134.902 Y122.989 E4.94126
G1 X134.625 Y123.509 E4.96086
G1 X134.204 Y124.248 E4.98915
G1 X133.892 Y124.767 E5.00929
G1 X133.267 Y125.732 E5.04753
G1 X132.933 Y126.214 E5.06703
G1 X132.059 Y127.388 E5.11571
G1 X131.65 Y127.892 E5.1373
G1 X131.127 Y128.507 E5.16415
G1 X130.723 Y128.96 E5.18434
G1 X129.675 Y130.042 E5.23444
G1 X129.255 Y130.447 E5.25385
G1 X128.62 Y131.027 E5.28245
G1 X128.153 Y131.433 E5.30303
G1 X127.25 Y132.165 E5.3417
G1 X126.797 Y132.508 E5.36059
G1 X125.909 Y133.145 E5.39694
G1 X125.36 Y133.517 E5.419
G1 X124.354 Y134.143 E5.45841
G1 X123.855 Y134.43 E5.47755
G1 X122.535 Y135.135 E5.52733
G1 X121.949 Y135.417 E5.54896
G1 X121.233 Y135.741 E5.5751
G1 X120.623 Y136 E5.59714
G1 X119.584 Y136.401 E5.63418
G1 X119.021 Y136.597 E5.65401
G1 X117.594 Y137.041 E5.70371
G1 X116.975 Y137.205 E5.72501
G1 X115.899 Y137.462 E5.76181
G1 X115.267 Y137.589 E5.78325
G1 X114.468 Y137.73 E5.81023
G1 X113.859 Y137.822 E5.83072
G1 X112.71 Y137.955 E5.86919
M204 S500
G0 F9000 X113.799 Y137.426
M204 S800
G1 F3000 X112.675 Y137.557 E5.90683
G1 X112.072 Y137.61 E5.92696
G1 X110.607 Y137.678 E5.97574
G1 X110.034 Y137.686 E5.9948
G1 X109.172 Y137.673 E6.02347
G1 X108.582 Y137.651 E6.04311
G1 X107.151 Y137.541 E6.09084
G1 X106.483 Y137.46 E6.11322
G1 X105.399 Y137.3 E6.14967
G1 X104.758 Y137.184 E6.17134
G1 X103.681 Y136.954 E6.20796
G1 X103.128 Y136.82 E6.22689
G1 X102.31 Y136.597 E6.25509
G1 X101.731 Y136.425 E6.27518
G1 X100.706 Y136.081 E6.31114
G1 X100.136 Y135.872 E6.33133
G1 X99.053 Y135.43 E6.37024
G1 X98.218 Y135.054 E6.40069
G1 X97.504 Y134.706 E6.42711
G1 X96.992 Y134.442 E6.44627
G1 X95.962 Y133.863 E6.48557
G1 X95.45 Y133.556 E6.50543
G1 X94.496 Y132.938 E6.54323
G1 X94.025 Y132.612 E6.56229
G1 X92.86 Y131.744 E6.61061
G1 X92.367 Y131.345 E6.6317
G1 X91.754 Y130.824 E6.65846
G1 X91.307 Y130.425 E6.67839
G1 X90.245 Y129.396 E6.72757
G1 X89.847 Y128.983 E6.74665
G1 X89.275 Y128.356 E6.77488
G1 X88.878 Y127.901 E6.79496
G1 X88.154 Y127.008 E6.8332
G1 X87.611 Y126.287 E6.86322
G1 X86.971 Y125.373 E6.90033
G1 X86.63 Y124.846 E6.92121
G1 X86.206 Y124.156 E6.94814
G1 X85.894 Y123.621 E6.96874
G1 X85.359 Y122.623 E7.0064
G1 X85.095 Y122.098 E7.02595
G1 X84.628 Y121.081 E7.06317
G1 X84.264 Y120.205 E7.09472
G1 X83.977 Y119.452 E7.12152
G1 X83.785 Y118.902 E7.1409
G1 X83.346 Y117.491 E7.19005
G1 X83.184 Y116.882 E7.21101
G1 X82.93 Y115.82 E7.24733
G1 X82.805 Y115.198 E7.26843
G1 X82.666 Y114.408 E7.29511
G1 X82.574 Y113.799 E7.31559
G1 X82.443 Y112.675 E7.35323
G1 X82.39 Y112.072 E7.37336
G1 X82.322 Y110.609 E7.42207
G1 X82.314 Y110.035 E7.44117
G1 X82.327 Y109.172 E7.46987
G1 X82.349 Y108.582 E7.48951
G1 X82.459 Y107.151 E7.53725
G1 X82.54 Y106.483 E7.55963
G1 X82.7 Y105.399 E7.59607
G1 X82.816 Y104.758 E7.61774
G1 X83.046 Y103.681 E7.65437
G1 X83.18 Y103.128 E7.67329
G1 X83.403 Y102.31 E7.70149
G1 X83.575 Y101.731 E7.72158
G1 X84.046 Y100.363 E7.7697
G1 X84.249 Y99.831 E7.78864
G1 X84.571 Y99.052 E7.81668
G1 X84.978 Y98.152 E7.84953
G1 X85.451 Y97.199 E7.88492
G1 X85.723 Y96.689 E7.90414
G1 X86.139 Y95.958 E7.93212
G1 X86.444 Y95.45 E7.95182
G1 X87.062 Y94.496 E7.98963
G1 X87.388 Y94.025 E8.00868
G1 X88.252 Y92.864 E8.05682
G1 X88.655 Y92.367 E8.0781
G1 X89.177 Y91.753 E8.1049
G1 X89.572 Y91.31 E8.12464
G1 X90.603 Y90.246 E8.17392
G1 X91.015 Y89.848 E8.19297
G1 X91.643 Y89.275 E8.22125
G1 X92.099 Y88.878 E8.24136
G1 X92.992 Y88.154 E8.27959
G1 X93.462 Y87.794 E8.29928
G1 X94.672 Y86.945 E8.34845
G1 X95.154 Y86.629 E8.36762
G1 X95.846 Y86.204 E8.39463
G1 X96.332 Y85.924 E8.41328
G1 X97.659 Y85.215 E8.46332
G1 X98.209 Y84.95 E8.48363
G1 X99.245 Y84.487 E8.52137
G1 X99.795 Y84.264 E8.54111
G1 X100.548 Y83.977 E8.56791
G1 X101.098 Y83.785 E8.58729
G1 X102.509 Y83.346 E8.63644
G1 X103.118 Y83.184 E8.6574
G1 X104.18 Y82.93 E8.69372
G1 X104.802 Y82.805 E8.71482
G1 X105.592 Y82.666 E8.7415
G1 X106.201 Y82.574 E8.76198
G1 X107.325 Y82.443 E8.79962
G1 X107.928 Y82.39 E8.81975
G1 X109.393 Y82.322 E8.86853
G1 X109.966 Y82.314 E8.88759
G1 X110.828 Y82.327 E8.91626
G1 X111.418 Y82.349 E8.9359
G1 X112.849 Y82.459 E8.98364
G1 X113.517 Y82.54 E9.00602
G1 X114.601 Y82.7 E9.04246
G1 X115.242 Y82.816 E9.06413
G1 X116.319 Y83.046 E9.10076
G1 X116.872 Y83.18 E9.11968
G1 X117.69 Y83.403 E9.14788
G1 X118.269 Y83.575 E9.16797
G1 X119.294 Y83.919 E9.20393
G1 X119.864 Y84.128 E9.22412
G1 X120.947 Y84.57 E9.26303
G1 X121.782 Y84.946 E9.29349
G1 X122.496 Y85.294 E9.31991
G1 X123.008 Y85.558 E9.33907
G1 X124.038 Y86.137 E9.37836
G1 X124.55 Y86.444 E9.39822
G1 X125.504 Y87.062 E9.43603
G1 X125.975 Y87.388 E9.45508
G1 X127.136 Y88.252 E9.50321
G1 X127.633 Y88.655 E9.52449
G1 X128.247 Y89.177 E9.5513
G1 X128.69 Y89.572 E9.57104
G1 X129.754 Y90.603 E9.62032
G1 X130.152 Y91.015 E9.63937
G1 X130.725 Y91.643 E9.66765
G1 X131.122 Y92.099 E9.68775
G1 X131.846 Y92.992 E9.72599
G1 X132.206 Y93.462 E9.74568
G1 X133.055 Y94.672 E9.79485
G1 X133.371 Y95.154 E9.81401
G1 X133.796 Y95.846 E9.84102
G1 X134.077 Y96.334 E9.85975
G1 X134.604 Y97.309 E9.89662
G1 X134.898 Y97.887 E9.91819
G1 X135.375 Y98.924 E9.95615
G1 X135.736 Y99.795 E9.98751
G1 X136.023 Y100.548 E10.01431
G1 X136.213 Y101.093 E10.03351
G1 X136.654 Y102.507 E10.08277
G1 X136.817 Y103.12 E10.10387
G1 X137.07 Y104.18 E10.14012
G1 X137.209 Y104.886 E10.16405
G1 X137.391 Y105.973 E10.2007
G1 X137.468 Y106.528 E10.21934
G1 X137.557 Y107.327 E10.24608
G1 X137.61 Y107.924 E10.26601
G1 X137.67 Y109.042 E10.30325
G1 X137.686 Y109.965 E10.33396
G1 X137.673 Y110.828 E10.36266
G1 X137.651 Y111.418 E10.3823
G1 X137.541 Y112.849 E10.43004
G1 X137.46 Y113.517 E10.45242
G1 X137.3 Y114.601 E10.48886
G1 X137.184 Y115.242 E10.51053
G1 X136.954 Y116.319 E10.54716
G1 X136.82 Y116.872 E10.56608
G1 X136.597 Y117.69 E10.59428
G1 X136.425 Y118.269 E10.61437
G1 X136.083 Y119.288 E10.65012
G1 X135.878 Y119.847 E10.66992
G1 X135.429 Y120.948 E10.70947
G1 X135.022 Y121.848 E10.74232
G1 X134.549 Y122.801 E10.77771
G1 X134.277 Y123.311 E10.79693
G1 X133.861 Y124.042 E10.82491
G1 X133.556 Y124.55 E10.84462
G1 X132.938 Y125.504 E10.88242
G1 X132.612 Y125.975 E10.90147
G1 X131.748 Y127.136 E10.94961
G1 X131.345 Y127.633 E10.97089
G1 X130.828 Y128.241 E10.99744
G1 X130.436 Y128.682 E11.01706
G1 X129.397 Y129.754 E11.06671
G1 X128.985 Y130.152 E11.08577
G1 X128.357 Y130.725 E11.11404
G1 X127.901 Y131.122 E11.13415
G1 X127.008 Y131.846 E11.17239
G1 X126.564 Y132.183 E11.19093
G1 X125.684 Y132.814 E11.22694
G1 X125.149 Y133.177 E11.24845
G1 X124.154 Y133.796 E11.28742
G1 X123.666 Y134.077 E11.30615
G1 X122.361 Y134.775 E11.35537
G1 X121.784 Y135.053 E11.37668
G1 X121.077 Y135.373 E11.40249
G1 X120.479 Y135.627 E11.4241
G1 X119.452 Y136.023 E11.46071
G1 X118.902 Y136.215 E11.48008
G1 X117.491 Y136.654 E11.52923
G1 X116.882 Y136.816 E11.55019
G1 X115.82 Y137.07 E11.58651
G1 X115.198 Y137.195 E11.60761
G1 X114.408 Y137.334 E11.63429
G1 X113.799 Y137.426 E11.65478
M204 S500
G1 F2100 E6.15478
;MESH:hub_test.stl
G0 F9000 X112.307 Y128.016
G0 X112.136 Y126.937
G0 X112.054 Y126.371
M204 S800
M205 X40 Y40
;TYPE:WALL-INNER
G1 F2100 E11.65478
G1 F3000 X113.092 Y126.205 E11.68974
G1 X114.11 Y125.979 E11.72442
G1 X115.091 Y125.692 E11.75842
G1 X116.072 Y125.341 E11.79307
G1 X117.017 Y124.931 E11.82733
G1 X117.949 Y124.455 E11.86214
G1 X118.847 Y123.923 E11.89686
G1 X119.703 Y123.342 E11.93126
G1 X120.507 Y122.716 E11.96516
G1 X121.288 Y122.033 E11.99966
G1 X122.033 Y121.288 E12.03471
G1 X122.716 Y120.506 E12.06924
G1 X123.347 Y119.698 E12.10334
G1 X123.927 Y118.848 E12.13756
G1 X124.462 Y117.939 E12.17264
G1 X124.93 Y117.013 E12.20715
G1 X125.341 Y116.071 E12.24134
G1 X125.692 Y115.087 E12.27608
G1 X125.979 Y114.109 E12.30998
G1 X126.209 Y113.08 E12.34505
G1 X126.371 Y112.055 E12.37957
G1 X126.465 Y111.045 E12.41331
G1 X126.499 Y109.989 E12.44845
G1 X126.465 Y108.951 E12.48299
G1 X126.371 Y107.942 E12.51669
G1 X126.205 Y106.896 E12.55192
G1 X125.979 Y105.887 E12.58631
G1 X125.692 Y104.91 E12.62018
G1 X125.337 Y103.917 E12.65525
G1 X124.931 Y102.984 E12.6891
G1 X124.451 Y102.042 E12.72426
G1 X123.922 Y101.148 E12.75881
G1 X123.343 Y100.293 E12.79316
G1 X122.717 Y99.49 E12.82702
G1 X122.034 Y98.713 E12.86143
G1 X121.287 Y97.966 E12.89656
G1 X120.505 Y97.279 E12.93119
G1 X119.703 Y96.654 E12.965
G1 X118.847 Y96.073 E12.99941
G1 X117.95 Y95.541 E13.0341
G1 X117.014 Y95.066 E13.06901
G1 X116.071 Y94.659 E13.10317
G1 X115.087 Y94.304 E13.13796
G1 X114.11 Y94.021 E13.17179
G1 X113.092 Y93.791 E13.20651
G1 X112.054 Y93.629 E13.24145
G1 X111.045 Y93.531 E13.27517
G1 X110 Y93.501 E13.30994
G1 X108.951 Y93.531 E13.34484
G1 X107.942 Y93.629 E13.37856
G1 X106.904 Y93.791 E13.4135
G1 X105.886 Y94.021 E13.44821
G1 X104.909 Y94.304 E13.48204
G1 X103.924 Y94.659 E13.51687
G1 X102.983 Y95.066 E13.55097
G1 X102.05 Y95.541 E13.58579
G1 X101.148 Y96.074 E13.62064
G1 X100.293 Y96.654 E13.655
G1 X99.492 Y97.278 E13.68877
G1 X98.714 Y97.966 E13.72331
G1 X97.966 Y98.714 E13.7585
G1 X97.278 Y99.491 E13.79302
G1 X96.653 Y100.293 E13.82683
G1 X96.074 Y101.148 E13.86118
G1 X95.538 Y102.058 E13.89631
G1 X95.066 Y102.982 E13.93082
G1 X94.659 Y103.925 E13.96498
G1 X94.304 Y104.909 E13.99977
G1 X94.022 Y105.885 E14.03356
G1 X93.791 Y106.916 E14.0687
G1 X93.629 Y107.943 E14.10328
G1 X93.531 Y108.951 E14.13696
G1 X93.501 Y110.007 E14.1721
G1 X93.531 Y111.045 E14.20664
G1 X93.629 Y112.053 E14.24032
G1 X93.791 Y113.08 E14.2749
G1 X94.022 Y114.111 E14.31005
G1 X94.304 Y115.087 E14.34384
G1 X94.659 Y116.071 E14.37863
G1 X95.066 Y117.014 E14.41279
G1 X95.538 Y117.939 E14.44733
G1 X96.07 Y118.847 E14.48233
G1 X96.652 Y119.698 E14.51662
G1 X97.28 Y120.506 E14.55066
G1 X97.966 Y121.287 E14.58523
G1 X98.713 Y122.034 E14.62037
G1 X99.49 Y122.717 E14.65478
G1 X100.293 Y123.342 E14.68862
G1 X101.148 Y123.922 E14.72298
G1 X102.05 Y124.455 E14.75783
G1 X102.984 Y124.931 E14.7927
G1 X103.925 Y125.341 E14.82684
G1 X104.909 Y125.692 E14.86159
G1 X105.886 Y125.978 E14.89544
G1 X106.904 Y126.205 E14.93013
G1 X107.946 Y126.371 E14.96523
G1 X108.951 Y126.465 E14.9988
G1 X110 Y126.499 E15.03371
G1 X111.045 Y126.465 E15.06848
G1 X112.054 Y126.371 E15.10219
M204 S500
M205 X20 Y20
