;FLAVOR:Marlin
;TIME:952
;Filament used: 1.30017m
;Layer height: 0.24
;MINX:82.034
;MINY:82.034
;MINZ:0.2
;MAXX:137.966
;MAXY:137.966
;MAXZ:7.88
;TARGET_MACHINE.NAME:Creality Ender-3 Pro
;Generated with Cura_SteamEngine 5.9.0
M82 ;absolute extrusion mode
; Ender 3 Custom Start G-code
G92 E0 ; Reset Extruder
G28 ; Home all axes
G1 Z5.0 F3000 ; Move Z Axis up a bit during heating to not damage bed
M190 S60.0 ; Start heating the bed, wait until target temperature reached
M109 S205.0 ; Finish heating the nozzle
G1 Z2.0 F3000 ; Move Z Axis up little to prevent scratching of Heat Bed
G1 X0.1 Y20 Z0.3 F5000.0 ; Move to start position
G1 X0.1 Y200.0 Z0.3 F1500.0 E15 ; Draw the first line
G1 X0.4 Y200.0 Z0.3 F5000.0 ; Move to side a little
G1 X0.4 Y20 Z0.3 F1500.0 E30 ; Draw the second line
G92 E0 ; Reset Extruder
G1 Z2.0 F3000 ; Move Z Axis up little to prevent scratching of Heat Bed
G1 X5 Y20 Z0.3 F5000.0 ; Move over to prevent blob squish
G92 E0
G92 E0
G1 F2100 E-5.5
;LAYER_COUNT:33
;LAYER:0
M107
M204 S500
M205 X20 Y20
G0 F9000 X112.378 Y137.867 Z0.2
M204 S800
;TYPE:SKIRT
G1 F2100 E0
G1 F3000 X111.688 Y137.914 E0.0184
G1 X110.61 Y137.958 E0.04711
G1 X110.03 Y137.966 E0.06254
G1 X109.161 Y137.953 E0.08567
G1 X108.559 Y137.93 E0.1017
G1 X107.117 Y137.819 E0.14018
G1 X106.441 Y137.737 E0.1583
G1 X105.347 Y137.575 E0.18773
G1 X104.699 Y137.458 E0.20525
G1 X103.613 Y137.226 E0.2348
G1 X103.054 Y137.089 E0.25011
G1 X101.914 Y136.773 E0.28159
G1 X101.351 Y136.596 E0.29729
G1 X100.609 Y136.343 E0.31815
G1 X100.029 Y136.13 E0.33459
G1 X98.94 Y135.686 E0.36588
G1 X98.362 Y135.431 E0.38269
G1 X97.376 Y134.955 E0.41182
G1 X96.853 Y134.686 E0.42747
G1 X95.818 Y134.103 E0.45908
G1 X95.297 Y133.791 E0.47524
G1 X94.336 Y133.168 E0.50571
G1 X93.858 Y132.837 E0.52118
G1 X92.684 Y131.962 E0.56014
G1 X92.186 Y131.559 E0.57719
G1 X91.567 Y131.033 E0.5988
G1 X91.111 Y130.626 E0.61507
G1 X90.043 Y129.59 E0.65466
G1 X89.64 Y129.172 E0.67011
G1 X89.063 Y128.539 E0.6929
G1 X88.659 Y128.076 E0.70925
G1 X87.932 Y127.178 E0.73999
G1 X87.565 Y126.7 E0.75603
G1 X86.909 Y125.777 E0.78616
G1 X86.578 Y125.286 E0.80191
G1 X85.963 Y124.296 E0.83292
G1 X85.646 Y123.751 E0.8497
G1 X84.973 Y122.482 E0.88792
G1 X84.694 Y121.905 E0.90497
G1 X84.227 Y120.86 E0.93543
G1 X84.002 Y120.304 E0.95139
G1 X83.712 Y119.542 E0.97308
G1 X83.518 Y118.987 E0.98873
G1 X83.19 Y117.951 E1.01764
G1 X82.911 Y116.948 E1.04534
G1 X82.726 Y116.184 E1.06626
G1 X82.53 Y115.246 E1.09175
G1 X82.39 Y114.449 E1.11329
G1 X82.295 Y113.829 E1.12998
G1 X82.133 Y112.378 E1.16882
G1 X82.086 Y111.688 E1.18723
G1 X82.042 Y110.611 E1.21591
G1 X82.034 Y110.031 E1.23134
G1 X82.047 Y109.161 E1.25449
G1 X82.07 Y108.559 E1.27052
G1 X82.181 Y107.117 E1.309
G1 X82.263 Y106.441 E1.32712
G1 X82.425 Y105.347 E1.35655
G1 X82.542 Y104.699 E1.37407
G1 X82.774 Y103.613 E1.40362
G1 X82.91 Y103.055 E1.4189
G1 X83.135 Y102.23 E1.44166
G1 X83.311 Y101.639 E1.45806
G1 X83.784 Y100.262 E1.4968
G1 X83.99 Y99.724 E1.51213
G1 X84.315 Y98.938 E1.53476
G1 X84.57 Y98.36 E1.55157
G1 X85.205 Y97.066 E1.58993
G1 X85.48 Y96.551 E1.60546
G1 X85.9 Y95.813 E1.62806
G1 X86.209 Y95.297 E1.64406
G1 X86.832 Y94.336 E1.67453
G1 X87.163 Y93.858 E1.69
G1 X88.035 Y92.688 E1.72883
G1 X88.441 Y92.186 E1.74601
G1 X88.968 Y91.566 E1.76766
G1 X89.371 Y91.114 E1.78377
G1 X90.409 Y90.044 E1.82344
G1 X90.826 Y89.642 E1.83885
G1 X91.46 Y89.064 E1.86168
G1 X91.924 Y88.659 E1.87807
G1 X92.822 Y87.932 E1.90881
G1 X93.302 Y87.564 E1.9249
G1 X94.519 Y86.71 E1.96446
G1 X95.008 Y86.39 E1.98001
G1 X95.707 Y85.961 E2.00183
G1 X96.199 Y85.678 E2.01694
G1 X97.187 Y85.143 E2.04683
G1 X97.801 Y84.833 E2.06513
G1 X98.813 Y84.368 E2.09477
G1 X99.696 Y84.002 E2.1202
G1 X100.458 Y83.712 E2.1419
G1 X101.013 Y83.518 E2.15754
G1 X102.049 Y83.19 E2.18645
G1 X103.052 Y82.911 E2.21415
G1 X103.816 Y82.726 E2.23507
G1 X104.754 Y82.53 E2.26057
G1 X105.551 Y82.39 E2.2821
G1 X106.171 Y82.295 E2.29879
G1 X107.622 Y82.133 E2.33764
G1 X108.312 Y82.086 E2.35604
G1 X109.39 Y82.042 E2.38475
G1 X109.97 Y82.034 E2.40018
G1 X110.839 Y82.047 E2.42331
G1 X111.441 Y82.07 E2.43934
G1 X112.883 Y82.181 E2.47782
G1 X113.559 Y82.263 E2.49594
G1 X114.653 Y82.425 E2.52536
G1 X115.301 Y82.542 E2.54288
G1 X116.387 Y82.774 E2.57243
G1 X116.946 Y82.911 E2.58775
G1 X118.086 Y83.227 E2.61922
G1 X118.649 Y83.404 E2.63493
G1 X119.391 Y83.657 E2.65579
G1 X119.971 Y83.87 E2.67223
G1 X121.06 Y84.314 E2.70352
G1 X121.638 Y84.569 E2.72033
G1 X122.624 Y85.045 E2.74946
G1 X123.147 Y85.314 E2.76511
G1 X124.182 Y85.897 E2.79672
G1 X124.703 Y86.209 E2.81288
G1 X125.664 Y86.832 E2.84335
G1 X126.142 Y87.163 E2.85882
G1 X127.312 Y88.035 E2.89765
G1 X127.814 Y88.441 E2.91483
G1 X128.434 Y88.968 E2.93648
G1 X128.886 Y89.371 E2.95259
G1 X129.956 Y90.409 E2.99226
G1 X130.358 Y90.826 E3.00767
G1 X130.936 Y91.46 E3.0305
G1 X131.341 Y91.924 E3.04688
G1 X132.068 Y92.822 E3.07763
G1 X132.436 Y93.302 E3.09372
G1 X133.29 Y94.519 E3.13328
G1 X133.61 Y95.008 E3.14883
G1 X134.039 Y95.707 E3.17065
G1 X134.324 Y96.201 E3.18583
G1 X134.854 Y97.183 E3.21552
G1 X135.153 Y97.773 E3.23312
G1 X135.773 Y99.14 E3.27306
G1 X135.998 Y99.696 E3.28902
G1 X136.288 Y100.458 E3.31071
G1 X136.48 Y101.008 E3.32621
G1 X136.806 Y102.034 E3.35486
G1 X136.924 Y102.436 E3.36601
G1 X137.089 Y103.055 E3.38305
G1 X137.274 Y103.816 E3.40389
G1 X137.486 Y104.839 E3.43169
G1 X137.669 Y105.935 E3.46125
G1 X137.747 Y106.497 E3.47635
G1 X137.837 Y107.303 E3.49793
G1 X137.89 Y107.911 E3.51417
G1 X137.95 Y109.038 E3.5442
G1 X137.966 Y109.969 E3.56898
G1 X137.953 Y110.839 E3.59213
G1 X137.93 Y111.441 E3.60816
G1 X137.819 Y112.883 E3.64664
G1 X137.737 Y113.559 E3.66476
G1 X137.575 Y114.653 E3.69418
G1 X137.458 Y115.301 E3.71171
G1 X137.226 Y116.387 E3.74125
G1 X137.089 Y116.946 E3.75657
G1 X136.773 Y118.086 E3.78805
G1 X136.596 Y118.649 E3.80375
G1 X136.346 Y119.385 E3.82443
G1 X136.137 Y119.954 E3.84056
G1 X135.685 Y121.062 E3.8724
G1 X135.43 Y121.64 E3.88921
G1 X134.795 Y122.934 E3.92756
G1 X134.52 Y123.449 E3.9431
G1 X134.1 Y124.187 E3.96569
G1 X133.791 Y124.703 E3.9817
G1 X133.168 Y125.664 E4.01217
G1 X132.837 Y126.142 E4.02764
G1 X131.965 Y127.312 E4.06647
G1 X131.558 Y127.815 E4.08368
G1 X131.036 Y128.429 E4.10513
G1 X130.357 Y129.175 E4.13197
G1 X129.591 Y129.956 E4.16107
G1 X129.174 Y130.358 E4.17649
G1 X128.54 Y130.936 E4.19931
G1 X128.076 Y131.341 E4.2157
G1 X127.177 Y132.069 E4.24648
G1 X126.726 Y132.411 E4.26154
G1 X125.84 Y133.047 E4.29056
G1 X125.296 Y133.416 E4.30805
G1 X124.293 Y134.039 E4.33947
G1 X123.799 Y134.324 E4.35465
G1 X122.817 Y134.854 E4.38434
G1 X122.213 Y135.16 E4.40235
G1 X121.185 Y135.632 E4.43245
G1 X120.579 Y135.889 E4.44997
G1 X119.542 Y136.288 E4.47953
G1 X118.987 Y136.482 E4.49517
G1 X117.951 Y136.81 E4.52409
G1 X116.948 Y137.089 E4.55179
G1 X116.184 Y137.274 E4.57271
G1 X115.246 Y137.47 E4.5982
G1 X114.449 Y137.61 E4.61974
G1 X113.829 Y137.705 E4.63642
G1 X112.378 Y137.867 E4.67527
M204 S500
G0 F9000 X112.356 Y137.548
M204 S800
G1 F3000 X111.675 Y137.594 E4.69343
G1 X110.606 Y137.638 E4.7219
G1 X110.035 Y137.646 E4.7371
G1 X109.173 Y137.633 E4.76004
G1 X108.584 Y137.611 E4.77572
G1 X107.156 Y137.501 E4.81383
G1 X106.488 Y137.42 E4.83173
G1 X105.404 Y137.26 E4.86089
G1 X104.766 Y137.145 E4.87814
G1 X103.689 Y136.915 E4.90744
G1 X103.139 Y136.781 E4.9225
G1 X102.01 Y136.468 E4.95368
G1 X101.454 Y136.293 E4.96919
G1 X100.719 Y136.043 E4.98984
G1 X100.15 Y135.834 E5.00597
G1 X99.069 Y135.393 E5.03704
G1 X98.501 Y135.143 E5.05355
G1 X97.522 Y134.67 E5.08248
G1 X97.01 Y134.407 E5.0978
G1 X95.982 Y133.828 E5.12919
G1 X95.471 Y133.522 E5.14504
G1 X94.518 Y132.905 E5.17525
G1 X94.049 Y132.58 E5.19043
G1 X92.885 Y131.713 E5.22905
G1 X92.393 Y131.315 E5.24589
G1 X91.78 Y130.794 E5.26729
G1 X91.334 Y130.396 E5.2832
G1 X90.273 Y129.368 E5.32251
G1 X89.876 Y128.956 E5.33773
G1 X89.304 Y128.329 E5.36031
G1 X88.908 Y127.875 E5.37634
G1 X88.186 Y126.983 E5.40688
G1 X87.826 Y126.514 E5.42261
G1 X87.174 Y125.598 E5.45253
G1 X86.85 Y125.117 E5.46796
G1 X86.24 Y124.135 E5.49872
G1 X85.929 Y123.601 E5.51516
G1 X85.261 Y122.343 E5.55306
G1 X84.986 Y121.774 E5.56988
G1 X84.524 Y120.74 E5.60001
G1 X84.301 Y120.19 E5.6158
G1 X84.014 Y119.437 E5.63724
G1 X83.823 Y118.89 E5.65266
G1 X83.498 Y117.865 E5.68127
G1 X83.222 Y116.872 E5.70869
G1 X83.039 Y116.119 E5.72931
G1 X82.845 Y115.191 E5.75454
G1 X82.706 Y114.401 E5.77588
G1 X82.613 Y113.793 E5.79225
G1 X82.452 Y112.356 E5.83072
G1 X82.406 Y111.675 E5.84889
G1 X82.362 Y110.607 E5.87733
G1 X82.354 Y110.036 E5.89252
G1 X82.367 Y109.173 E5.91549
G1 X82.389 Y108.584 E5.93117
G1 X82.499 Y107.156 E5.96928
G1 X82.58 Y106.488 E5.98718
G1 X82.74 Y105.404 E6.01634
G1 X82.855 Y104.766 E6.03359
G1 X83.085 Y103.689 E6.06289
G1 X83.219 Y103.139 E6.07795
G1 X83.442 Y102.321 E6.10051
G1 X83.614 Y101.743 E6.11656
G1 X84.083 Y100.376 E6.15501
G1 X84.286 Y99.846 E6.17012
G1 X84.608 Y99.067 E6.19254
G1 X84.857 Y98.501 E6.209
G1 X85.487 Y97.217 E6.24705
G1 X85.758 Y96.709 E6.26237
G1 X86.174 Y95.978 E6.28475
G1 X86.478 Y95.471 E6.30048
G1 X87.095 Y94.518 E6.33069
G1 X87.42 Y94.049 E6.34587
G1 X88.284 Y92.889 E6.38436
G1 X88.685 Y92.393 E6.40133
G1 X89.207 Y91.779 E6.42277
G1 X89.601 Y91.337 E6.43853
G1 X90.631 Y90.274 E6.47791
G1 X91.042 Y89.878 E6.4931
G1 X91.67 Y89.305 E6.51572
G1 X92.125 Y88.908 E6.53179
G1 X93.017 Y88.186 E6.56232
G1 X93.486 Y87.826 E6.57805
G1 X94.694 Y86.978 E6.61733
G1 X95.175 Y86.663 E6.63262
G1 X95.867 Y86.238 E6.65423
G1 X96.351 Y85.959 E6.6691
G1 X97.331 Y85.429 E6.69874
G1 X97.935 Y85.124 E6.71675
G1 X98.936 Y84.664 E6.74606
G1 X99.81 Y84.301 E6.77124
G1 X100.563 Y84.014 E6.79268
G1 X101.11 Y83.823 E6.8081
G1 X102.135 Y83.498 E6.83671
G1 X103.128 Y83.222 E6.86413
G1 X103.881 Y83.039 E6.88475
G1 X104.809 Y82.845 E6.90998
G1 X105.599 Y82.706 E6.93132
G1 X106.207 Y82.613 E6.94769
G1 X107.644 Y82.452 E6.98616
G1 X108.325 Y82.406 E7.00432
G1 X109.394 Y82.362 E7.03279
G1 X109.965 Y82.354 E7.04799
G1 X110.827 Y82.367 E7.07093
G1 X111.416 Y82.389 E7.08661
G1 X112.844 Y82.499 E7.12472
G1 X113.512 Y82.58 E7.14262
G1 X114.596 Y82.74 E7.17178
G1 X115.234 Y82.855 E7.18903
G1 X116.311 Y83.085 E7.21833
G1 X116.861 Y83.219 E7.23339
G1 X117.99 Y83.532 E7.26457
G1 X118.546 Y83.707 E7.28008
G1 X119.281 Y83.957 E7.30073
G1 X119.85 Y84.166 E7.31686
G1 X120.931 Y84.607 E7.34793
G1 X121.499 Y84.857 E7.36444
G1 X122.478 Y85.33 E7.39337
G1 X122.99 Y85.593 E7.40869
G1 X124.018 Y86.172 E7.44008
G1 X124.529 Y86.478 E7.45593
G1 X125.482 Y87.095 E7.48614
G1 X125.951 Y87.42 E7.50132
G1 X127.111 Y88.284 E7.5398
G1 X127.607 Y88.685 E7.55678
G1 X128.221 Y89.207 E7.57822
G1 X128.663 Y89.601 E7.59397
G1 X129.726 Y90.631 E7.63336
G1 X130.122 Y91.042 E7.64854
G1 X130.695 Y91.67 E7.67116
G1 X131.092 Y92.125 E7.68723
G1 X131.814 Y93.017 E7.71777
G1 X132.174 Y93.486 E7.7335
G1 X133.022 Y94.694 E7.77277
G1 X133.337 Y95.175 E7.78807
G1 X133.762 Y95.867 E7.80968
G1 X134.042 Y96.353 E7.8246
G1 X134.569 Y97.328 E7.85409
G1 X134.862 Y97.905 E7.87131
G1 X135.476 Y99.26 E7.91089
G1 X135.699 Y99.81 E7.92669
G1 X135.986 Y100.563 E7.94813
G1 X136.175 Y101.105 E7.9634
G1 X136.499 Y102.125 E7.99188
G1 X136.615 Y102.518 E8.00278
G1 X136.778 Y103.13 E8.01963
G1 X136.961 Y103.884 E8.04028
G1 X137.091 Y104.479 E8.05648
G1 X137.17 Y104.892 E8.06767
G1 X137.352 Y105.979 E8.097
G1 X137.429 Y106.532 E8.11185
G1 X137.518 Y107.331 E8.13324
G1 X137.57 Y107.928 E8.14919
G1 X137.63 Y109.044 E8.17893
G1 X137.646 Y109.964 E8.20341
G1 X137.633 Y110.827 E8.22637
G1 X137.611 Y111.416 E8.24206
G1 X137.501 Y112.844 E8.28017
G1 X137.42 Y113.512 E8.29807
G1 X137.26 Y114.596 E8.32723
G1 X137.145 Y115.234 E8.34448
G1 X136.915 Y116.311 E8.37378
G1 X136.781 Y116.861 E8.38884
G1 X136.468 Y117.99 E8.42002
G1 X136.293 Y118.546 E8.43553
G1 X136.045 Y119.275 E8.45601
G1 X135.841 Y119.833 E8.47182
G1 X135.392 Y120.933 E8.50344
G1 X135.143 Y121.499 E8.51989
G1 X134.513 Y122.783 E8.55795
G1 X134.242 Y123.291 E8.57327
G1 X133.826 Y124.022 E8.59564
G1 X133.522 Y124.529 E8.61137
G1 X132.905 Y125.482 E8.64158
G1 X132.58 Y125.951 E8.65676
G1 X131.716 Y127.111 E8.69525
G1 X131.314 Y127.608 E8.71226
G1 X130.797 Y128.216 E8.7335
G1 X130.406 Y128.655 E8.74914
G1 X130.128 Y128.951 E8.75994
G1 X129.369 Y129.726 E8.78881
G1 X128.958 Y130.122 E8.80399
G1 X128.33 Y130.695 E8.82661
G1 X127.875 Y131.092 E8.84268
G1 X126.983 Y131.814 E8.87321
G1 X126.54 Y132.151 E8.88803
G1 X125.66 Y132.782 E8.91684
G1 X125.127 Y133.144 E8.93398
G1 X124.133 Y133.762 E8.96513
G1 X123.647 Y134.042 E8.98005
G1 X122.672 Y134.569 E9.00954
G1 X122.08 Y134.869 E9.0272
G1 X121.06 Y135.337 E9.05706
G1 X120.464 Y135.59 E9.07429
G1 X119.437 Y135.986 E9.10358
G1 X118.89 Y136.177 E9.11899
G1 X117.865 Y136.502 E9.1476
G1 X116.872 Y136.778 E9.17503
G1 X116.119 Y136.961 E9.19565
G1 X115.191 Y137.155 E9.22087
G1 X114.401 Y137.294 E9.24221
G1 X113.793 Y137.387 E9.25858
G1 X112.356 Y137.548 E9.29706
M204 S500
G1 F2100 E3.79706
;MESH:hub_test.stl
G0 F9000 X111.473 Y128.096
G0 X111.372 Y127.027
G0 X112.077 Y126.509
G0 X112.079 Y126.569
M204 S800
M205 X40 Y40
;TYPE:WALL-INNER
G1 F2100 E9.29706
G1 F3000 X113.129 Y126.401 E9.32535
G1 X114.16 Y126.172 E9.35345
G1 X115.152 Y125.882 E9.38095
G1 X116.145 Y125.527 E9.40901
G1 X117.102 Y125.112 E9.43677
G1 X118.045 Y124.63 E9.46495
G1 X118.955 Y124.092 E9.49307
G1 X119.821 Y123.504 E9.52093
G1 X120.634 Y122.87 E9.54836
G1 X121.425 Y122.179 E9.57631
G1 X122.179 Y121.425 E9.60468
G1 X122.871 Y120.634 E9.63264
G1 X123.509 Y119.816 E9.66025
G1 X124.096 Y118.955 E9.68797
G1 X124.637 Y118.035 E9.71637
G1 X125.111 Y117.099 E9.74429
G1 X125.527 Y116.145 E9.77198
G1 X125.882 Y115.148 E9.80014
G1 X126.172 Y114.159 E9.82756
G1 X126.405 Y113.118 E9.85595
G1 X126.569 Y112.08 E9.88391
G1 X126.665 Y111.057 E9.91125
G1 X126.699 Y109.989 E9.93968
G1 X126.665 Y108.939 E9.96763
G1 X126.569 Y107.917 E9.99495
G1 X126.401 Y106.859 E10.02345
G1 X126.173 Y105.837 E10.05131
G1 X125.882 Y104.848 E10.07874
G1 X125.523 Y103.843 E10.10714
G1 X125.112 Y102.898 E10.13456
G1 X124.626 Y101.946 E10.163
G1 X124.091 Y101.041 E10.19097
G1 X123.504 Y100.175 E10.21881
G1 X122.871 Y99.363 E10.24621
G1 X122.18 Y98.576 E10.27407
G1 X121.424 Y97.82 E10.30252
G1 X120.633 Y97.125 E10.33054
G1 X119.821 Y96.492 E10.35793
G1 X118.955 Y95.904 E10.38579
G1 X118.046 Y95.366 E10.41389
G1 X117.099 Y94.885 E10.44215
G1 X116.145 Y94.473 E10.4698
G1 X115.148 Y94.114 E10.498
G1 X114.16 Y93.828 E10.52537
G1 X113.129 Y93.595 E10.55349
G1 X112.079 Y93.431 E10.58177
G1 X111.057 Y93.331 E10.60909
G1 X110 Y93.301 E10.63723
G1 X108.939 Y93.331 E10.66547
G1 X107.917 Y93.431 E10.69279
G1 X106.867 Y93.595 E10.72107
G1 X105.836 Y93.827 E10.74919
G1 X104.848 Y94.114 E10.77657
G1 X103.851 Y94.473 E10.80476
G1 X102.897 Y94.885 E10.83241
G1 X101.954 Y95.366 E10.86058
G1 X101.041 Y95.905 E10.88879
G1 X100.175 Y96.492 E10.91663
G1 X99.364 Y97.124 E10.94398
G1 X98.577 Y97.82 E10.97194
G1 X97.82 Y98.577 E11.00043
G1 X97.124 Y99.364 E11.02838
G1 X96.492 Y100.175 E11.05574
G1 X95.905 Y101.041 E11.08358
G1 X95.362 Y101.962 E11.11202
G1 X94.885 Y102.897 E11.13995
G1 X94.473 Y103.851 E11.1676
G1 X94.114 Y104.848 E11.1958
G1 X93.828 Y105.835 E11.22314
G1 X93.595 Y106.878 E11.25158
G1 X93.43 Y107.918 E11.2796
G1 X93.331 Y108.939 E11.30689
G1 X93.301 Y110.007 E11.33532
G1 X93.331 Y111.057 E11.36327
G1 X93.43 Y112.078 E11.39056
G1 X93.595 Y113.118 E11.41858
G1 X93.828 Y114.161 E11.44702
G1 X94.114 Y115.148 E11.47436
G1 X94.473 Y116.145 E11.50256
G1 X94.885 Y117.099 E11.53021
G1 X95.363 Y118.035 E11.55817
G1 X95.901 Y118.955 E11.58653
G1 X96.491 Y119.816 E11.6143
G1 X97.126 Y120.634 E11.64185
G1 X97.82 Y121.424 E11.66983
G1 X98.576 Y122.18 E11.69828
G1 X99.363 Y122.871 E11.72615
G1 X100.175 Y123.504 E11.75354
G1 X101.041 Y124.091 E11.78138
G1 X101.954 Y124.63 E11.80959
G1 X102.898 Y125.112 E11.8378
G1 X103.851 Y125.527 E11.86545
G1 X104.848 Y125.882 E11.89361
G1 X105.836 Y126.172 E11.92101
G1 X106.866 Y126.401 E11.94909
G1 X107.921 Y126.569 E11.97751
G1 X108.939 Y126.665 E12.00472
G1 X110 Y126.699 E12.03296
G1 X111.057 Y126.665 E12.0611
