;FLAVOR:Marlin
;TIME:7544
;Filament used: 3.21688m
;Layer height: 0.2
;MINX:75.6
;MINY:92.4
;MINZ:0.2
;MAXX:144.4
;MAXY:127.6
;MAXZ:93.2
;TARGET_MACHINE.NAME:Creality Ender-3 Pro
;Post-Processed by AutoTowersGenerator
;AutoTowersGenerator: Post-processing a TempTower
;AutoTowersGenerator: Base height = 0.84 mm
;AutoTowersGenerator: Section height = 8.4 mm
;AutoTowersGenerator: Initial printed layer height = 0.2 mm
;AutoTowersGenerator: Printed layer height = 0.2 mm
;AutoTowersGenerator: Starting temperature = 230%
;AutoTowersGenerator: Temperature change = -5%
;AutoTowersGenerator: Enable LCD messages = False
;Generated with Cura_SteamEngine 5.8.1
M82 ;absolute extrusion mode
; Ender 3 Custom Start G-code
G92 E0 ; Reset Extruder
G28 ; Home all axes
G1 Z5.0 F3000 ; Move Z Axis up a bit during heating to not damage bed
M104 S175 ; Start heating up the nozzle most of the way
M190 S60 ; Start heating the bed, wait until target temperature reached
M109 S200 ; Finish heating the nozzle
G1 Z2.0 F3000 ; Move Z Axis up little to prevent scratching of Heat Bed
G1 X0.1 Y20 Z0.3 F5000.0 ; Move to start position
G1 X0.1 Y200.0 Z0.3 F1500.0 E15 ; Draw the first line
G1 X0.4 Y200.0 Z0.3 F5000.0 ; Move to side a little
G1 X0.4 Y20 Z0.3 F1500.0 E30 ; Draw the second line
G92 E0 ; Reset Extruder
G1 Z2.0 F3000 ; Move Z Axis up little to prevent scratching of Heat Bed
G1 X5 Y20 Z0.3 F5000.0 ; Move over to prevent blob squish
G92 E0
G92 E0
G1 F1500 E-6.5
;LAYER_COUNT:466
;LAYER:0
M107
G0 F6000 X79.792 Y94.776 Z0.2
;TYPE:SKIRT
G1 F1500 E0
G1 F1200 X80.524 Y94.246 E0.03006
G1 X81.421 Y93.711 E0.0648
G1 X82.299 Y93.29 E0.09718
G1 X83.212 Y92.948 E0.12961
G1 X84.149 Y92.689 E0.16194
G1 X85.116 Y92.511 E0.19465
G1 X86.255 Y92.415 E0.23266
G1 X86.912 Y92.4 E0.25452
G1 X132.704 Y92.4 E1.77757
G1 X133.584 Y92.413 E1.80684
G1 X134.556 Y92.472 E1.83923
G1 X135.519 Y92.618 E1.87162
G1 X136.466 Y92.849 E1.90405
G1 X137.354 Y93.149 E1.93522
G1 X138.246 Y93.539 E1.9676
G1 X139.129 Y94.026 E2.00114
G1 X139.88 Y94.528 E2.03118
G1 X140.695 Y95.186 E2.06602
G1 X141.393 Y95.864 E2.09839
G1 X142.029 Y96.601 E2.13077
G1 X142.599 Y97.391 E2.16317
G1 X143.061 Y98.167 E2.1932
G1 X143.515 Y99.109 E2.22798
G1 X143.844 Y99.987 E2.25917
G1 X144.113 Y100.959 E2.29271
G1 X144.29 Y101.925 E2.32538
G1 X144.385 Y103.055 E2.36309
G1 X144.4 Y103.73 E2.38555
G1 X144.399 Y116 E2.79365
G1 X144.388 Y116.763 E2.81903
G1 X144.331 Y117.736 E2.85145
G1 X144.186 Y118.699 E2.88384
G1 X143.957 Y119.645 E2.91621
G1 X143.646 Y120.569 E2.94864
G1 X143.254 Y121.46 E2.98102
G1 X142.786 Y122.312 E3.01335
G1 X142.264 Y123.093 E3.04459
G1 X141.631 Y123.878 E3.07813
G1 X141.006 Y124.529 E3.10815
G1 X140.217 Y125.217 E3.14297
G1 X139.457 Y125.767 E3.17417
G1 X138.59 Y126.284 E3.20774
G1 X137.712 Y126.706 E3.24014
G1 X136.801 Y127.048 E3.27251
G1 X135.862 Y127.309 E3.30492
G1 X134.896 Y127.487 E3.33759
G1 X133.745 Y127.585 E3.37601
G1 X133.07 Y127.6 E3.39847
G1 X87.164 Y127.599 E4.92531
G1 X86.431 Y127.588 E4.94969
G1 X85.459 Y127.531 E4.98208
G1 X84.496 Y127.385 E5.01447
G1 X83.55 Y127.156 E5.04685
G1 X82.626 Y126.844 E5.07928
G1 X81.736 Y126.452 E5.11163
G1 X80.913 Y126.001 E5.14284
G1 X80.074 Y125.44 E5.17641
G1 X79.37 Y124.874 E5.20645
G1 X78.617 Y124.149 E5.24122
G1 X77.98 Y123.413 E5.2736
G1 X77.45 Y122.682 E5.30363
G1 X76.914 Y121.785 E5.33838
G1 X76.492 Y120.907 E5.37078
G1 X76.15 Y119.995 E5.40318
G1 X75.89 Y119.057 E5.43555
G1 X75.712 Y118.088 E5.46832
G1 X75.614 Y116.909 E5.50767
G1 X75.6 Y116.258 E5.52933
G1 X75.601 Y103.925 E5.93952
G1 X75.612 Y103.225 E5.96281
G1 X75.67 Y102.252 E5.99523
G1 X75.816 Y101.289 E6.02762
G1 X76.046 Y100.343 E6.06001
G1 X76.359 Y99.42 E6.09242
G1 X76.751 Y98.53 E6.12477
G1 X77.221 Y97.677 E6.15716
G1 X77.764 Y96.869 E6.18954
G1 X78.331 Y96.165 E6.2196
G1 X79.056 Y95.413 E6.25435
G1 X79.792 Y94.776 E6.28672
G0 F6000 X80.027 Y95.1
G1 F1200 X80.759 Y94.57 E6.31678
G1 X81.595 Y94.071 E6.34916
G1 X82.44 Y93.664 E6.38036
G1 X83.319 Y93.333 E6.4116
G1 X84.222 Y93.082 E6.44277
G1 X85.15 Y92.91 E6.47416
G1 X86.289 Y92.814 E6.51218
G1 X86.921 Y92.8 E6.5332
G1 X132.698 Y92.8 E8.05575
G1 X133.56 Y92.812 E8.08442
G1 X134.497 Y92.868 E8.11565
G1 X135.425 Y93.007 E8.14686
G1 X136.338 Y93.228 E8.1781
G1 X137.194 Y93.516 E8.20814
G1 X138.086 Y93.906 E8.24052
G1 X138.907 Y94.359 E8.2717
G1 X139.658 Y94.861 E8.30175
G1 X140.417 Y95.473 E8.33418
G1 X141.091 Y96.126 E8.36539
G1 X141.705 Y96.835 E8.39659
G1 X142.255 Y97.596 E8.42782
G1 X142.717 Y98.372 E8.45785
G1 X143.14 Y99.249 E8.49024
G1 X143.469 Y100.127 E8.52142
G1 X143.72 Y101.032 E8.55266
G1 X143.891 Y101.959 E8.58401
G1 X143.986 Y103.089 E8.62173
G1 X144 Y103.73 E8.64305
G1 X143.999 Y115.995 E9.05099
G1 X143.989 Y116.74 E9.07577
G1 X143.935 Y117.677 E9.10699
G1 X143.797 Y118.606 E9.13822
G1 X143.578 Y119.518 E9.16942
G1 X143.28 Y120.408 E9.20064
G1 X142.903 Y121.268 E9.23187
G1 X142.453 Y122.09 E9.26304
G1 X141.931 Y122.871 E9.29428
G1 X141.342 Y123.601 E9.32548
G1 X140.717 Y124.252 E9.35549
G1 X139.982 Y124.893 E9.38793
G1 X139.222 Y125.443 E9.41913
G1 X138.416 Y125.924 E9.45035
G1 X137.571 Y126.332 E9.48156
G1 X136.693 Y126.663 E9.51277
G1 X135.789 Y126.916 E9.54399
G1 X134.862 Y127.088 E9.57535
G1 X133.711 Y127.186 E9.61377
G1 X133.07 Y127.2 E9.6351
G1 X87.17 Y127.199 E11.16174
G1 X86.454 Y127.189 E11.18555
G1 X85.518 Y127.135 E11.21674
G1 X84.589 Y126.996 E11.24798
G1 X83.677 Y126.777 E11.27918
G1 X82.787 Y126.478 E11.3104
G1 X81.928 Y126.101 E11.3416
G1 X81.105 Y125.65 E11.37282
G1 X80.325 Y125.128 E11.40403
G1 X79.621 Y124.562 E11.43408
G1 X78.919 Y123.887 E11.46647
G1 X78.304 Y123.178 E11.49769
G1 X77.774 Y122.447 E11.52772
G1 X77.274 Y121.611 E11.56012
G1 X76.866 Y120.766 E11.59133
G1 X76.535 Y119.888 E11.62253
G1 X76.283 Y118.984 E11.65375
G1 X76.111 Y118.055 E11.68517
G1 X76.013 Y116.876 E11.72452
G1 X76 Y116.258 E11.74508
G1 X76.001 Y103.931 E12.15508
G1 X76.011 Y103.248 E12.1778
G1 X76.066 Y102.311 E12.20901
G1 X76.205 Y101.383 E12.24022
G1 X76.425 Y100.471 E12.27143
G1 X76.725 Y99.581 E12.30267
G1 X77.102 Y98.722 E12.33387
G1 X77.553 Y97.9 E12.36505
G1 X78.076 Y97.12 E12.39629
G1 X78.643 Y96.416 E12.42635
G1 X79.318 Y95.715 E12.45872
G1 X80.027 Y95.1 E12.48994
G0 F6000 X80.262 Y95.424
G1 F1200 X80.994 Y94.894 E12.51999
G1 X81.769 Y94.431 E12.55002
G1 X82.582 Y94.038 E12.58005
G1 X83.427 Y93.718 E12.61011
G1 X84.296 Y93.475 E12.64012
G1 X85.184 Y93.309 E12.67017
G1 X86.323 Y93.213 E12.70818
G1 X86.93 Y93.2 E12.72838
G1 X132.693 Y93.2 E14.25046
G1 X133.537 Y93.211 E14.27853
G1 X134.439 Y93.264 E14.30859
G1 X135.332 Y93.396 E14.33861
G1 X136.21 Y93.607 E14.36864
G1 X137.066 Y93.895 E14.39868
G1 X137.893 Y94.257 E14.42871
G1 X138.685 Y94.692 E14.45876
G1 X139.436 Y95.194 E14.48881
G1 X140.139 Y95.761 E14.51885
G1 X140.789 Y96.388 E14.54888
G1 X141.381 Y97.07 E14.57892
G1 X141.911 Y97.801 E14.60895
G1 X142.373 Y98.577 E14.63899
G1 X142.766 Y99.39 E14.66902
G1 X143.084 Y100.235 E14.69905
G1 X143.327 Y101.105 E14.7291
G1 X143.492 Y101.993 E14.75914
G1 X143.587 Y103.123 E14.79685
G1 X143.6 Y103.73 E14.81705
G1 X143.599 Y115.99 E15.22482
G1 X143.59 Y116.717 E15.249
G1 X143.539 Y117.619 E15.27905
G1 X143.408 Y118.513 E15.3091
G1 X143.199 Y119.391 E15.33912
G1 X142.913 Y120.248 E15.36917
G1 X142.552 Y121.076 E15.39921
G1 X142.12 Y121.868 E15.42922
G1 X141.619 Y122.62 E15.45927
G1 X141.053 Y123.324 E15.48932
G1 X140.428 Y123.975 E15.51933
G1 X139.747 Y124.569 E15.54939
G1 X139.016 Y125.1 E15.57944
G1 X138.242 Y125.564 E15.60945
G1 X137.429 Y125.958 E15.6395
G1 X136.585 Y126.278 E15.66952
G1 X135.715 Y126.523 E15.69958
G1 X134.828 Y126.689 E15.7296
G1 X133.677 Y126.787 E15.76802
G1 X133.07 Y126.8 E15.78821
G1 X87.175 Y126.799 E17.31469
G1 X86.477 Y126.79 E17.3379
G1 X85.576 Y126.739 E17.36792
G1 X84.682 Y126.607 E17.39798
G1 X83.804 Y126.398 E17.42799
G1 X82.947 Y126.111 E17.45805
G1 X82.12 Y125.75 E17.48807
G1 X81.327 Y125.317 E17.51812
G1 X80.576 Y124.816 E17.54814
G1 X79.872 Y124.25 E17.57819
G1 X79.221 Y123.624 E17.60823
G1 X78.628 Y122.943 E17.63826
G1 X78.098 Y122.212 E17.66829
G1 X77.634 Y121.437 E17.69834
G1 X77.24 Y120.624 E17.72838
G1 X76.92 Y119.78 E17.75841
G1 X76.676 Y118.91 E17.78846
G1 X76.51 Y118.022 E17.81851
G1 X76.413 Y116.867 E17.85706
G1 X76.4 Y116.258 E17.87732
G1 X76.401 Y103.936 E18.28715
G1 X76.41 Y103.271 E18.30927
G1 X76.462 Y102.369 E18.33932
G1 X76.594 Y101.476 E18.36934
G1 X76.804 Y100.598 E18.39937
G1 X77.091 Y99.741 E18.42943
G1 X77.453 Y98.914 E18.45945
G1 X77.886 Y98.122 E18.48948
G1 X78.388 Y97.371 E18.51952
G1 X78.955 Y96.667 E18.54959
G1 X79.581 Y96.017 E18.5796
G1 X80.262 Y95.424 E18.60963
G1 F1500 E12.10963
;MESH:AutoTowersGenerator
G0 F6000 X87.014 Y102.735
G0 X110 Y116
;TYPE:WALL-INNER
G1 F1500 E18.60963
G1 F1200 X132.8 Y116 E19.36797
G1 X132.8 Y104 E19.76709
G1 X87.2 Y104 E21.28375
G1 X87.2 Y116 E21.68287
G1 X110 Y116 E22.4412
G0 F6000 X110 Y116.4
;TYPE:WALL-OUTER
G1 F1200 X133.2 Y116.4 E23.21284
G1 X133.2 Y103.6 E23.63857
G1 X86.8 Y103.6 E25.18184
G1 X86.8 Y116.4 E25.60757
G1 X110 Y116.4 E26.3792
G0 F6000 X110 Y115.64
;TYPE:SKIN
G1 F1200 X87.56 Y115.64 E27.12556
G1 X87.56 Y104.36 E27.50073
G1 X132.44 Y104.36 E28.99345
G1 X132.44 Y115.64 E29.36862
G1 X110 Y115.64 E30.11498
G0 F6000 X110 Y115.9
G0 X87.372 Y115.828
G0 X87.3 Y114.913
G0 X87.76 Y114.913
G1 F1200 X88.287 Y115.44 E30.13977
G0 F6000 X88.853 Y115.44
G1 F1200 X87.76 Y114.347 E30.19118
G0 F6000 X87.76 Y113.781
G1 F1200 X89.419 Y115.44 E30.26921
G0 F6000 X89.984 Y115.44
G1 F1200 X87.76 Y113.216 E30.37382
G0 F6000 X87.76 Y112.65
G1 F1200 X90.55 Y115.44 E30.50506
G0 F6000 X91.116 Y115.44
G1 F1200 X87.76 Y112.084 E30.66291
G0 F6000 X87.76 Y111.519
G1 F1200 X91.681 Y115.44 E30.84735
G0 F6000 X92.247 Y115.44
G1 F1200 X87.76 Y110.953 E31.0584
G0 F6000 X87.76 Y110.387
G1 F1200 X92.813 Y115.44 E31.29608
G0 F6000 X93.378 Y115.44
G1 F1200 X87.76 Y109.821 E31.56035
G0 F6000 X87.76 Y109.256
G1 F1200 X93.944 Y115.44 E31.85123
G0 F6000 X94.51 Y115.44
G1 F1200 X87.76 Y108.69 E32.16873
G0 F6000 X87.76 Y108.124
G1 F1200 X95.075 Y115.44 E32.51283
G0 F6000 X95.641 Y115.44
G1 F1200 X87.76 Y107.559 E32.88353
G0 F6000 X87.76 Y106.993
G1 F1200 X96.207 Y115.44 E33.28085
G0 F6000 X96.773 Y115.44
G1 F1200 X87.76 Y106.427 E33.70479
G0 F6000 X87.76 Y105.862
G1 F1200 X97.338 Y115.44 E34.15531
G0 F6000 X97.904 Y115.44
G1 F1200 X87.76 Y105.296 E34.63245
G0 F6000 X87.76 Y104.73
G1 F1200 X98.47 Y115.44 E35.13622
G0 F6000 X99.035 Y115.44
G1 F1200 X88.155 Y104.56 E35.64798
G0 F6000 X88.721 Y104.56
G1 F1200 X99.601 Y115.44 E36.15974
G0 F6000 X100.167 Y115.44
G1 F1200 X89.286 Y104.56 E36.67153
G0 F6000 X89.852 Y104.56
G1 F1200 X100.732 Y115.44 E37.18329
G0 F6000 X101.298 Y115.44
G1 F1200 X90.418 Y104.56 E37.69505
G0 F6000 X90.983 Y104.56
G1 F1200 X101.864 Y115.44 E38.20684
G0 F6000 X102.429 Y115.44
G1 F1200 X91.549 Y104.56 E38.7186
G0 F6000 X92.115 Y104.56
G1 F1200 X102.995 Y115.44 E39.23036
G0 F6000 X103.561 Y115.44
G1 F1200 X92.68 Y104.56 E39.74215
G0 F6000 X93.246 Y104.56
G1 F1200 X104.126 Y115.44 E40.25391
G0 F6000 X104.692 Y115.44
G1 F1200 X93.812 Y104.56 E40.76567
G0 F6000 X94.378 Y104.56
G1 F1200 X105.258 Y115.44 E41.27743
G0 F6000 X105.823 Y115.44
G1 F1200 X94.943 Y104.56 E41.78919
G0 F6000 X95.509 Y104.56
G1 F1200 X106.389 Y115.44 E42.30096
G0 F6000 X106.955 Y115.44
G1 F1200 X96.075 Y104.56 E42.81272
G0 F6000 X96.64 Y104.56
G1 F1200 X107.521 Y115.44 E43.3245
G0 F6000 X108.086 Y115.44
G1 F1200 X97.206 Y104.56 E43.83627
G0 F6000 X97.772 Y104.56
G1 F1200 X108.652 Y115.44 E44.34803
G0 F6000 X109.218 Y115.44
G1 F1200 X98.337 Y104.56 E44.85981
G0 F6000 X98.903 Y104.56
G1 F1200 X109.783 Y115.44 E45.37157
G0 F6000 X110.349 Y115.44
G1 F1200 X99.469 Y104.56 E45.88334
G0 F6000 X100.034 Y104.56
G1 F1200 X110.915 Y115.44 E46.39512
G0 F6000 X111.48 Y115.44
G1 F1200 X100.6 Y104.56 E46.90688
G0 F6000 X101.166 Y104.56
G1 F1200 X112.046 Y115.44 E47.41865
G0 F6000 X112.612 Y115.44
G1 F1200 X101.731 Y104.56 E47.93043
G0 F6000 X102.297 Y104.56
G1 F1200 X113.177 Y115.44 E48.44219
G0 F6000 X113.743 Y115.44
G1 F1200 X102.863 Y104.56 E48.95395
G0 F6000 X103.429 Y104.56
G1 F1200 X114.309 Y115.44 E49.46572
G0 F6000 X114.874 Y115.44
G1 F1200 X103.994 Y104.56 E49.97748
G0 F6000 X104.56 Y104.56
G1 F1200 X115.44 Y115.44 E50.48924
G0 F6000 X116.006 Y115.44
G1 F1200 X105.126 Y104.56 E51.001
G0 F6000 X105.691 Y104.56
G1 F1200 X116.572 Y115.44 E51.51279
G0 F6000 X117.137 Y115.44
G1 F1200 X106.257 Y104.56 E52.02455
G0 F6000 X106.823 Y104.56
G1 F1200 X117.703 Y115.44 E52.53631
G0 F6000 X118.269 Y115.44
G1 F1200 X107.388 Y104.56 E53.0481
G0 F6000 X107.954 Y104.56
G1 F1200 X118.834 Y115.44 E53.55986
G0 F6000 X119.4 Y115.44
G1 F1200 X108.52 Y104.56 E54.07162
G0 F6000 X109.085 Y104.56
G1 F1200 X119.966 Y115.44 E54.58341
G0 F6000 X120.531 Y115.44
G1 F1200 X109.651 Y104.56 E55.09517
G0 F6000 X110.217 Y104.56
G1 F1200 X121.097 Y115.44 E55.60693
G0 F6000 X121.663 Y115.44
G1 F1200 X110.782 Y104.56 E56.11871
G0 F6000 X111.348 Y104.56
G1 F1200 X122.228 Y115.44 E56.63048
G0 F6000 X122.794 Y115.44
G1 F1200 X111.914 Y104.56 E57.14224
G0 F6000 X112.479 Y104.56
G1 F1200 X123.36 Y115.44 E57.65402
G0 F6000 X123.925 Y115.44
G1 F1200 X113.045 Y104.56 E58.16579
G0 F6000 X113.611 Y104.56
G1 F1200 X124.491 Y115.44 E58.67755
G0 F6000 X125.057 Y115.44
G1 F1200 X114.177 Y104.56 E59.18931
G0 F6000 X114.742 Y104.56
G1 F1200 X125.622 Y115.44 E59.70107
G0 F6000 X126.188 Y115.44
G1 F1200 X115.308 Y104.56 E60.21283
G0 F6000 X115.874 Y104.56
G1 F1200 X126.754 Y115.44 E60.72459
G0 F6000 X127.32 Y115.44
G1 F1200 X116.439 Y104.56 E61.23638
G0 F6000 X117.005 Y104.56
G1 F1200 X127.885 Y115.44 E61.74814
G0 F6000 X128.451 Y115.44
G1 F1200 X117.571 Y104.56 E62.2599
G0 F6000 X118.136 Y104.56
G1 F1200 X129.017 Y115.44 E62.77169
G0 F6000 X129.582 Y115.44
G1 F1200 X118.702 Y104.56 E63.28345
G0 F6000 X119.268 Y104.56
G1 F1200 X130.148 Y115.44 E63.79521
G0 F6000 X130.714 Y115.44
G1 F1200 X119.833 Y104.56 E64.307
G0 F6000 X120.399 Y104.56
G1 F1200 X131.279 Y115.44 E64.81876
G0 F6000 X131.845 Y115.44
G1 F1200 X120.965 Y104.56 E65.33052
G0 F6000 X121.53 Y104.56
G1 F1200 X132.24 Y115.27 E65.83429
G0 F6000 X132.24 Y114.704
G1 F1200 X122.096 Y104.56 E66.31143
G0 F6000 X122.662 Y104.56
G1 F1200 X132.24 Y114.138 E66.76195
G0 F6000 X132.24 Y113.573
G1 F1200 X123.227 Y104.56 E67.18589
G0 F6000 X123.793 Y104.56
G1 F1200 X132.24 Y113.007 E67.58321
G0 F6000 X132.24 Y112.441
G1 F1200 X124.359 Y104.56 E67.95391
G0 F6000 X124.925 Y104.56
G1 F1200 X132.24 Y111.876 E68.29801
G0 F6000 X132.24 Y111.31
G1 F1200 X125.49 Y104.56 E68.61551
G0 F6000 X126.056 Y104.56
G1 F1200 X132.24 Y110.744 E68.90639
G0 F6000 X132.24 Y110.179
G1 F1200 X126.622 Y104.56 E69.17066
G0 F6000 X127.187 Y104.56
G1 F1200 X132.24 Y109.613 E69.40834
G0 F6000 X132.24 Y109.047
G1 F1200 X127.753 Y104.56 E69.6194
G0 F6000 X128.319 Y104.56
G1 F1200 X132.24 Y108.481 E69.80383
G0 F6000 X132.24 Y107.916
G1 F1200 X128.884 Y104.56 E69.96168
G0 F6000 X129.45 Y104.56
G1 F1200 X132.24 Y107.35 E70.09292
G0 F6000 X132.24 Y106.784
G1 F1200 X130.016 Y104.56 E70.19753
G0 F6000 X130.581 Y104.56
G1 F1200 X132.24 Y106.219 E70.27556
G0 F6000 X132.24 Y105.653
G1 F1200 X131.147 Y104.56 E70.32697
G0 F6000 X131.713 Y104.56
G1 F1200 X132.24 Y105.087 E70.35176
M104 S200
G1 F1500 E63.85176
;MESH:NONMESH
G0 F300 X132.24 Y105.087 Z0.4
G0 F6000 X132.7 Y105.087
G0 X132.628 Y104.172
G0 X87.02 Y103.82
G0 X87.02 Y102.735
G0 X80.262 Y95.424
;TIME_ELAPSED:120.678373
;LAYER:1
M106 S85
;TYPE:SKIRT
G1 F1500 E70.35176
G1 F1200 X80.994 Y94.894 E70.38182
G1 X81.769 Y94.431 E70.41185
G1 X82.582 Y94.038 E70.44188
G1 X83.427 Y93.718 E70.47193
G1 X84.296 Y93.475 E70.50194
G1 X85.184 Y93.309 E70.53199
G1 X86.323 Y93.213 E70.57001
G1 X86.93 Y93.2 E70.5902
G1 X132.693 Y93.2 E72.11229
G1 X133.537 Y93.211 E72.14036
G1 X134.439 Y93.264 E72.17041
G1 X135.332 Y93.396 E72.20044
G1 X136.21 Y93.607 E72.23047
G1 X137.066 Y93.895 E72.26051
G1 X137.893 Y94.257 E72.29053
G1 X138.685 Y94.692 E72.32059
G1 X139.436 Y95.194 E72.35063
G1 X140.139 Y95.761 E72.38067
G1 X140.789 Y96.388 E72.41071
