; Generated by Kiri:Moto 4.0.31
; Thu Oct 24 2024 15:52:04 GMT-0700 (Pacific Daylight Time)
; Bed left:0 right:300 top:175 bottom:0
; Bed type: fixed
; Target: Any.Generic.Marlin
; --- process ---
; processName = default
; sliceAngle = 45
; sliceHeight = 0.2
; sliceShells = 3
; sliceShellOrder = in-out
; sliceLayerStart = last
; sliceLayerStartX = 0
; sliceLayerStartY = 0
; sliceLineWidth = 0
; sliceFillGrow = 0
; sliceFillAngle = 45
; sliceFillWidth = 1
; sliceFillOverlap = 0.35
; sliceFillSparse = 0.15
; sliceFillRepeat = 1
; sliceFillRate = 0
; sliceSolidRate = 0
; sliceFillType = hex
; sliceSupportDensity = 0.1
; sliceSupportOffset = 1
; sliceSupportGap = 1
; sliceSupportSize = 2
; sliceSupportArea = 0.1
; sliceSupportSpan = 5
; sliceSupportGrow = 0
; sliceSupportExtra = 0
; sliceSupportAngle = 50
; sliceSupportNozzle = 0
; sliceSupportEnable = false
; sliceSupportOutline = false
; sliceSolidMinArea = 1
; sliceBottomLayers = 3
; sliceTopLayers = 3
; firstSliceHeight = 0.2
; firstLayerRate = 10
; firstLayerFillRate = 35
; firstLayerPrintMult = 1
; firstLayerLineMult = 1
; firstLayerYOffset = 0
; firstLayerNozzleTemp = 0
; firstLayerBedTemp = 0
; firstLayerBrim = 0
; firstLayerBrimIn = 0
; firstLayerBrimTrig = 0
; firstLayerBrimGap = 0
; firstLayerBeltLead = 3
; firstLayerBeltBump = 0
; firstLayerFanSpeed = 0
; firstLayerFlatten = 0
; outputRaft = false
; outputRaftSpacing = 0.2
; outputDraftShield = false
; outputTemp = 190
; outputBedTemp = 70
; outputFeedrate = 50
; outputFinishrate = 50
; outputSeekrate = 80
; outputShellMult = 1.25
; outputFillMult = 1.25
; outputSparseMult = 1.25
; outputFanLayer = 1
; outputFanSpeed = 255
; outputRetractDist = 1.5
; outputRetractSpeed = 40
; outputRetractWipe = 0
; outputRetractDwell = 20
; outputBrimCount = 2
; outputBrimOffset = 2
; outputShortPoly = 100
; outputMinSpeed = 10
; outputCoastDist = 0
; outputPurgeTower = 0
; outputBeltFirst = false
; outputAvoidGaps = true
; outputAlternating = false
; outputLayerRetract = false
; outputNozzle = 0
; outputLoops = 0
; outputInvertX = false
; outputInvertY = false
; sliceDetectThin = off
; sliceMinHeight = 0
; sliceAdaptive = false
; zHopDistance = 0.2
; arcTolerance = 0
; antiBacklash = 0
; ranges = []
; --- startup ---
M104 S190 T0             ; set extruder temperature
M140 S70 T0              ; set bed temperature
G90                      ; set absolute positioning mode
M83                      ; set relative positioning for extruder
M107                     ; turn off filament cooling fan
G28                      ; home axes
G92 X0 Y0 Z0 E0          ; reset all axes positions
G1 X0 Y0 Z0.25 F180      ; move xy to 0,0 and z 0.25mm over bed
G92 E0                   ; zero the extruded
M190 S70 T0              ; wait for bed to reach target temp
M109 S190 T0             ; wait for extruder to reach target temp
G1 E15 F200              ; purge 15mm from extruder
G92 E0                   ; zero the extruded
G1 F225                  ; set feed speed
G1 E-1.5000 F2400 ; e-retract 1.5
;; --- layer 0 (0.200 @ 0.2) ---
G1 Z0.2000 F4800
; feature brim
G1 X149.0310 Y95.9542
G1 E1.5000 F2400 ; e-engage 1.5
G4 P20
G1 X151.4189 Y97.3870 E0.0909 F600
G1 X151.8850 Y97.6118 E0.0169
G1 X152.4831 Y97.7783 E0.0203
G1 X153.0012 Y97.8230 E0.0170
G1 X158.5150 E0.1800
G1 X159.2610 Y97.7270 E0.0246
G1 X160.0877 Y97.3840 E0.0292
G1 X160.6901 Y96.9262 E0.0247
G1 X163.2424 Y94.3739 E0.1179
G1 X163.7020 Y93.7752 E0.0246
G1 X164.0451 Y92.9455 E0.0293
G1 X164.1440 Y92.1991 E0.0246
G1 Y87.5291 E0.1525
G1 X200.3990 Y87.5406 E1.1838
G1 X200.4040 Y82.5406 E0.1633
G1 X164.1440 Y82.5291 E1.1840
G1 Y75.7729 E0.2206
G1 X164.0451 Y75.0264 E0.0246
G1 X163.7020 Y74.1967 E0.0293
G1 X163.2424 Y73.5981 E0.0246
G1 X160.6919 Y71.0477 E0.1178
G1 X160.0952 Y70.5919 E0.0245
G1 X159.2688 Y70.2473 E0.0292
G1 X158.5191 Y70.1480 E0.0247
G1 X152.9962 E0.1803
G1 X152.4783 Y70.1951 E0.0170
G1 X151.8850 Y70.3602 E0.0201
G1 X151.4189 Y70.5850 E0.0169
G1 X149.0310 Y72.0178 E0.0909
G1 X138.9624 Y72.5473 E0.3292
G1 X138.2446 Y72.6772 E0.0238
G1 X137.4538 Y73.0431 E0.0285
G1 X136.7841 Y73.5923 E0.0283
G1 X136.2718 Y74.2893 E0.0282
G1 X135.9480 Y75.0973 E0.0284
G1 X135.8560 Y75.8218 E0.0238
G1 Y82.4199 E0.2154
G1 X98.8840 Y82.4464 E1.2072
G1 Y87.4464 E0.1633
G1 X135.8560 Y87.4199 E1.2072
G1 Y92.1502 E0.1545
G1 X135.9480 Y92.8748 E0.0238
G1 X136.2718 Y93.6827 E0.0284
G1 X136.7841 Y94.3797 E0.0282
G1 X137.4563 Y94.9310 E0.0284
G1 X138.2445 Y95.2929 E0.0283
G1 X138.9533 Y95.4234 E0.0235
G1 X149.0310 Y95.9542 E0.3295
G1 X148.9105 Y96.3484 F4800
G1 X151.2288 Y97.7394 E0.0883 F600
G1 X151.7433 Y97.9876 E0.0187
G1 X152.4116 Y98.1736 E0.0227
G1 X152.9839 Y98.2230 E0.0188
G1 X158.5407 E0.1814
G1 X159.3650 Y98.1169 E0.0271
G1 X160.2887 Y97.7337 E0.0327
G1 X160.9538 Y97.2282 E0.0273
G1 X163.5438 Y94.6382 E0.1196
G1 X164.0514 Y93.9769 E0.0272
G1 X164.4348 Y93.0500 E0.0328
G1 X164.5440 Y92.2255 E0.0272
G1 Y87.9293 E0.1403
G1 X200.7986 Y87.9408 E1.1838
G1 X200.8044 Y82.1408 E0.1894
G1 X164.5440 Y82.1292 E1.1840
G1 Y75.7465 E0.2084
G1 X164.4348 Y74.9220 E0.0272
G1 X164.0514 Y73.9951 E0.0328
G1 X163.5438 Y73.3338 E0.0272
G1 X160.9559 Y70.7459 E0.1195
G1 X160.2969 Y70.2426 E0.0271
G1 X159.3738 Y69.8577 E0.0327
G1 X158.5455 Y69.7480 E0.0273
G1 X152.9781 E0.1818
G1 X152.4059 Y69.8000 E0.0188
G1 X151.7433 Y69.9844 E0.0225
G1 X151.2288 Y70.2327 E0.0187
G1 X148.9106 Y71.6236 E0.0883
G1 X138.9161 Y72.1492 E0.3268
G1 X138.1230 Y72.2927 E0.0263
G1 X137.2396 Y72.7014 E0.0318
G1 X136.4915 Y73.3149 E0.0316
G1 X135.9194 Y74.0934 E0.0315
G1 X135.5577 Y74.9960 E0.0318
G1 X135.4560 Y75.7965 E0.0263
G1 Y82.0202 E0.2032
G1 X98.4840 Y82.0467 E1.2072
G1 Y87.8467 E0.1894
G1 X135.4560 Y87.8202 E1.2072
G1 Y92.1755 E0.1422
G1 X135.5577 Y92.9760 E0.0263
G1 X135.9194 Y93.8786 E0.0318
G1 X136.4915 Y94.6571 E0.0315
G1 X137.2425 Y95.2730 E0.0317
G1 X138.1230 Y95.6772 E0.0316
G1 X138.9063 Y95.8215 E0.0260
G1 X148.9105 Y96.3484 E0.3271
G1 E-1.5000 F2400 ; e-retract 1.5
G1 Z0.4000 F4800 ; z-hop start
; feature shells
G1 X150.3321 Y93.3307
G1 Z0.2000 ; z-hop end
G1 E1.5000 F2400 ; e-engage 1.5
G4 P20
G1 X152.8431 Y94.8373 E0.0956 F600
G1 X152.9178 Y94.8732 E0.0027
G1 X153.0171 Y94.9002 E0.0034
G1 X158.3890 Y94.9050 E0.1754
G1 X158.5119 Y94.8863 E0.0041
G1 X158.6325 Y94.8353 E0.0043
G1 X158.7226 Y94.7652 E0.0037
G1 X161.0862 Y92.4017 E0.1091
G1 X161.1613 Y92.3023 E0.0041
G1 X161.2107 Y92.1794 E0.0043
G1 X161.2250 Y92.0666 E0.0037
G1 Y75.9054 E0.5277
G1 X161.2100 Y75.7869 E0.0039
G1 X161.1582 Y75.6632 E0.0044
G1 X161.0852 Y75.5694 E0.0039
G1 X158.7226 Y73.2068 E0.1091
G1 X158.6279 Y73.1331 E0.0039
G1 X158.5052 Y73.0833 E0.0043
G1 X158.3878 Y73.0670 E0.0039
G1 X153.0043 Y73.0720 E0.1758
G1 X152.8504 Y73.1303 E0.0054
G1 X150.3321 Y74.6413 E0.0959
G1 X150.0420 Y74.7845 E0.0106
G1 X149.7402 Y74.8769 E0.0103
G1 X149.4194 Y74.9197 E0.0106
G1 X139.2415 Y75.4560 E0.3328
G1 X139.1284 Y75.4768 E0.0038
G1 X139.0124 Y75.5298 E0.0042
G1 X138.9132 Y75.6108 E0.0042
G1 X138.8364 Y75.7144 E0.0042
G1 X138.7898 Y75.8341 E0.0042
G1 X138.7750 Y75.9481 E0.0038
G1 Y92.0239 E0.5249
G1 X138.7898 Y92.1379 E0.0038
G1 X138.8364 Y92.2576 E0.0042
G1 X138.9132 Y92.3612 E0.0042
G1 X139.0124 Y92.4422 E0.0042
G1 X139.1284 Y92.4952 E0.0042
G1 X139.2415 Y92.5160 E0.0038
G1 X149.4192 Y93.0513 E0.3328
G1 X149.7399 Y93.0950 E0.0106
G1 X150.0420 Y93.1875 E0.0103
G1 X150.3321 Y93.3307 E0.0106
G1 X150.0510 Y93.7673 F4800
G1 X152.5601 Y95.2729 E0.0955 F600
G1 X152.7348 Y95.3571 E0.0063
G1 X152.9117 Y95.4063 E0.0060
G1 X153.1046 Y95.4230 E0.0063
G1 X158.3612 E0.1716
G1 X158.6371 Y95.3875 E0.0091
G1 X158.8820 Y95.2859 E0.0087
G1 X159.1082 Y95.1140 E0.0093
G1 X161.4343 Y92.7878 E0.1074
G1 X161.6053 Y92.5652 E0.0092
G1 X161.7072 Y92.3188 E0.0087
G1 X161.7440 Y92.0408 E0.0092
G1 Y75.9312 E0.5260
G1 X161.7072 Y75.6532 E0.0092
G1 X161.6053 Y75.4068 E0.0087
G1 X161.4343 Y75.1842 E0.0092
G1 X159.1080 Y72.8579 E0.1074
G1 X158.8852 Y72.6877 E0.0092
G1 X158.6385 Y72.5848 E0.0087
G1 X158.3608 Y72.5480 E0.0091
G1 X153.1051 E0.1716
G1 X152.9122 Y72.5655 E0.0063
G1 X152.7348 Y72.6149 E0.0060
G1 X152.5601 Y72.6992 E0.0063
G1 X150.0507 Y74.2048 E0.0956
G1 X149.8480 Y74.3045 E0.0074
G1 X149.6300 Y74.3710 E0.0074
G1 X149.4078 Y74.4013 E0.0073
G1 X139.2401 Y74.9360 E0.3325
G1 X138.9738 Y74.9842 E0.0088
G1 X138.7391 Y75.0928 E0.0084
G1 X138.5393 Y75.2567 E0.0084
G1 X138.3862 Y75.4650 E0.0084
G1 X138.2902 Y75.7046 E0.0084
G1 X138.2560 Y75.9737 E0.0089
G1 Y91.9983 E0.5233
G1 X138.2902 Y92.2674 E0.0089
G1 X138.3862 Y92.5070 E0.0084
G1 X138.5393 Y92.7153 E0.0084
G1 X138.7389 Y92.8790 E0.0084
G1 X138.9738 Y92.9868 E0.0084
G1 X139.2350 Y93.0349 E0.0087
G1 X149.4073 Y93.5707 E0.3326
G1 X149.6282 Y93.5996 E0.0073
G1 X149.8530 Y93.6693 E0.0077
G1 X150.0510 Y93.7673 E0.0072
G1 E-1.5000 F2400 ; e-retract 1.5
G1 Z0.4000 F4800 ; z-hop start
; feature support
G1 X134.0000 Y85.0879
G1 Z0.2000 ; z-hop end
G1 E1.5000 F2400 ; e-engage 1.5
G4 P20
G1 Y84.7545 E0.0109 F3000
G1 Y85.0879 E0.0109
G1 X130.0000 Y85.0907 E0.1306
G1 Y84.9241 E0.0054
G1 Y84.7574 E0.0054
G1 X126.0000 Y84.7603 E0.1306
G1 Y84.9270 E0.0054
G1 Y85.0936 E0.0054
G1 X122.0000 Y85.0965 E0.1306
G1 Y84.9298 E0.0054
G1 Y84.7631 E0.0054
G1 X118.0000 Y84.7660 E0.1306
G1 Y84.9327 E0.0054
G1 Y85.0994 E0.0054
G1 X114.0000 Y85.1022 E0.1306
G1 Y84.9356 E0.0054
G1 Y84.7689 E0.0054
G1 X110.0000 Y84.7718 E0.1306
G1 Y84.9385 E0.0054
G1 Y85.1051 E0.0054
G1 X106.0000 Y85.1080 E0.1306
G1 Y84.9413 E0.0054
G1 Y84.7746 E0.0054
G1 X102.0000 Y84.7775 E0.1306
G1 Y84.9442 E0.0054
; feature support
G1 X142.0000 Y84.8922 F4800
G1 Y85.2257 E0.0109 F3000
G1 X146.0000 Y85.1591 E0.1306
G1 Y85.1064 E0.0017
; feature support
G1 X158.0000 Y84.9583 F4800
G1 Y84.6247 E0.0109 F3000
; feature support
G1 X166.0000 Y84.8630 F4800
G1 X170.0000 Y84.8643 E0.1306 F3000
G1 Y85.0310 E0.0054
G1 Y85.1977 E0.0054
G1 X174.0000 Y85.1989 E0.1306
G1 Y85.0323 E0.0054
G1 Y84.8656 E0.0054
G1 X178.0000 Y84.8668 E0.1306
G1 Y85.0335 E0.0054
G1 Y85.2002 E0.0054
G1 X182.0000 Y85.2015 E0.1306
G1 Y85.0348 E0.0054
G1 Y84.8681 E0.0054
G1 X186.0000 Y84.8694 E0.1306
G1 Y85.0361 E0.0054
G1 Y85.2027 E0.0054
G1 X190.0000 Y85.2040 E0.1306
G1 Y85.0373 E0.0054
G1 Y84.8707 E0.0054
G1 X194.0000 Y84.8719 E0.1306
G1 Y85.0386 E0.0054
G1 Y85.2053 E0.0054
G1 X198.0000 Y85.2065 E0.1306
G1 Y85.0399 E0.0054
G1 X166.0000 Y85.1964 F4800
G1 Y84.8630 E0.0109 F3000
G1 E-1.5000 F2400 ; e-retract 1.5
G1 Z0.4000 F4800 ; z-hop start
;; --- layer 1 (0.200 @ 0.4) ---
M106 S255
; feature support
G1 X134.0000 Y84.7545
G1 E1.5000 F2400 ; e-engage 1.5
G4 P20
G1 Y85.0879 E0.0109 F3000
G1 X130.0000 Y85.0907 E0.1306
G1 Y84.9241 E0.0054
G1 Y84.7574 E0.0054
G1 X126.0000 Y84.7603 E0.1306
G1 Y84.9270 E0.0054
G1 Y85.0936 E0.0054
G1 X122.0000 Y85.0965 E0.1306
G1 Y84.9298 E0.0054
G1 Y84.7631 E0.0054
G1 X118.0000 Y84.7660 E0.1306
G1 Y84.9327 E0.0054
G1 Y85.0994 E0.0054
G1 X114.0000 Y85.1022 E0.1306
G1 Y84.9356 E0.0054
G1 Y84.7689 E0.0054
G1 X110.0000 Y84.7718 E0.1306
G1 Y84.9385 E0.0054
G1 Y85.1051 E0.0054
G1 X106.0000 Y85.1080 E0.1306
G1 Y84.9413 E0.0054
G1 Y84.7746 E0.0054
G1 X102.0000 Y84.7775 E0.1306
G1 Y84.9442 E0.0054
; feature support
G1 X142.0000 Y84.8922 F4800
G1 Y85.2257 E0.0109 F3000
G1 X146.0000 Y85.1591 E0.1306
G1 Y85.1064 E0.0017
; feature support
G1 X158.0000 Y84.9583 F4800
G1 Y84.6247 E0.0109 F3000
; feature support
G1 X166.0000 Y84.8630 F4800
G1 X170.0000 Y84.8643 E0.1306 F3000
G1 Y85.0310 E0.0054
G1 Y85.1977 E0.0054
G1 X174.0000 Y85.1989 E0.1306
G1 Y85.0323 E0.0054
G1 Y84.8656 E0.0054
G1 X178.0000 Y84.8668 E0.1306
G1 Y85.0335 E0.0054
G1 Y85.2002 E0.0054
G1 X182.0000 Y85.2015 E0.1306
G1 Y85.0348 E0.0054
G1 Y84.8681 E0.0054
G1 X186.0000 Y84.8694 E0.1306
G1 Y85.0361 E0.0054
G1 Y85.2027 E0.0054
G1 X190.0000 Y85.2040 E0.1306
G1 Y85.0373 E0.0054
G1 Y84.8707 E0.0054
G1 X194.0000 Y84.8719 E0.1306
G1 Y85.0386 E0.0054
G1 Y85.2053 E0.0054
G1 X198.0000 Y85.2065 E0.1306
G1 Y85.0399 E0.0054
G1 X166.0000 Y85.1964 F4800
G1 Y84.8630 E0.0109 F3000
G1 E-1.5000 F2400 ; e-retract 1.5
G1 Z0.6000 F4800 ; z-hop start
; feature shells
G1 X161.2250 Y92.0666
G1 Z0.4000 ; z-hop end
G1 E1.5000 F2400 ; e-engage 1.5
G4 P20
G1 Y75.9054 E0.5277 F2548
G1 X161.2100 Y75.7869 E0.0039
G1 X161.1582 Y75.6632 E0.0044
G1 X161.0852 Y75.5694 E0.0039
G1 X158.7226 Y73.2068 E0.1091
G1 X158.6279 Y73.1331 E0.0039
G1 X158.5052 Y73.0833 E0.0043
G1 X158.3878 Y73.0670 E0.0039
G1 X153.0043 Y73.0720 E0.1758
G1 X152.8504 Y73.1303 E0.0054
G1 X150.3321 Y74.6413 E0.0959
G1 X150.0420 Y74.7845 E0.0106
G1 X149.7402 Y74.8769 E0.0103
G1 X149.4194 Y74.9197 E0.0106
G1 X139.2415 Y75.4560 E0.3328
G1 X139.1284 Y75.4768 E0.0038
G1 X139.0124 Y75.5298 E0.0042
G1 X138.9132 Y75.6108 E0.0042
G1 X138.8364 Y75.7144 E0.0042
G1 X138.7898 Y75.8341 E0.0042
G1 X138.7750 Y75.9481 E0.0038
G1 Y92.0239 E0.5249
G1 X138.7898 Y92.1379 E0.0038
G1 X138.8364 Y92.2576 E0.0042
G1 X138.9132 Y92.3612 E0.0042
G1 X139.0124 Y92.4422 E0.0042
G1 X139.1284 Y92.4952 E0.0042
G1 X139.2415 Y92.5160 E0.0038
G1 X149.4192 Y93.0513 E0.3328
G1 X149.7399 Y93.0950 E0.0106
G1 X150.0420 Y93.1875 E0.0103
G1 X150.3321 Y93.3307 E0.0106
G1 X152.8431 Y94.8373 E0.0956
G1 X152.9254 Y94.8768 E0.0030
G1 X153.0776 Y94.9050 E0.0051
G1 X158.3879 E0.1734
G1 X158.5052 Y94.8887 E0.0039
G1 X158.6279 Y94.8389 E0.0043
G1 X158.7226 Y94.7652 E0.0039
G1 X161.0852 Y92.4026 E0.1091
G1 X161.1582 Y92.3088 E0.0039
G1 X161.2100 Y92.1851 E0.0044
G1 X161.2250 Y92.0666 E0.0039
G1 X161.7440 Y92.0408 F4800
G1 Y75.9312 E0.5260 F2626
G1 X161.7072 Y75.6532 E0.0092
G1 X161.6053 Y75.4068 E0.0087
G1 X161.4343 Y75.1842 E0.0092
G1 X159.1080 Y72.8579 E0.1074
G1 X158.8852 Y72.6877 E0.0092
G1 X158.6385 Y72.5848 E0.0087
G1 X158.3608 Y72.5480 E0.0091
G1 X153.1051 E0.1716
G1 X152.9122 Y72.5655 E0.0063
G1 X152.7348 Y72.6149 E0.0060
G1 X152.5601 Y72.6992 E0.0063
G1 X150.0509 Y74.2047 E0.0956
G1 X149.8510 Y74.3035 E0.0073
G1 X149.6300 Y74.3710 E0.0075
G1 X149.4078 Y74.4013 E0.0073
G1 X139.2401 Y74.9360 E0.3325
G1 X138.9738 Y74.9842 E0.0088
G1 X138.7391 Y75.0928 E0.0084
G1 X138.5393 Y75.2567 E0.0084
G1 X138.3862 Y75.4650 E0.0084
G1 X138.2902 Y75.7046 E0.0084
G1 X138.2560 Y75.9737 E0.0089
G1 Y91.9983 E0.5233
G1 X138.2902 Y92.2674 E0.0089
G1 X138.3862 Y92.5070 E0.0084
G1 X138.5393 Y92.7153 E0.0084
G1 X138.7389 Y92.8790 E0.0084
G1 X138.9738 Y92.9868 E0.0084
G1 X139.2405 Y93.0360 E0.0089
G1 X149.4072 Y93.5707 E0.3324
G1 X149.6242 Y93.5989 E0.0071
G1 X149.8407 Y93.6649 E0.0074
G1 X150.0504 Y93.7670 E0.0076
G1 X152.5601 Y95.2729 E0.0956
G1 X152.7348 Y95.3571 E0.0063
G1 X152.9117 Y95.4063 E0.0060
G1 X153.1046 Y95.4230 E0.0063
G1 X158.3613 E0.1716
G1 X158.6339 Y95.3882 E0.0090
G1 X158.8759 Y95.2889 E0.0085
G1 X159.0948 Y95.1249 E0.0089
G1 X161.4344 Y92.7878 E0.1080
G1 X161.6053 Y92.5652 E0.0092
G1 X161.7072 Y92.3188 E0.0087
G1 X161.7440 Y92.0408 E0.0092
G1 E-1.5000 F2400 ; e-retract 1.5
G1 Z0.6000 F4800 ; z-hop start
;; --- layer 2 (0.200 @ 0.6) ---
G1 Z0.6000
; feature shells
G1 X161.2250 Y92.0666
G1 E1.5000 F2400 ; e-engage 1.5
G4 P20
G1 Y75.9054 E0.5277 F2548
G1 X161.2100 Y75.7869 E0.0039
G1 X161.1582 Y75.6632 E0.0044
G1 X161.0852 Y75.5694 E0.0039
G1 X158.7226 Y73.2068 E0.1091
G1 X158.6279 Y73.1331 E0.0039
G1 X158.5052 Y73.0833 E0.0043
G1 X158.3878 Y73.0670 E0.0039
G1 X153.0043 Y73.0720 E0.1758
G1 X152.8504 Y73.1303 E0.0054
G1 X150.3321 Y74.6413 E0.0959
G1 X150.0420 Y74.7845 E0.0106
G1 X149.7402 Y74.8769 E0.0103
G1 X149.4194 Y74.9197 E0.0106
G1 X139.2415 Y75.4560 E0.3328
G1 X139.1284 Y75.4768 E0.0038
G1 X139.0124 Y75.5298 E0.0042
G1 X138.9132 Y75.6108 E0.0042
G1 X138.8364 Y75.7144 E0.0042
G1 X138.7898 Y75.8341 E0.0042
G1 X138.7750 Y75.9481 E0.0038
G1 Y92.0239 E0.5249
G1 X138.7898 Y92.1379 E0.0038
G1 X138.8364 Y92.2576 E0.0042
G1 X138.9132 Y92.3612 E0.0042
G1 X139.0124 Y92.4422 E0.0042
G1 X139.1284 Y92.4952 E0.0042
G1 X139.2415 Y92.5160 E0.0038
G1 X149.4192 Y93.0513 E0.3328
G1 X149.7399 Y93.0950 E0.0106
G1 X150.0420 Y93.1875 E0.0103
G1 X150.3321 Y93.3307 E0.0106
G1 X152.8504 Y94.8417 E0.0959
G1 X153.0043 Y94.9000 E0.0054
G1 X158.3878 Y94.9050 E0.1758
G1 X158.5052 Y94.8887 E0.0039
