;FLAVOR:Marlin
;TIME:3435
;Filament used: 2.32087m
;Layer height: 0.28
;MINX:87.401
;MINY:84.997
;MINZ:0.28
;MAXX:134.25
;MAXY:131.847
;MAXZ:38.08
;TARGET_MACHINE.NAME:Creality Ender-3 Pro
;Generated with Cura_SteamEngine 5.8.1
M82 ;absolute extrusion mode
; Ender 3 Custom Start G-code
G92 E0 ; Reset Extruder
G28 ; Home all axes
G1 Z5.0 F3000 ; Move Z Axis up a bit during heating to not damage bed
M104 S175 ; Start heating up the nozzle most of the way
M190 S60 ; Start heating the bed, wait until target temperature reached
M109 S200 ; Finish heating the nozzle
G1 Z2.0 F3000 ; Move Z Axis up little to prevent scratching of Heat Bed
G1 X0.1 Y20 Z0.3 F5000.0 ; Move to start position
G1 X0.1 Y200.0 Z0.3 F1500.0 E15 ; Draw the first line
G1 X0.4 Y200.0 Z0.3 F5000.0 ; Move to side a little
G1 X0.4 Y20 Z0.3 F1500.0 E30 ; Draw the second line
G92 E0 ; Reset Extruder
G1 Z2.0 F3000 ; Move Z Axis up little to prevent scratching of Heat Bed
G1 X5 Y20 Z0.3 F5000.0 ; Move over to prevent blob squish
G92 E0
G92 E0
G1 F1500 E-6.5
;LAYER_COUNT:136
;LAYER:0
M107
G0 F6000 X90.789 Y88.864 Z0.28
;TYPE:SKIRT
G1 F1500 E0
G1 F1200 X91.103 Y88.543 E0.02091
G1 X91.791 Y87.904 E0.06463
G1 X92.566 Y87.301 E0.11036
G1 X93.794 Y86.546 E0.17748
G1 X94.204 Y86.33 E0.19906
G1 X95.02 Y85.944 E0.24109
G1 X95.998 Y85.584 E0.28962
G1 X96.903 Y85.336 E0.33331
G1 X97.788 Y85.153 E0.37539
G1 X99.246 Y85.012 E0.4436
G1 X99.885 Y84.997 E0.47336
G1 X121.397 Y84.997 E1.47505
G1 X122.279 Y85.01 E1.51613
G1 X123.25 Y85.069 E1.56142
G1 X124.225 Y85.217 E1.60734
G1 X125.378 Y85.511 E1.66275
G1 X125.856 Y85.664 E1.68612
G1 X126.783 Y86.01 E1.73219
G1 X128.144 Y86.694 E1.80312
G1 X129.079 Y87.3 E1.855
G1 X129.816 Y87.874 E1.8985
G1 X130.334 Y88.343 E1.93104
G1 X130.655 Y88.655 E1.95188
G1 X131.323 Y89.365 E1.99728
G1 X131.926 Y90.131 E2.04267
G1 X132.421 Y90.886 E2.08471
G1 X132.76 Y91.493 E2.11708
G1 X132.965 Y91.892 E2.13797
G1 X133.369 Y92.776 E2.18323
G1 X133.684 Y93.657 E2.22679
G1 X133.915 Y94.51 E2.26794
G1 X134.097 Y95.395 E2.31002
G1 X134.236 Y96.844 E2.3778
G1 X134.25 Y97.502 E2.40844
G1 X134.249 Y119.104 E3.41432
G1 X134.237 Y119.862 E3.44962
G1 X134.175 Y120.851 E3.49577
G1 X133.94 Y122.224 E3.56063
G1 X133.871 Y122.514 E3.57451
G1 X133.623 Y123.383 E3.61659
G1 X133.253 Y124.346 E3.66463
G1 X132.996 Y124.892 E3.69272
G1 X132.796 Y125.287 E3.71334
G1 X132.315 Y126.134 E3.7587
G1 X131.752 Y126.948 E3.80478
G1 X130.874 Y127.968 E3.86745
G1 X130.553 Y128.296 E3.88882
G1 X129.866 Y128.936 E3.93254
G1 X129.07 Y129.556 E3.97952
G1 X128.258 Y130.079 E4.0245
G1 X127.395 Y130.543 E4.07012
G1 X126.576 Y130.924 E4.11218
G1 X125.599 Y131.278 E4.16057
G1 X124.726 Y131.514 E4.20268
G1 X123.841 Y131.695 E4.24474
G1 X122.404 Y131.833 E4.31196
G1 X121.746 Y131.847 E4.34261
G1 X100.118 Y131.846 E5.3497
G1 X99.382 Y131.834 E5.38397
G1 X98.393 Y131.771 E5.43012
G1 X97.024 Y131.537 E5.49479
G1 X96.734 Y131.468 E5.50867
G1 X95.865 Y131.22 E5.55075
G1 X94.902 Y130.85 E5.59879
G1 X94.356 Y130.593 E5.62689
G1 X93.961 Y130.393 E5.6475
G1 X93.114 Y129.912 E5.69286
G1 X92.3 Y129.349 E5.73895
G1 X91.28 Y128.471 E5.80161
G1 X90.951 Y128.149 E5.82305
G1 X90.288 Y127.435 E5.86842
G1 X89.691 Y126.665 E5.91379
G1 X89.168 Y125.853 E5.95876
G1 X88.704 Y124.991 E6.00435
G1 X88.323 Y124.172 E6.04641
G1 X87.969 Y123.193 E6.09488
G1 X87.725 Y122.283 E6.13875
G1 X87.535 Y121.313 E6.18478
G1 X87.415 Y119.995 E6.2464
G1 X87.401 Y119.337 E6.27705
G1 X87.402 Y97.714 E7.28391
G1 X87.413 Y96.997 E7.3173
G1 X87.477 Y95.992 E7.36419
G1 X87.707 Y94.642 E7.42796
G1 X87.776 Y94.35 E7.44193
G1 X88.044 Y93.413 E7.48731
G1 X88.367 Y92.57 E7.52934
G1 X88.655 Y91.953 E7.56105
G1 X88.856 Y91.556 E7.58177
G1 X89.337 Y90.709 E7.62713
G1 X89.9 Y89.895 E7.67321
G1 X90.789 Y88.864 E7.7366
G0 F6000 X91.075 Y89.144
G1 F1200 X91.376 Y88.836 E7.75666
G1 X92.037 Y88.22 E7.79873
G1 X92.812 Y87.617 E7.84445
G1 X93.98 Y86.9 E7.90827
G1 X94.375 Y86.692 E7.92906
G1 X95.191 Y86.306 E7.97109
G1 X96.104 Y85.97 E8.01639
G1 X96.984 Y85.728 E8.05889
G1 X97.869 Y85.545 E8.10097
G1 X99.255 Y85.412 E8.1658
G1 X99.894 Y85.397 E8.19557
G1 X121.391 Y85.397 E9.19656
G1 X122.255 Y85.409 E9.23679
G1 X123.191 Y85.465 E9.28045
G1 X124.126 Y85.605 E9.32448
G1 X125.279 Y85.899 E9.37988
G1 X125.717 Y86.039 E9.40129
G1 X126.604 Y86.368 E9.44535
G1 X127.927 Y87.03 E9.51423
G1 X128.833 Y87.616 E9.56448
G1 X129.57 Y88.19 E9.60797
G1 X130.055 Y88.63 E9.63847
G1 X130.364 Y88.93 E9.65852
G1 X131.009 Y89.613 E9.70226
G1 X131.591 Y90.35 E9.74599
G1 X132.086 Y91.105 E9.78803
G1 X132.404 Y91.676 E9.81846
G1 X132.601 Y92.059 E9.83852
G1 X132.992 Y92.911 E9.88217
G1 X133.307 Y93.792 E9.92574
G1 X133.523 Y94.591 E9.96428
G1 X133.705 Y95.476 E10.00635
G1 X133.836 Y96.853 E10.07076
G1 X133.85 Y97.502 E10.10098
G1 X133.849 Y119.098 E11.10658
G1 X133.838 Y119.838 E11.14104
G1 X133.781 Y120.784 E11.18517
G1 X133.551 Y122.131 E11.2488
G1 X133.486 Y122.404 E11.26187
G1 X133.238 Y123.273 E11.30395
G1 X132.891 Y124.176 E11.349
G1 X132.639 Y124.712 E11.37658
G1 X132.448 Y125.09 E11.3963
G1 X131.986 Y125.907 E11.44
G1 X131.449 Y126.687 E11.4841
G1 X130.571 Y127.707 E11.54676
G1 X130.28 Y128.003 E11.56609
G1 X129.593 Y128.643 E11.60981
G1 X128.853 Y129.22 E11.65351
G1 X128.068 Y129.727 E11.69702
G1 X127.226 Y130.18 E11.74154
G1 X126.407 Y130.561 E11.7836
G1 X125.494 Y130.892 E11.82882
G1 X124.646 Y131.122 E11.86974
G1 X123.761 Y131.303 E11.9118
G1 X122.395 Y131.433 E11.97569
G1 X121.746 Y131.447 E12.00592
G1 X100.124 Y131.446 E13.01273
G1 X99.406 Y131.435 E13.04617
G1 X98.46 Y131.377 E13.0903
G1 X97.117 Y131.148 E13.15374
G1 X96.844 Y131.083 E13.1668
G1 X95.975 Y130.835 E13.20888
G1 X95.072 Y130.488 E13.25393
G1 X94.536 Y130.236 E13.28151
G1 X94.158 Y130.045 E13.30123
G1 X93.341 Y129.583 E13.34493
G1 X92.561 Y129.046 E13.38903
G1 X91.541 Y128.168 E13.4517
G1 X91.244 Y127.876 E13.47109
G1 X90.604 Y127.189 E13.51481
G1 X90.027 Y126.448 E13.55854
G1 X89.52 Y125.663 E13.60206
G1 X89.067 Y124.822 E13.64654
G1 X88.686 Y124.003 E13.6886
G1 X88.355 Y123.089 E13.73386
G1 X88.117 Y122.205 E13.77649
G1 X87.933 Y121.277 E13.82054
G1 X87.815 Y119.986 E13.88091
G1 X87.801 Y119.337 E13.91113
G1 X87.802 Y97.72 E14.91771
G1 X87.812 Y97.021 E14.95026
G1 X87.871 Y96.059 E14.99514
G1 X88.096 Y94.734 E15.05772
G1 X88.161 Y94.459 E15.07088
G1 X88.418 Y93.556 E15.1146
G1 X88.741 Y92.713 E15.15664
G1 X89.012 Y92.133 E15.18645
G1 X89.204 Y91.753 E15.20627
G1 X89.666 Y90.936 E15.24997
G1 X90.203 Y90.156 E15.29407
G1 X91.075 Y89.144 E15.35627
G0 F6000 X91.378 Y89.405
G1 F1200 X91.649 Y89.129 E15.37428
G1 X92.31 Y88.513 E15.41636
G1 X93.022 Y87.958 E15.45839
G1 X94.167 Y87.254 E15.52098
G1 X94.546 Y87.054 E15.54093
G1 X95.362 Y86.668 E15.58297
G1 X96.21 Y86.356 E15.62504
G1 X97.065 Y86.12 E15.66634
G1 X97.95 Y85.937 E15.70842
G1 X99.264 Y85.812 E15.76989
G1 X99.903 Y85.797 E15.79965
G1 X121.386 Y85.797 E16.79999
G1 X122.232 Y85.808 E16.83938
G1 X123.133 Y85.861 E16.88141
G1 X124.027 Y85.993 E16.92349
G1 X125.18 Y86.287 E16.9789
G1 X125.579 Y86.414 E16.99839
G1 X126.426 Y86.726 E17.04042
G1 X127.71 Y87.366 E17.10723
G1 X128.588 Y87.932 E17.15587
G1 X129.301 Y88.486 E17.19792
G1 X129.777 Y88.918 E17.22785
G1 X130.074 Y89.205 E17.24708
G1 X130.695 Y89.861 E17.28914
G1 X131.256 Y90.569 E17.3312
G1 X131.751 Y91.324 E17.37324
G1 X132.049 Y91.86 E17.4018
G1 X132.238 Y92.226 E17.42098
G1 X132.616 Y93.046 E17.46302
G1 X132.921 Y93.896 E17.50507
G1 X133.131 Y94.672 E17.54251
G1 X133.313 Y95.557 E17.58458
G1 X133.436 Y96.862 E17.64561
G1 X133.45 Y97.502 E17.67542
G1 X133.449 Y119.092 E18.68074
G1 X133.439 Y119.815 E18.71441
G1 X133.387 Y120.717 E18.75648
G1 X133.162 Y122.038 E18.81888
G1 X133.101 Y122.294 E18.83113
G1 X132.853 Y123.163 E18.87321
G1 X132.529 Y124.006 E18.91527
G1 X132.282 Y124.532 E18.94233
G1 X132.099 Y124.894 E18.96121
G1 X131.656 Y125.681 E19.00327
G1 X131.146 Y126.426 E19.04531
G1 X130.285 Y127.427 E19.10679
G1 X130.007 Y127.711 E19.12529
G1 X129.347 Y128.328 E19.16736
G1 X128.636 Y128.884 E19.20939
G1 X127.878 Y129.375 E19.25144
G1 X127.057 Y129.817 E19.29486
G1 X126.238 Y130.198 E19.33692
G1 X125.389 Y130.506 E19.37898
G1 X124.566 Y130.73 E19.41869
G1 X123.681 Y130.911 E19.46076
G1 X122.386 Y131.033 E19.52132
G1 X121.746 Y131.047 E19.55113
G1 X100.13 Y131.046 E20.55766
G1 X99.429 Y131.036 E20.59031
G1 X98.527 Y130.983 E20.63238
G1 X97.21 Y130.759 E20.69459
G1 X96.954 Y130.698 E20.70684
G1 X96.085 Y130.45 E20.74892
G1 X95.242 Y130.126 E20.79097
G1 X94.716 Y129.879 E20.81803
G1 X94.354 Y129.696 E20.83692
G1 X93.567 Y129.253 E20.87897
G1 X92.822 Y128.743 E20.92101
G1 X91.821 Y127.882 E20.98249
G1 X91.536 Y127.603 E21.00107
G1 X90.919 Y126.943 E21.04314
G1 X90.363 Y126.231 E21.0852
G1 X89.872 Y125.473 E21.12725
G1 X89.43 Y124.653 E21.17063
G1 X89.049 Y123.834 E21.21269
G1 X88.741 Y122.985 E21.25474
G1 X88.509 Y122.126 E21.29618
G1 X88.331 Y121.24 E21.33826
G1 X88.215 Y119.977 E21.39731
G1 X88.201 Y119.337 E21.42712
G1 X88.202 Y97.726 E22.43342
G1 X88.212 Y97.027 E22.46597
G1 X88.265 Y96.126 E22.508
G1 X88.485 Y94.826 E22.56939
G1 X88.546 Y94.568 E22.58174
G1 X88.792 Y93.699 E22.62379
G1 X89.115 Y92.856 E22.66583
G1 X89.369 Y92.313 E22.69374
G1 X89.553 Y91.949 E22.71274
G1 X89.996 Y91.162 E22.75479
G1 X90.506 Y90.417 E22.79683
G1 X91.378 Y89.405 E22.85903
G1 F1500 E16.35903
;MESH:Calibration_Fit_Cube.stl
G0 F6000 X102.605 Y105.51
G0 X110 Y116.919
;TYPE:WALL-INNER
G1 F1500 E22.85903
G1 F1200 X109.963 Y116.916 E22.86076
G1 X109.587 Y116.868 E22.87841
G1 X109.181 Y116.8 E22.89758
G1 X108.761 Y116.706 E22.91762
G1 X108.324 Y116.585 E22.93873
G1 X107.934 Y116.453 E22.95791
G1 X107.567 Y116.313 E22.9762
G1 X107.18 Y116.14 E22.99594
G1 X106.844 Y115.976 E23.01334
G1 X106.472 Y115.767 E23.03321
G1 X106.063 Y115.508 E23.05576
G1 X105.743 Y115.284 E23.07394
G1 X105.4 Y115.016 E23.09421
G1 X105.095 Y114.748 E23.11312
G1 X104.783 Y114.457 E23.13298
G1 X104.491 Y114.147 E23.15281
G1 X104.22 Y113.835 E23.17206
G1 X103.978 Y113.52 E23.19055
G1 X103.728 Y113.166 E23.21073
G1 X103.496 Y112.806 E23.23068
G1 X103.296 Y112.45 E23.24969
G1 X103.108 Y112.069 E23.26947
G1 X102.945 Y111.702 E23.28817
G1 X102.786 Y111.294 E23.30856
G1 X102.658 Y110.907 E23.32754
G1 X102.543 Y110.496 E23.34742
G1 X102.455 Y110.116 E23.36558
G1 X102.38 Y109.673 E23.3865
G1 X102.33 Y109.274 E23.40522
G1 X102.297 Y108.886 E23.42336
G1 X102.288 Y108.461 E23.44315
G1 X102.297 Y107.98 E23.46555
G1 X102.328 Y107.559 E23.48521
G1 X102.376 Y107.187 E23.50267
G1 X102.451 Y106.744 E23.5236
G1 X102.545 Y106.34 E23.54291
G1 X102.661 Y105.922 E23.56311
G1 X102.787 Y105.537 E23.58197
G1 X102.919 Y105.192 E23.59917
G1 X103.095 Y104.795 E23.61939
G1 X103.287 Y104.412 E23.63934
G1 X103.5 Y104.031 E23.65967
G1 X103.712 Y103.695 E23.67817
G1 X103.979 Y103.317 E23.69972
G1 X104.228 Y103.001 E23.71845
G1 X104.513 Y102.67 E23.73879
G1 X104.776 Y102.395 E23.75651
G1 X105.097 Y102.088 E23.77719
G1 X105.422 Y101.81 E23.79711
G1 X105.714 Y101.578 E23.81447
G1 X106.099 Y101.308 E23.83637
G1 X106.441 Y101.093 E23.85518
G1 X106.813 Y100.884 E23.87505
G1 X107.191 Y100.694 E23.89475
G1 X107.56 Y100.533 E23.91349
G1 X107.936 Y100.385 E23.93231
G1 X108.331 Y100.256 E23.95166
G1 X108.754 Y100.139 E23.97209
G1 X109.146 Y100.047 E23.99084
G1 X109.594 Y99.971 E24.012
G1 X109.991 Y99.925 E24.03061
G1 X110.383 Y99.893 E24.04892
G1 X110.837 Y99.884 E24.07007
G1 X111.265 Y99.893 E24.09
G1 X111.657 Y99.925 E24.10832
G1 X112.054 Y99.971 E24.12693
G1 X112.502 Y100.047 E24.14809
G1 X112.917 Y100.145 E24.16794
G1 X113.317 Y100.256 E24.18727
G1 X113.712 Y100.385 E24.20662
G1 X114.109 Y100.542 E24.2265
G1 X114.487 Y100.708 E24.24572
G1 X114.86 Y100.897 E24.26519
G1 X115.216 Y101.099 E24.28425
G1 X115.56 Y101.315 E24.30317
G1 X115.893 Y101.548 E24.32209
G1 X116.243 Y101.824 E24.34285
G1 X116.551 Y102.088 E24.36174
G1 X116.861 Y102.383 E24.38166
G1 X117.156 Y102.693 E24.40159
G1 X117.437 Y103.021 E24.4217
G1 X117.669 Y103.317 E24.43921
G1 X117.929 Y103.684 E24.46015
G1 X118.158 Y104.051 E24.4803
G1 X118.356 Y104.401 E24.49902
G1 X118.552 Y104.791 E24.51935
G1 X118.717 Y105.161 E24.53821
G1 X118.871 Y105.566 E24.55839
G1 X118.995 Y105.947 E24.57704
G1 X119.105 Y106.348 E24.59641
G1 X119.197 Y106.744 E24.61534
G1 X119.272 Y107.187 E24.63626
G1 X119.32 Y107.559 E24.65372
G1 X119.351 Y107.98 E24.67338
G1 X119.36 Y108.424 E24.69406
G1 X119.351 Y108.86 E24.71436
G1 X119.32 Y109.281 E24.73402
G1 X119.269 Y109.675 E24.75252
G1 X119.197 Y110.096 E24.77241
G1 X119.104 Y110.496 E24.79153
G1 X118.99 Y110.918 E24.81189
G1 X118.861 Y111.303 E24.83079
G1 X118.717 Y111.675 E24.84937
G1 X118.554 Y112.047 E24.86828
G1 X118.361 Y112.427 E24.88812
G1 X118.156 Y112.798 E24.90786
G1 X117.91 Y113.184 E24.92918
G1 X117.671 Y113.52 E24.94837
G1 X117.419 Y113.845 E24.96752
G1 X117.149 Y114.156 E24.9867
G1 X116.865 Y114.457 E25.00597
G1 X116.555 Y114.749 E25.0258
G1 X116.271 Y114.997 E25.04336
G1 X115.919 Y115.273 E25.06419
G1 X115.574 Y115.512 E25.08373
G1 X115.219 Y115.741 E25.1034
G1 X114.833 Y115.961 E25.12409
G1 X114.473 Y116.14 E25.14281
G1 X114.105 Y116.304 E25.16157
G1 X113.708 Y116.457 E25.18138
G1 X113.307 Y116.591 E25.20107
G1 X112.904 Y116.701 E25.22052
G1 X112.524 Y116.789 E25.23868
G1 X112.074 Y116.869 E25.25997
G1 X111.677 Y116.915 E25.27858
G1 X111.285 Y116.947 E25.29689
G1 X110.826 Y116.96 E25.31827
G1 X110.384 Y116.947 E25.33886
G1 X110 Y116.919 E25.35679
G1 F1500 E18.85679
G0 F6000 X109.22 Y116.91
G0 X109.94 Y117.095
G0 X109.94 Y119.371
G0 X110 Y119.57
G1 F1500 E25.35679
G1 F1200 X121.933 Y119.567 E25.91244
G1 X121.976 Y119.483 E25.91683
G1 X121.976 Y97.307 E26.94944
G1 X121.885 Y97.268 E26.95405
G1 X99.712 Y97.268 E27.98652
G1 X99.672 Y97.361 E27.99123
G1 X99.673 Y119.537 E29.02384
G1 X99.752 Y119.572 E29.02786
G1 X110 Y119.57 E29.50505
G0 F6000 X110 Y119.97
;TYPE:WALL-OUTER
G1 F1200 X122.003 Y119.968 E30.06396
G1 X122.129 Y119.926 E30.07015
G1 X122.274 Y119.805 E30.07894
G1 X122.376 Y119.563 E30.09117
G1 X122.376 Y97.26 E31.12969
G1 X122.329 Y97.114 E31.13683
G1 X122.212 Y96.973 E31.14537
G1 X121.967 Y96.868 E31.15778
G1 X99.667 Y96.868 E32.19616
G1 X99.519 Y96.915 E32.20339
G1 X99.377 Y97.035 E32.21205
G1 X99.272 Y97.278 E32.22437
G1 X99.273 Y119.58 E33.26285
G1 X99.32 Y119.727 E33.27003
G1 X99.437 Y119.871 E33.27867
G1 X99.67 Y119.972 E33.2905
G1 X110 Y119.97 E33.77151
G1 F1500 E27.27151
G0 F6000 X109.999 Y119.471
G0 X110.132 Y117.11
G0 X110 Y116.517
G1 F1500 E33.77151
G1 F1200 X109.631 Y116.47 E33.78883
G1 X109.235 Y116.403 E33.80753
G1 X108.851 Y116.316 E33.82586
G1 X108.452 Y116.206 E33.84513
G1 X108.076 Y116.079 E33.86361
G1 X107.73 Y115.947 E33.88086
G1 X107.356 Y115.78 E33.89993
G1 X107.009 Y115.611 E33.9179
G1 X106.66 Y115.413 E33.93659
G1 X106.293 Y115.18 E33.95683
G1 X105.964 Y114.95 E33.97552
G1 X105.664 Y114.715 E33.99327
G1 X105.367 Y114.455 E34.01165
G1 X105.074 Y114.182 E34.03029
G1 X104.793 Y113.884 E34.04937
G1 X104.537 Y113.591 E34.06748
G1 X104.304 Y113.288 E34.08528
G1 X104.064 Y112.949 E34.10462
G1 X103.845 Y112.61 E34.12341
G1 X103.64 Y112.245 E34.14291
G1 X103.473 Y111.906 E34.1605
G1 X103.317 Y111.557 E34.1783
G1 X103.166 Y111.168 E34.19773
G1 X103.043 Y110.799 E34.21585
G1 X102.933 Y110.406 E34.23485
G1 X102.842 Y110.013 E34.25363
G1 X102.777 Y109.622 E34.27209
G1 X102.728 Y109.241 E34.28998
G1 X102.696 Y108.841 E34.30866
G1 X102.688 Y108.453 E34.32673
G1 X102.696 Y108.009 E34.34741
G1 X102.725 Y107.61 E34.36604
G1 X102.774 Y107.231 E34.38383
G1 X102.841 Y106.834 E34.40258
G1 X102.931 Y106.446 E34.42113
G1 X103.041 Y106.046 E34.44044
G1 X103.161 Y105.68 E34.45838
G1 X103.297 Y105.326 E34.47604
G1 X103.465 Y104.95 E34.49521
G1 X103.637 Y104.606 E34.51312
G1 X103.838 Y104.245 E34.53236
G1 X104.056 Y103.9 E34.55137
G1 X104.294 Y103.564 E34.57054
G1 X104.532 Y103.261 E34.58848
G1 X104.803 Y102.946 E34.60783
G1 X105.053 Y102.683 E34.62473
G1 X105.357 Y102.392 E34.64432
G1 X105.671 Y102.123 E34.66357
G1 X105.973 Y101.884 E34.68151
G1 X106.313 Y101.646 E34.70083
G1 X106.637 Y101.441 E34.71869
G1 X106.993 Y101.241 E34.7377
